NanFang2023/CQL_sepsis/CQL-new/SimpleSAC/experiment_output2/default_2023_06_07_23_11_36-s-42--5c6c6c3bbdf24e1394490fe0b0472a5a/progress.csv
env_steps,epoch,sac/log_pi,sac/policy_loss,sac/qf1_loss,sac/qf2_loss,sac/alpha_loss,sac/alpha,sac/average_qf1,sac/average_qf2,sac/average_target_q,sac/total_steps,average_return,average_traj_length,rollout_time,train_time,eval_time,epoch_time
1000,0,-1.712039828300476,-12.54151725769043,1.4259790182113647,1.4295095205307007,-1.4090263843536377,0.741539478302002,10.749541282653809,10.757218360900879,10.175240516662598,1000,91.588745,52.6,4.801191806793213,14.816388607025146,0.3629164695739746,19.980496883392334
2000,1,-1.227381944656372,-23.620420455932617,6.294156074523926,5.916304588317871,-2.4700160026550293,0.5575016736984253,22.27808380126953,22.14984893798828,21.66299057006836,2000,1.4784722328186035,14.00202226638794,1.1682510375976562e-05,15.480506181716919
3000,2,-0.7354012727737427,-33.95573806762695,4.343064308166504,3.8246138095855713,-3.215118169784546,0.42285940051078796,32.79578399658203,32.770851135253906,31.91229820251465,3000,1.9993386268615723,14.236565113067627,9.775161743164062e-06,16.235913515090942
4000,3,0.26102134585380554,-45.02891540527344,7.336007118225098,7.017035007476807,-3.06101131439209,0.3270723223686218,43.46574783325195,43.35662841796875,42.91835021972656,4000,1.9827032089233398,13.326728582382202,1.4543533325195312e-05,15.309446334838867
5000,4,0.43720903992652893,-54.725181579589844,6.510664463043213,6.566737174987793,-3.478635787963867,0.25733867287635803,53.43450164794922,53.36670684814453,52.75690841674805,5000,1.424668312072754,11.89176082611084,1.4066696166992188e-05,13.31644320487976
6000,5,1.5338335037231445,-64.6591796875,21.438589096069336,20.346704483032227,-2.330390453338623,0.20403888821601868,63.264400482177734,62.99603271484375,62.43077087402344,6000,1.4314398765563965,12.108948469161987,1.239776611328125e-05,13.540400743484497
7000,6,1.6290719509124756,-75.57474517822266,20.80143165588379,19.513656616210938,-2.472719430923462,0.16469122469425201,73.48495483398438,73.49897766113281,72.80699157714844,7000,1.3895909786224365,12.607239961624146,9.5367431640625e-06,13.996840476989746
8000,7,2.338463306427002,-85.7435073852539,9.165380477905273,8.646268844604492,-1.3134703636169434,0.137314110994339,84.29507446289062,84.14555358886719,83.47651672363281,8000,1.4225761890411377,12.112343072891235,1.6450881958007812e-05,13.534935712814331
9000,8,2.41682767868042,-96.32357025146484,21.80367088317871,21.57122802734375,-1.2554028034210205,0.11616858839988708,94.85908508300781,94.50779724121094,94.27923583984375,9000,2.6905856132507324,14.002074241638184,1.430511474609375e-05,16.692674160003662
10000,9,2.841416358947754,-101.0818862915039,51.01476287841797,51.818477630615234,-0.3570782542228699,0.10522349178791046,99.60092163085938,99.15199279785156,100.17782592773438,10000,337.25278,161.6,2.798793077468872,13.406459093093872,1.0756745338439941,17.28092670440674
11000,10,2.746342658996582,-113.08417510986328,23.254039764404297,28.774003982543945,-0.5846181511878967,0.09978319704532623,111.5953369140625,112.03773498535156,110.39082336425781,11000,1.3883123397827148,14.674888849258423,1.4066696166992188e-05,16.063215255737305
12000,11,2.924649715423584,-115.45506286621094,14.69814395904541,15.248018264770508,-0.1774444282054901,0.09490109980106354,114.22001647949219,114.29605102539062,114.22803497314453,12000,1.7192437648773193,13.888047218322754,1.0013580322265625e-05,15.607300996780396
13000,12,2.9592766761779785,-121.67019653320312,24.906158447265625,27.620290756225586,-0.09247094392776489,0.10323846340179443,119.6248779296875,119.59567260742188,118.72991180419922,13000,1.9949231147766113,12.9541175365448,8.821487426757812e-06,14.949049472808838
14000,13,3.2757625579833984,-124.39117431640625,54.750587463378906,51.27555847167969,0.6103595495223999,0.10933355242013931,122.52627563476562,122.80186462402344,121.94331359863281,14000,1.3882098197937012,12.488481283187866,7.62939453125e-06,13.876698732376099
15000,14,2.8125226497650146,-134.95172119140625,15.021798133850098,15.069816589355469,-0.41421711444854736,0.10976377874612808,133.7457275390625,133.7667236328125,132.95849609375,15000,1.3930490016937256,12.302743911743164,7.62939453125e-06,13.695800542831421
16000,15,3.042555570602417,-138.95166015625,31.58957290649414,32.66612243652344,0.09367948770523071,0.1106538325548172,137.59619140625,137.64285278320312,137.14364624023438,16000,1.4925436973571777,12.112435340881348,8.344650268554688e-06,13.604987382888794
17000,16,3.0344326496124268,-135.73751831054688,12.19381332397461,14.490477561950684,0.07387547194957733,0.11700849235057831,134.64138793945312,134.5961151123047,133.50970458984375,17000,1.3792734146118164,13.928261518478394,1.239776611328125e-05,15.307547330856323
18000,17,3.0947232246398926,-142.07875061035156,32.063819885253906,35.561161041259766,0.20584812760353088,0.11381818354129791,139.50344848632812,139.8919219970703,139.32427978515625,18000,1.4032652378082275,15.247297286987305,1.3828277587890625e-05,16.65057635307312
19000,18,3.3027381896972656,-147.81155395507812,19.511211395263672,20.91544532775879,0.6570030450820923,0.11415477097034454,146.19891357421875,146.78720092773438,146.1298828125,19000,1.580761194229126,13.216218948364258,8.344650268554688e-06,14.796988487243652
20000,19,3.209376096725464,-144.70675659179688,21.282012939453125,26.276630401611328,0.4529055953025818,0.11496591567993164,142.41896057128906,142.81414794921875,141.98207092285156,20000,-0.04313173,20.0,1.4298396110534668,14.958656787872314,0.17767643928527832,16.56617283821106
21000,20,2.804978370666504,-143.1662139892578,16.17572021484375,16.17871856689453,-0.4068802297115326,0.12414128333330154,141.20016479492188,141.94747924804688,141.4091796875,21000,2.0453433990478516,14.525665044784546,6.4373016357421875e-06,16.571014881134033
22000,21,3.0740582942962646,-152.21145629882812,28.06713104248047,23.457738876342773,0.15165412425994873,0.12902244925498962,150.78799438476562,150.25421142578125,150.2080078125,22000,1.6195781230926514,13.000818014144897,6.4373016357421875e-06,14.620402574539185
23000,22,3.0430779457092285,-149.5494842529297,16.909149169921875,17.20184326171875,0.08540195971727371,0.1377241164445877,148.9365692138672,148.6607208251953,147.9207763671875,23000,1.578857421875,11.722406148910522,6.4373016357421875e-06,13.301270008087158
24000,23,2.76898193359375,-149.78460693359375,20.1342716217041,16.66326904296875,-0.457959920167923,0.13774436712265015,148.32870483398438,148.74810791015625,148.42819213867188,24000,1.3901216983795166,11.723963975906372,9.298324584960938e-06,13.114094972610474
25000,24,3.2214670181274414,-154.17666625976562,43.20466613769531,46.18340301513672,0.4526427388191223,0.12953072786331177,152.32009887695312,151.8513641357422,151.58837890625,25000,1.405205249786377,12.606515645980835,1.239776611328125e-05,14.011733293533325
26000,25,3.349862813949585,-150.4161376953125,38.11920928955078,39.80267333984375,0.7054699659347534,0.13313139975070953,148.88421630859375,148.36029052734375,148.955322265625,26000,1.4054553508758545,15.95510745048523,1.0967254638671875e-05,17.360573768615723
27000,26,2.5716915130615234,-163.7425537109375,19.38707733154297,22.920072555541992,-0.8224062919616699,0.1465884894132614,162.00289916992188,161.77957153320312,161.52903747558594,27000,1.4283604621887207,14.645604372024536,6.9141387939453125e-06,16.07397174835205
28000,27,3.04171085357666,-152.011474609375,25.568748474121094,21.49993324279785,0.07912828028202057,0.15000827610492706,150.73004150390625,150.91339111328125,150.79373168945312,28000,1.481523036956787,12.796115636825562,2.1457672119140625e-05,14.277660131454468
29000,28,2.9530422687530518,-155.996337890625,27.680503845214844,29.403898239135742,-0.09270137548446655,0.13887935876846313,154.48504638671875,153.9656524658203,154.95574951171875,29000,1.9727137088775635,15.090546369552612,7.62939453125e-06,17.063267707824707
30000,29,2.8443853855133057,-154.3536834716797,16.05040168762207,17.94997215270996,-0.31042104959487915,0.13603997230529785,153.42848205566406,153.48214721679688,153.00637817382812,30000,1053.1731,415.4,1.7735230922698975,13.348933458328247,2.7298474311828613,17.852303981781006
31000,30,2.8590452671051025,-162.89511108398438,17.40654945373535,18.39327049255371,-0.2890470623970032,0.12865279614925385,162.130615234375,162.76734924316406,162.801025390625,31000,1.3941564559936523,12.152585744857788,1.0967254638671875e-05,13.546753168106079
32000,31,2.832440137863159,-165.21934509277344,17.6651668548584,18.400146484375,-0.34658822417259216,0.12638209760189056,164.87449645996094,163.92984008789062,163.77127075195312,32000,1.4148924350738525,12.365283012390137,9.5367431640625e-06,13.780184984207153
33000,32,3.0237951278686523,-164.6315155029297,17.333423614501953,15.323905944824219,0.049362197518348694,0.12562143802642822,163.9672393798828,163.023681640625,162.8719482421875,33000,1.7035226821899414,12.098077774047852,7.3909759521484375e-06,13.801607847213745
34000,33,3.0387964248657227,-158.89553833007812,22.156293869018555,19.5689754486084,0.08040711283683777,0.12586379051208496,157.45460510253906,157.1590576171875,157.1613006591797,34000,1.4039220809936523,13.397955179214478,1.6450881958007812e-05,14.801893711090088
35000,34,3.0044708251953125,-161.77828979492188,12.394254684448242,15.511320114135742,0.009166955947875977,0.12867698073387146,160.7428741455078,161.44879150390625,159.98773193359375,35000,2.3459091186523438,15.081244468688965,7.62939453125e-06,17.42716121673584
36000,35,3.1334524154663086,-165.99342346191406,32.62192153930664,26.987606048583984,0.2704432010650635,0.1317940205335617,165.26226806640625,164.400390625,164.62078857421875,36000,1.4052999019622803,13.361428499221802,1.1205673217773438e-05,14.7667396068573
37000,36,2.8440096378326416,-173.1842041015625,109.17314910888672,117.73014831542969,-0.3116800785064697,0.1355966478586197,171.71632385253906,171.76058959960938,171.912353515625,37000,1.4061613082885742,14.72092080116272,1.71661376953125e-05,16.12709927558899
38000,37,3.1907782554626465,-168.58218383789062,19.0704345703125,19.81157684326172,0.368204265832901,0.14514665305614471,167.39013671875,167.488037109375,167.66485595703125,38000,1.9907135963439941,14.88519835472107,6.67572021484375e-06,16.87591862678528
39000,38,3.2177748680114746,-172.91156005859375,62.73893356323242,55.23131561279297,0.42397814989089966,0.14272093772888184,171.53245544433594,170.59640502929688,171.86087036132812,39000,2.327847719192505,12.683615684509277,8.821487426757812e-06,15.011472225189209
40000,39,2.5636844635009766,-169.06239318847656,19.624366760253906,19.496055603027344,-0.8513181209564209,0.14211012423038483,167.9307861328125,168.02215576171875,168.0017852783203,40000,2811.3794,1000.0,1.4039831161499023,12.743085622787476,6.950726747512817,21.097795486450195
41000,40,3.1555893421173096,-176.92193603515625,18.289714813232422,18.468591690063477,0.30835697054862976,0.13781215250492096,175.33859252929688,176.18896484375,175.2352752685547,41000,1.4123566150665283,12.647961378097534,1.3113021850585938e-05,14.060331106185913
42000,41,3.068624258041382,-178.16835021972656,52.86408996582031,49.13599395751953,0.13639548420906067,0.13702820241451263,176.9571990966797,177.12939453125,178.01058959960938,42000,1.4287710189819336,12.2117178440094,7.152557373046875e-06,13.640496015548706
43000,42,3.0397515296936035,-187.5734100341797,16.565570831298828,16.441457748413086,0.07799889147281647,0.14055468142032623,186.00900268554688,186.63607788085938,185.8307647705078,43000,1.4192545413970947,15.537670612335205,1.239776611328125e-05,16.956937551498413
44000,43,3.0006518363952637,-187.61373901367188,16.924800872802734,15.571992874145508,0.001262754201889038,0.14402271807193756,186.18345642089844,187.41476440429688,186.2273712158203,44000,3.158879280090332,13.943283319473267,9.775161743164062e-06,17.102172374725342
45000,44,2.877736806869507,-188.12600708007812,17.7138671875,21.377174377441406,-0.24026034772396088,0.14014072716236115,187.55686950683594,187.11553955078125,187.22378540039062,45000,1.424673080444336,15.92653226852417,1.4781951904296875e-05,17.35122013092041
46000,45,3.296724557876587,-186.3395233154297,35.13726806640625,37.98535919189453,0.5751672387123108,0.1439359337091446,184.57986450195312,183.43138122558594,184.79066467285156,46000,1.9940767288208008,14.737717390060425,1.0728836059570312e-05,16.731804847717285
47000,46,2.749892234802246,-189.89959716796875,29.113557815551758,31.15027618408203,-0.48615944385528564,0.14315886795520782,188.89126586914062,188.57052612304688,188.3943328857422,47000,1.9350898265838623,12.41846489906311,1.4066696166992188e-05,14.35356879234314
48000,47,2.8431365489959717,-196.68392944335938,11.548556327819824,14.511996269226074,-0.30604690313339233,0.14212633669376373,195.62472534179688,195.87088012695312,195.81283569335938,48000,1.4314682483673096,12.165316820144653,9.5367431640625e-06,13.596794605255127
49000,48,2.9687178134918213,-187.12908935546875,19.104969024658203,19.359851837158203,-0.060644157230854034,0.14390213787555695,186.2981719970703,186.32379150390625,186.1690216064453,49000,1.3784675598144531,11.858289241790771,1.4543533325195312e-05,13.23677134513855
50000,49,3.081202983856201,-194.50076293945312,23.490713119506836,30.229902267456055,0.1613132357597351,0.13716845214366913,193.011962890625,193.0198211669922,192.13888549804688,50000,742.49207,234.2,1.4197196960449219,12.310716390609741,1.5629589557647705,15.293395042419434
51000,50,3.116635799407959,-193.97488403320312,12.205547332763672,13.67760944366455,0.23527389764785767,0.13303156197071075,192.73768615722656,192.87828063964844,192.12005615234375,51000,1.4171748161315918,13.362779378890991,7.867813110351562e-06,14.779962062835693
52000,51,3.1901674270629883,-185.64471435546875,27.014034271240234,25.985618591308594,0.38193920254707336,0.1341981142759323,183.78271484375,183.868408203125,184.54791259765625,52000,1.3831181526184082,16.09247589111328,5.9604644775390625e-06,17.475600004196167
53000,52,3.2520244121551514,-191.13116455078125,16.0816707611084,14.464942932128906,0.5014175772666931,0.13675564527511597,190.4388427734375,190.44207763671875,189.09255981445312,53000,1.9412927627563477,13.773149490356445,7.867813110351562e-06,15.714450120925903
54000,53,2.657510757446289,-195.90585327148438,14.58963680267334,16.55440330505371,-0.6818610429763794,0.13657282292842865,194.45355224609375,194.76121520996094,194.77053833007812,54000,2.0570168495178223,14.77547836303711,9.775161743164062e-06,16.832504987716675
55000,54,3.1771106719970703,-200.128173828125,21.347042083740234,22.145954132080078,0.3552524447441101,0.13454963266849518,198.99610900878906,198.1362762451172,198.656982421875,55000,1.8827097415924072,13.825281858444214,1.3828277587890625e-05,15.708005428314209
56000,55,2.7959847450256348,-196.863037109375,18.298322677612305,13.690193176269531,-0.40867701172828674,0.13490727543830872,195.90780639648438,195.95535278320312,195.34889221191406,56000,1.4000821113586426,12.228593826293945,6.67572021484375e-06,13.628682613372803
57000,56,2.9962306022644043,-198.33908081054688,19.70184326171875,20.019405364990234,-0.007479444146156311,0.1374882608652115,196.9019775390625,197.19537353515625,196.56541442871094,57000,1.3745839595794678,12.772354364395142,6.198883056640625e-06,14.146944522857666
58000,57,3.0867741107940674,-198.02867126464844,12.491405487060547,15.061639785766602,0.17814859747886658,0.12834703922271729,196.9932861328125,196.41116333007812,196.4058837890625,58000,1.4107799530029297,11.854839563369751,7.152557373046875e-06,13.265626668930054
59000,58,3.101367473602295,-201.57469177246094,14.168277740478516,12.012348175048828,0.2092350423336029,0.1269291639328003,200.46286010742188,200.45545959472656,200.23153686523438,59000,1.3822693824768066,11.615808725357056,6.4373016357421875e-06,12.998084545135498
60000,59,3.037811517715454,-203.2197265625,24.35382652282715,28.430700302124023,0.07837378978729248,0.1258401721715927,201.81069946289062,201.73648071289062,201.20089721679688,60000,1588.8932,485.8,1.382871150970459,14.562406063079834,3.4377553462982178,19.38303256034851
61000,60,2.8478026390075684,-195.66746520996094,10.785036087036133,10.393028259277344,-0.3169187605381012,0.12464460730552673,194.8824462890625,195.096923828125,194.65420532226562,61000,3.0473713874816895,12.818620204925537,7.867813110351562e-06,15.865999460220337
62000,61,3.020768165588379,-206.55795288085938,14.711132049560547,14.682865142822266,0.043055757880210876,0.12578773498535156,205.85665893554688,206.35897827148438,206.74957275390625,62000,1.4046800136566162,14.866012573242188,1.0251998901367188e-05,16.270702838897705
63000,62,3.218991279602051,-199.77597045898438,17.33856201171875,16.444534301757812,0.452398419380188,0.12671306729316711,198.674072265625,199.18972778320312,197.7122344970703,63000,2.063605546951294,14.995649337768555,6.4373016357421875e-06,17.059261322021484
64000,63,3.002760648727417,-208.69107055664062,13.209712982177734,12.240931510925293,0.005703359842300415,0.1266900599002838,207.63246154785156,208.01327514648438,207.21461486816406,64000,1.96287202835083,12.602957487106323,6.67572021484375e-06,14.565836191177368
65000,64,3.414458751678467,-211.99563598632812,14.660696029663086,13.44710636138916,0.8701612949371338,0.12251610308885574,211.02133178710938,211.72669982910156,211.0286865234375,65000,1.567878007888794,12.129793405532837,1.239776611328125e-05,13.697683811187744
66000,65,2.8641176223754883,-208.6393585205078,8.028373718261719,9.935754776000977,-0.2867428660392761,0.12120997160673141,207.75906372070312,208.491943359375,207.35260009765625,66000,1.4164080619812012,12.051512002944946,1.3589859008789062e-05,13.467933654785156
67000,66,3.3051395416259766,-200.99343872070312,16.58529281616211,15.626749038696289,0.6561177968978882,0.11645818501710892,199.94924926757812,200.00364685058594,199.3272247314453,67000,1.3895819187164307,12.32027268409729,8.821487426757812e-06,13.709863424301147
68000,67,2.797414541244507,-211.33139038085938,9.246055603027344,12.537294387817383,-0.4403184950351715,0.11377938836812973,210.61322021484375,210.90895080566406,210.5082244873047,68000,1.4027254581451416,14.759464025497437,1.0967254638671875e-05,16.162200450897217
69000,68,3.1638407707214355,-207.0761260986328,24.30935287475586,20.459613800048828,0.3554477393627167,0.11423825472593307,206.13006591796875,206.19117736816406,205.66943359375,69000,2.346212863922119,14.717936754226685,6.67572021484375e-06,17.06415629386902
70000,69,2.914125919342041,-208.676025390625,8.663127899169922,8.339887619018555,-0.1895592361688614,0.10998483747243881,208.5971221923828,208.36508178710938,207.4141387939453,70000,2806.6646,1000.0,1.4344148635864258,14.048715829849243,9.875785827636719,25.358916521072388
71000,70,2.9746484756469727,-203.56065368652344,11.89794635772705,8.564226150512695,-0.056121766567230225,0.10928956419229507,202.54586791992188,203.10012817382812,203.3590087890625,71000,2.2909700870513916,13.706879615783691,6.67572021484375e-06,15.997856378555298
72000,71,3.2091240882873535,-215.26046752929688,7.330672740936279,7.509557247161865,0.46453291177749634,0.10846517980098724,214.8892059326172,214.54193115234375,214.0052947998047,72000,2.090562105178833,12.955440044403076,6.4373016357421875e-06,15.046008586883545
73000,72,2.961212396621704,-215.45391845703125,8.825906753540039,11.115752220153809,-0.08621551096439362,0.10830935835838318,214.7564697265625,215.32186889648438,214.12217712402344,73000,1.6616160869598389,12.257983684539795,1.9550323486328125e-05,13.91961932182312
74000,73,3.0628042221069336,-210.5755157470703,11.467203140258789,13.732171058654785,0.14072996377944946,0.10637573897838593,210.2139129638672,209.57315063476562,210.17892456054688,74000,1.4003612995147705,12.358155488967896,2.4318695068359375e-05,13.758541107177734
75000,74,3.1721034049987793,-212.32839965820312,49.165462493896484,50.61443328857422,0.38713979721069336,0.10545600950717926,212.14056396484375,211.68923950195312,211.4906768798828,75000,1.389763593673706,12.582059144973755,1.1920928955078125e-05,13.971834659576416
76000,75,2.9569733142852783,-212.64752197265625,15.227201461791992,17.154712677001953,-0.09759654104709625,0.10349032282829285,212.13128662109375,212.281494140625,212.17807006835938,76000,1.3951301574707031,14.30378246307373,2.6941299438476562e-05,15.698939561843872
77000,76,2.8022961616516113,-214.4467315673828,10.336652755737305,11.839637756347656,-0.45223307609558105,0.1015273854136467,213.90841674804688,214.1893310546875,212.3367462158203,77000,2.4014151096343994,14.88302993774414,7.3909759521484375e-06,17.284452438354492
78000,77,3.3015928268432617,-220.93222045898438,13.736371994018555,13.827947616577148,0.6847946643829346,0.10325069725513458,220.45370483398438,220.514892578125,220.8573760986328,78000,1.39971923828125,13.328228950500488,2.7418136596679688e-05,14.727975606918335
79000,78,2.990356922149658,-215.12643432617188,18.784212112426758,20.628324508666992,-0.021745219826698303,0.10487823933362961,214.30307006835938,214.60354614257812,213.8406982421875,79000,1.9143688678741455,14.352027654647827,7.3909759521484375e-06,16.266403913497925
80000,79,2.8759567737579346,-216.22259521484375,11.221134185791016,11.337606430053711,-0.28256717324256897,0.10249177366495132,215.9150848388672,215.5543670654297,214.79278564453125,80000,802.6727,286.2,2.011880874633789,13.49742841720581,1.9629228115081787,17.47223210334778
81000,80,2.9887518882751465,-211.79373168945312,12.391643524169922,8.277875900268555,-0.025792837142944336,0.10095314681529999,210.64491271972656,211.2623748779297,210.64114379882812,81000,1.4140985012054443,11.999614000320435,6.4373016357421875e-06,13.413718938827515
82000,81,2.695847511291504,-216.28579711914062,7.718897819519043,7.537430763244629,-0.6961396336555481,0.10138960927724838,215.56175231933594,216.03182983398438,216.04409790039062,82000,1.5347747802734375,12.185630559921265,1.4066696166992188e-05,13.72041940689087
83000,82,3.093604564666748,-219.84625244140625,9.626917839050293,11.8279447555542,0.21408183872699738,0.10156241804361343,219.09759521484375,219.53921508789062,218.32586669921875,83000,1.406177043914795,12.134521484375,7.62939453125e-06,13.540706157684326
84000,83,2.790792942047119,-222.08151245117188,6.640829086303711,6.605212211608887,-0.48005005717277527,0.10079997032880783,221.4672088623047,221.67469787597656,220.9896240234375,84000,1.4121692180633545,12.026102304458618,6.67572021484375e-06,13.438278198242188
85000,84,2.9906859397888184,-218.71148681640625,10.545787811279297,12.570789337158203,-0.021610766649246216,0.09824958443641663,217.95492553710938,218.1042022705078,218.32359313964844,85000,1.3997395038604736,14.716135740280151,6.9141387939453125e-06,16.11588215827942
86000,85,3.099916696548462,-227.84970092773438,9.336519241333008,8.317066192626953,0.23179945349693298,0.09828069061040878,227.76385498046875,227.43746948242188,226.2391815185547,86000,1.5807368755340576,14.162023305892944,1.0728836059570312e-05,15.742770910263062
87000,86,3.1932637691497803,-217.854736328125,10.38273811340332,11.576488494873047,0.44652482867240906,0.09921713173389435,217.25949096679688,217.26602172851562,216.54600524902344,87000,1.4163777828216553,15.053833723068237,4.649162292480469e-05,16.470257997512817
88000,87,2.998338222503662,-228.0915985107422,9.470174789428711,8.354394912719727,-0.003849238157272339,0.09865662455558777,227.13525390625,227.69302368164062,226.97897338867188,88000,2.046577215194702,14.966221809387207,6.67572021484375e-06,17.012805700302124
89000,88,3.1233794689178467,-224.11680603027344,9.037357330322266,11.444716453552246,0.2840723693370819,0.10001583397388458,223.1302032470703,223.63339233398438,222.59954833984375,89000,2.2447781562805176,13.405452728271484,1.049041748046875e-05,15.650241374969482
90000,89,2.972109794616699,-224.99755859375,9.419614791870117,12.342909812927246,-0.0643625259399414,0.09948793053627014,224.30760192871094,224.40342712402344,223.8499298095703,90000,1595.8655,546.6,1.3728375434875488,12.519353866577148,3.9252805709838867,17.817471981048584
91000,90,3.0860824584960938,-225.30267333984375,11.783321380615234,10.21990966796875,0.19869861006736755,0.09943658858537674,224.593017578125,224.97271728515625,224.7552490234375,91000,1.4075584411621094,11.887430429458618,1.2636184692382812e-05,13.29500150680542
92000,91,3.1251587867736816,-222.29701232910156,17.416244506835938,14.942044258117676,0.290194571018219,0.09841050207614899,221.91177368164062,221.68368530273438,221.68008422851562,92000,1.410076379776001,12.39875841140747,1.430511474609375e-05,13.808849096298218
93000,92,3.2216062545776367,-223.3468017578125,8.376827239990234,8.828341484069824,0.5146015286445618,0.0980634093284607,222.47494506835938,222.46499633789062,222.2359161376953,93000,1.4297542572021484,13.36016845703125,1.0251998901367188e-05,14.7899329662323
94000,93,3.099238634109497,-231.43955993652344,8.673233985900879,7.790561676025391,0.23011228442192078,0.09839372336864471,231.0851287841797,231.19044494628906,230.58218383789062,94000,3.267092227935791,14.473581790924072,6.4373016357421875e-06,17.7406804561615
95000,94,2.9101033210754395,-235.76622009277344,10.944852828979492,7.298155784606934,-0.2074127197265625,0.09953615814447403,235.35731506347656,235.87112426757812,234.88597106933594,95000,1.3901262283325195,12.467263460159302,1.2874603271484375e-05,13.857402563095093
96000,95,2.819060802459717,-230.2705841064453,33.91743850708008,27.94923210144043,-0.4197317361831665,0.09829934686422348,230.02413940429688,229.2445068359375,228.6004638671875,96000,2.0001955032348633,15.032505989074707,1.430511474609375e-05,17.032715797424316
97000,96,2.838428497314453,-231.01211547851562,5.449016571044922,7.6574602127075195,-0.375283420085907,0.09800820052623749,230.21353149414062,230.74700927734375,230.01889038085938,97000,1.6914002895355225,13.646959066390991,6.4373016357421875e-06,15.33836579322815
98000,97,2.7946345806121826,-231.95689392089844,10.716214179992676,9.238426208496094,-0.47346144914627075,0.09971296787261963,231.29611206054688,231.99143981933594,231.98297119140625,98000,1.9734394550323486,11.97519063949585,6.4373016357421875e-06,13.948636531829834
99000,98,2.8718862533569336,-235.26226806640625,11.031997680664062,9.00238037109375,-0.2992278039455414,0.09674806147813797,234.7819366455078,234.86045837402344,234.58584594726562,99000,1.7113070487976074,12.826937198638916,1.3113021850585938e-05,14.538257360458374
100000,99,2.9283621311187744,-222.35714721679688,16.131214141845703,18.633310317993164,-0.16927024722099304,0.09415018558502197,221.17855834960938,221.71334838867188,221.94546508789062,100000,1963.0953,611.2,1.4122436046600342,12.672900915145874,4.124351978302002,18.20949649810791
101000,100,3.2119104862213135,-228.641845703125,6.3557233810424805,10.27372932434082,0.4988518953323364,0.09498205780982971,227.6494903564453,227.73948669433594,227.67100524902344,101000,1.4143500328063965,12.28793740272522,6.67572021484375e-06,13.702294111251831
102000,101,2.8859009742736816,-237.41372680664062,6.805780410766602,7.8777995109558105,-0.267924964427948,0.095542773604393,237.02459716796875,236.80178833007812,236.3654022216797,102000,1.4498133659362793,15.222326040267944,1.33514404296875e-05,16.672152757644653
103000,102,3.1206955909729004,-232.8386688232422,13.11984920501709,14.462526321411133,0.2832030653953552,0.09571057558059692,231.7892608642578,232.21365356445312,231.84896850585938,103000,3.124315023422241,13.628321647644043,9.5367431640625e-06,16.75264620780945
104000,103,2.869745969772339,-234.59445190429688,10.467691421508789,9.251045227050781,-0.30418431758880615,0.09678017348051071,234.3009796142578,234.58331298828125,234.29013061523438,104000,1.4247848987579346,15.189380407333374,2.8848648071289062e-05,16.61419415473938
105000,104,2.841122627258301,-230.854248046875,20.598764419555664,18.99127960205078,-0.375278502702713,0.09422555565834045,230.60238647460938,230.26588439941406,230.2620849609375,105000,2.040095090866089,14.657730340957642,8.821487426757812e-06,16.697834253311157
106000,105,2.9470736980438232,-231.93197631835938,66.85468292236328,82.57413482666016,-0.12403154373168945,0.09599347412586212,231.47067260742188,231.82815551757812,232.391845703125,106000,1.9184684753417969,12.262274742126465,8.821487426757812e-06,14.180752038955688
107000,106,2.911294937133789,-238.09683227539062,7.386159420013428,8.50465202331543,-0.2102864682674408,0.09342213720083237,237.5474090576172,237.66510009765625,236.58212280273438,107000,1.4465765953063965,12.225316524505615,8.106231689453125e-06,13.671901226043701
108000,107,2.698237895965576,-232.47116088867188,7.735598087310791,8.396265029907227,-0.7278903126716614,0.0896240621805191,231.83934020996094,232.06956481933594,232.1041259765625,108000,1.38153076171875,12.002122402191162,9.5367431640625e-06,13.383662700653076
109000,108,3.1391243934631348,-233.44810485839844,13.220300674438477,13.401188850402832,0.3356260061264038,0.08959867805242538,233.19937133789062,232.82681274414062,232.26605224609375,109000,1.394294261932373,11.983979940414429,1.1205673217773438e-05,13.37828540802002
110000,109,2.988213062286377,-234.67909240722656,11.3951997756958,8.969030380249023,-0.02850458025932312,0.08907226473093033,234.12884521484375,234.6016845703125,234.04396057128906,110000,2002.7959,605.0,1.412024736404419,13.524976015090942,5.872114896774292,20.809115648269653
111000,110,2.876878023147583,-236.87701416015625,6.861100196838379,6.9322309494018555,-0.2985239028930664,0.08851209282875061,236.78102111816406,236.58859252929688,235.81715393066406,111000,1.391493797302246,14.53156566619873,1.3589859008789062e-05,15.923073053359985
112000,111,2.8454413414001465,-236.9560089111328,6.880338668823242,6.939444541931152,-0.3759801685810089,0.08780796080827713,236.60501098632812,236.91407775878906,236.92825317382812,112000,1.4001011848449707,13.177772760391235,1.2159347534179688e-05,14.57788610458374
113000,112,3.303725242614746,-235.6610870361328,21.088138580322266,19.60239028930664,0.7481504678726196,0.0851578637957573,235.14675903320312,234.91444396972656,234.25350952148438,113000,1.925832986831665,14.57161808013916,1.1205673217773438e-05,16.497462272644043
114000,113,3.05731201171875,-230.2430877685547,5.463415145874023,5.403936862945557,0.14054131507873535,0.08610302954912186,229.99441528320312,229.72335815429688,229.42955017089844,114000,2.116603136062622,12.898471117019653,1.1682510375976562e-05,15.015085935592651
115000,114,3.0533649921417236,-236.00741577148438,12.993721961975098,10.51739501953125,0.13075584173202515,0.08627485483884811,235.10916137695312,235.42807006835938,234.94381713867188,115000,1.403397560119629,12.56883454322815,1.9073486328125e-05,13.972251176834106
116000,115,2.8295156955718994,-237.74148559570312,12.569174766540527,11.8547945022583,-0.4161798655986786,0.08705951273441315,238.20303344726562,237.2782440185547,237.12069702148438,116000,1.4203577041625977,12.251286029815674,6.4373016357421875e-06,13.671650171279907
117000,116,3.1097733974456787,-238.0404510498047,6.901947021484375,8.321907043457031,0.2716846466064453,0.08416658639907837,238.2020721435547,237.58447265625,237.78335571289062,117000,1.3988609313964844,12.246280670166016,7.867813110351562e-06,13.64514946937561
118000,117,2.857203960418701,-238.38833618164062,14.963186264038086,15.492259979248047,-0.35238248109817505,0.08477677404880524,237.21136474609375,236.8253173828125,235.33282470703125,118000,1.4008049964904785,12.141454219818115,1.1920928955078125e-05,13.542271137237549
119000,118,2.744619369506836,-238.05792236328125,6.523618698120117,8.043684005737305,-0.6280328035354614,0.0855030044913292,238.12232971191406,237.4729461669922,237.76043701171875,119000,2.8410162925720215,13.809094429016113,1.2874603271484375e-05,16.650123596191406
120000,119,3.2838993072509766,-231.7978515625,55.567283630371094,64.21575164794922,0.6931001543998718,0.08704251050949097,231.20455932617188,230.9272003173828,230.6695556640625,120000,1601.0199,539.6,2.8322978019714355,12.980134010314941,3.6163535118103027,19.42878532409668
121000,120,3.0054068565368652,-239.06903076171875,17.078563690185547,16.59351348876953,0.013238027691841125,0.0864306315779686,238.7071075439453,238.37127685546875,238.8094024658203,121000,1.4090948104858398,14.430808782577515,1.1444091796875e-05,15.839915037155151
122000,121,3.130523443222046,-239.1953887939453,8.334132194519043,8.194884300231934,0.32223764061927795,0.08468564599752426,239.12030029296875,239.1931610107422,238.48739624023438,122000,2.0075089931488037,14.169453382492065,6.198883056640625e-06,16.176968574523926
123000,122,2.993102550506592,-241.9730224609375,7.95768404006958,7.7623796463012695,-0.01696494221687317,0.08546780794858932,241.61904907226562,241.68421936035156,241.53822326660156,123000,1.9541242122650146,12.260826349258423,6.9141387939453125e-06,14.214957475662231
124000,123,3.01678204536438,-239.62493896484375,5.074126243591309,4.923578262329102,0.04087008535861969,0.08756663650274277,239.5433349609375,239.07171630859375,238.5166015625,124000,1.5176348686218262,12.247099876403809,8.58306884765625e-06,13.764743328094482
125000,124,2.9738056659698486,-234.90943908691406,11.569554328918457,10.851659774780273,-0.06383560597896576,0.08742259442806244,234.76312255859375,234.6029052734375,233.91287231445312,125000,1.4141693115234375,12.527808427810669,1.33514404296875e-05,13.941991090774536
126000,125,3.1515676975250244,-241.85971069335938,6.534489154815674,6.265820503234863,0.37339314818382263,0.08513303846120834,241.6491241455078,241.44735717773438,241.23605346679688,126000,1.3735260963439941,12.296249151229858,1.7642974853515625e-05,13.669792890548706
127000,126,3.202476978302002,-238.45513916015625,30.078594207763672,37.35663604736328,0.49732506275177,0.08575980365276337,237.78009033203125,237.3919219970703,236.80909729003906,127000,1.3772754669189453,14.279940366744995,7.62939453125e-06,15.657223463058472
128000,127,2.851407527923584,-230.4581298828125,6.490481376647949,7.2861480712890625,-0.36720961332321167,0.08447884768247604,230.2650604248047,230.28231811523438,229.73193359375,128000,2.557795524597168,14.407732963562012,6.198883056640625e-06,16.965534687042236
129000,128,2.824183464050293,-242.0673370361328,8.651535034179688,9.54488754272461,-0.433596670627594,0.08490779250860214,241.94796752929688,241.55746459960938,241.80433654785156,129000,1.4987833499908447,12.811209201812744,1.52587890625e-05,14.310007810592651
130000,129,2.784740447998047,-242.10594177246094,7.282251358032227,7.24962854385376,-0.5362614989280701,0.08280789107084274,242.0109405517578,241.80068969726562,241.2407989501953,130000,1518.6044,501.8,2.0172760486602783,15.214251279830933,4.407593011856079,21.63912034034729
131000,130,2.8625144958496094,-240.6329345703125,5.84046745300293,5.307686805725098,-0.34115517139434814,0.08362670242786407,240.150390625,240.33868408203125,239.89073181152344,131000,1.7735705375671387,12.919864177703857,7.62939453125e-06,14.693442344665527
132000,131,2.7597711086273193,-242.6994171142578,9.4225492477417,8.770827293395996,-0.5952540040016174,0.08392250537872314,242.25050354003906,242.0904541015625,241.20411682128906,132000,1.4097819328308105,12.16381573677063,1.1205673217773438e-05,13.573608875274658
133000,132,2.8854117393493652,-242.43222045898438,8.108296394348145,7.572183609008789,-0.2838400602340698,0.08399134874343872,242.00047302246094,242.07205200195312,242.6832733154297,133000,1.4159586429595947,12.968541145324707,6.4373016357421875e-06,14.384506225585938
134000,133,2.953542709350586,-241.3821258544922,6.931286334991455,6.6312150955200195,-0.11526180803775787,0.08365731686353683,241.20608520507812,240.83067321777344,241.01878356933594,134000,1.388794183731079,12.477404832839966,1.1205673217773438e-05,13.866210222244263
135000,134,2.828822374343872,-244.80984497070312,6.7375946044921875,5.494350433349609,-0.42358702421188354,0.08420119434595108,244.49722290039062,244.45379638671875,244.39822387695312,135000,1.5106942653656006,12.608572959899902,1.811981201171875e-05,14.119285345077515
136000,135,2.8673930168151855,-242.95816040039062,5.894227027893066,5.776683807373047,-0.3301185965538025,0.08295556157827377,242.60821533203125,242.9324493408203,241.728759765625,136000,3.1881654262542725,16.855440378189087,1.0967254638671875e-05,20.043616771697998
137000,136,3.076098918914795,-242.38734436035156,7.432876110076904,8.137097358703613,0.190296471118927,0.08203260600566864,242.14794921875,242.2584686279297,241.51417541503906,137000,1.5611698627471924,13.39909315109253,1.3589859008789062e-05,14.96027660369873
138000,137,2.910916328430176,-241.13739013671875,8.519572257995605,8.499781608581543,-0.22251898050308228,0.08226054161787033,240.8614044189453,240.5509490966797,241.40658569335938,138000,1.8267145156860352,14.804087400436401,1.430511474609375e-05,16.630816221237183
139000,138,2.8908445835113525,-247.76174926757812,5.2995829582214355,5.3528313636779785,-0.2719604969024658,0.08278591930866241,247.4434814453125,247.4443817138672,247.23696899414062,139000,2.0376689434051514,14.25894021987915,9.059906005859375e-06,16.296618223190308
140000,139,3.1048905849456787,-247.24826049804688,6.685770034790039,6.355118274688721,0.2609422504901886,0.08309624344110489,247.06402587890625,246.95550537109375,247.0458526611328,140000,1858.57,562.4,1.9163029193878174,12.544197082519531,4.202013254165649,18.662513256072998
141000,140,2.948007106781006,-247.2449951171875,6.882966041564941,4.805964469909668,-0.12952762842178345,0.08280528336763382,246.93699645996094,247.12925720214844,246.88748168945312,141000,1.5721142292022705,11.968684911727905,6.4373016357421875e-06,13.540805578231812
142000,141,2.6822330951690674,-248.96197509765625,9.249616622924805,8.314384460449219,-0.7827234864234924,0.08516199141740799,248.86322021484375,248.6168670654297,248.35345458984375,142000,1.3818867206573486,12.591259241104126,1.6689300537109375e-05,13.973162651062012
143000,142,3.028718948364258,-247.102294921875,6.337252616882324,6.790828704833984,0.07039874792098999,0.0861816480755806,246.5640106201172,246.92770385742188,246.57553100585938,143000,1.416555404663086,12.116521835327148,1.1444091796875e-05,13.533088684082031
144000,143,3.1927595138549805,-250.06991577148438,6.008521556854248,5.759609222412109,0.4742722511291504,0.08539768308401108,249.51438903808594,249.6024932861328,249.5879364013672,144000,1.3889005184173584,14.509099960327148,8.344650268554688e-06,15.898008823394775
145000,144,2.849606990814209,-239.72439575195312,8.288997650146484,7.608789920806885,-0.3684597611427307,0.08629535138607025,239.0849609375,239.3870849609375,238.94419860839844,145000,1.381342887878418,14.8131263256073,7.867813110351562e-06,16.194477081298828
146000,145,2.9337072372436523,-250.7893524169922,8.688992500305176,9.572769165039062,-0.1629045009613037,0.08566097170114517,250.97592163085938,250.2562713623047,250.56283569335938,146000,1.3915822505950928,12.924692392349243,1.7881393432617188e-05,14.316292524337769
147000,146,3.1159048080444336,-256.0798645019531,5.645425796508789,8.3337984085083,0.2866617739200592,0.08431055396795273,255.49874877929688,255.5589141845703,254.97186279296875,147000,1.9064686298370361,15.140854597091675,9.059906005859375e-06,17.047332286834717
148000,147,3.1514816284179688,-243.4730224609375,9.53149700164795,13.151016235351562,0.37030065059661865,0.08676735311746597,242.97885131835938,243.1387939453125,243.3739013671875,148000,2.0145676136016846,13.6795654296875,6.4373016357421875e-06,15.69413948059082
149000,148,2.827057361602783,-252.77798461914062,7.269850730895996,7.823530197143555,-0.42503029108047485,0.08563724905252457,252.57955932617188,252.0654296875,251.97634887695312,149000,1.6879527568817139,12.73535680770874,1.0251998901367188e-05,14.423319816589355
150000,149,3.2002837657928467,-249.51214599609375,7.347283363342285,7.446000576019287,0.4988500475883484,0.08285058289766312,249.15940856933594,249.1951446533203,248.14126586914062,150000,1354.543,436.8,1.4105589389801025,12.410921096801758,2.874387264251709,16.69586730003357
151000,150,3.0206291675567627,-248.75086975097656,8.419312477111816,7.171182632446289,0.05114606022834778,0.08380114287137985,248.44601440429688,248.60202026367188,248.465576171875,151000,1.4039855003356934,11.935462951660156,9.5367431640625e-06,13.339457988739014
152000,151,2.900961399078369,-251.119873046875,10.86677360534668,12.704610824584961,-0.24656106531620026,0.08294762670993805,251.158447265625,250.84768676757812,251.96299743652344,152000,1.3804638385772705,12.249608755111694,8.344650268554688e-06,13.630080938339233
153000,152,2.888584613800049,-245.71853637695312,14.109746932983398,10.03939437866211,-0.275963693857193,0.08400420844554901,245.24374389648438,245.31114196777344,244.7603759765625,153000,3.2179789543151855,13.625130891799927,7.152557373046875e-06,16.843116998672485
154000,153,2.9423370361328125,-243.90237426757812,4.393529415130615,6.1822662353515625,-0.14367346465587616,0.0827767550945282,243.48585510253906,243.93064880371094,243.04830932617188,154000,2.8509461879730225,13.049118757247925,9.298324584960938e-06,15.900074243545532
155000,154,3.215607166290283,-252.49888610839844,8.583988189697266,7.383408546447754,0.5334044098854065,0.08425039052963257,252.2734375,252.1158447265625,252.44207763671875,155000,1.4168756008148193,14.463124752044678,1.3828277587890625e-05,15.880014181137085
156000,155,3.130566358566284,-244.16018676757812,7.183158874511719,8.634918212890625,0.3248235881328583,0.08309188485145569,244.30165100097656,243.697021484375,244.29165649414062,156000,1.798832893371582,14.52931833267212,7.62939453125e-06,16.328158855438232
157000,156,3.2645578384399414,-241.74073791503906,12.206725120544434,15.34670639038086,0.6547189950942993,0.08418259024620056,241.61700439453125,241.0960693359375,242.07049560546875,157000,1.9863438606262207,12.774611234664917,7.152557373046875e-06,14.76096224784851
158000,157,3.0624146461486816,-255.5633087158203,7.557666778564453,6.765625953674316,0.15498338639736176,0.08348137885332108,255.58413696289062,255.23321533203125,255.7716064453125,158000,1.4114151000976562,12.822821140289307,1.0251998901367188e-05,14.234246492385864
159000,158,2.8744235038757324,-245.77197265625,6.045431613922119,9.8628511428833,-0.3098211884498596,0.08482254296541214,245.58409118652344,245.51913452148438,245.25607299804688,159000,1.3806467056274414,11.898914575576782,5.9604644775390625e-06,13.279567241668701
160000,159,3.134200096130371,-250.89208984375,10.902056694030762,11.237632751464844,0.3370441794395447,0.08114626258611679,250.8291778564453,250.6591339111328,250.344482421875,160000,3235.1113,1000.0,1.3751654624938965,12.619890213012695,6.75855278968811,20.753608465194702
161000,160,3.1587650775909424,-243.7289581298828,5.98232364654541,6.046525955200195,0.40051332116127014,0.08024445176124573,243.2749786376953,243.62310791015625,243.52633666992188,161000,1.420590877532959,15.533620357513428,7.867813110351562e-06,16.954219102859497
162000,161,2.966925859451294,-249.3355712890625,9.896181106567383,9.143564224243164,-0.08317765593528748,0.08087243139743805,249.01339721679688,249.32601928710938,248.65109252929688,162000,1.4049646854400635,14.984190702438354,1.8358230590820312e-05,16.38917374610901
163000,162,3.125354766845703,-240.5498504638672,19.09820556640625,21.400476455688477,0.3161526620388031,0.08029352128505707,240.15872192382812,240.36468505859375,239.28024291992188,163000,1.3971552848815918,13.988996505737305,9.059906005859375e-06,15.386160850524902
164000,163,2.928391933441162,-257.6499938964844,9.664545059204102,8.635597229003906,-0.1790471374988556,0.08205404132604599,257.52752685546875,257.25994873046875,256.4993896484375,164000,2.0351076126098633,14.764317274093628,8.106231689453125e-06,16.79943299293518
165000,164,3.3065099716186523,-252.97561645507812,8.37444019317627,7.899240970611572,0.7796555161476135,0.07857867330312729,252.72959899902344,252.34463500976562,252.53005981445312,165000,1.9789648056030273,12.696526288986206,7.152557373046875e-06,14.675498247146606
166000,165,2.934403657913208,-251.4789276123047,245.5305633544922,230.10025024414062,-0.16611570119857788,0.07946857064962387,250.89822387695312,251.12229919433594,251.52874755859375,166000,1.394432783126831,12.596155166625977,1.8358230590820312e-05,13.990606307983398
167000,166,3.0150861740112305,-242.72760009765625,10.482511520385742,10.241439819335938,0.038632676005363464,0.07724171876907349,242.45596313476562,242.45840454101562,242.44717407226562,167000,1.3785951137542725,12.459289073944092,6.67572021484375e-06,13.837890863418579
168000,167,2.784620761871338,-252.53492736816406,11.399276733398438,11.444527626037598,-0.5538665056228638,0.07641404867172241,252.4791259765625,252.04867553710938,251.915771484375,168000,1.4008910655975342,12.691850185394287,8.106231689453125e-06,14.09274935722351
169000,168,2.9418437480926514,-258.3174743652344,6.240752220153809,9.52507495880127,-0.1491459608078003,0.07695195823907852,258.0998840332031,258.0645446777344,257.8283996582031,169000,1.665292739868164,13.870627880096436,1.430511474609375e-05,15.535934925079346
170000,169,2.8183488845825195,-260.3135681152344,5.5920867919921875,6.1143646240234375,-0.46645087003707886,0.07670086622238159,260.27764892578125,259.8785400390625,259.68048095703125,170000,2625.7664,826.4,1.649409294128418,16.643195629119873,5.4782631397247314,23.770868062973022
171000,170,3.095640182495117,-251.1510009765625,12.076881408691406,11.760621070861816,0.24639829993247986,0.07605455070734024,250.73190307617188,251.07339477539062,251.161865234375,171000,1.3949925899505615,14.786811828613281,1.33514404296875e-05,16.181817770004272
172000,171,2.9473862648010254,-249.89805603027344,14.589829444885254,9.357156753540039,-0.1350775808095932,0.0767383873462677,249.727294921875,249.7476806640625,249.25303649902344,172000,1.9741909503936768,14.428682327270508,6.4373016357421875e-06,16.40287971496582
173000,172,3.150026798248291,-250.31005859375,8.755146026611328,8.2540283203125,0.38405027985572815,0.07731404900550842,250.1182861328125,250.0562744140625,249.50094604492188,173000,1.9484291076660156,12.740903615951538,2.1696090698242188e-05,14.689354419708252
174000,173,2.9973526000976562,-257.9620056152344,7.707447052001953,7.402070999145508,-0.006733238697052002,0.0785929337143898,257.6550598144531,257.6935729980469,256.696533203125,174000,1.3994147777557373,11.894265413284302,8.106231689453125e-06,13.293688297271729
175000,174,2.8695507049560547,-252.1909942626953,8.645609855651855,6.6721577644348145,-0.32926008105278015,0.08013488352298737,251.66314697265625,251.96934509277344,252.10528564453125,175000,1.380178451538086,12.08345079421997,6.9141387939453125e-06,13.46363615989685
176000,175,2.973067045211792,-254.90086364746094,8.259872436523438,7.965634822845459,-0.06929407268762589,0.0763181522488594,254.51605224609375,254.56704711914062,255.13674926757812,176000,1.3799593448638916,12.230751752853394,6.4373016357421875e-06,13.610717535018921
177000,176,2.938325881958008,-253.0362548828125,8.143257141113281,7.459920883178711,-0.15930616855621338,0.07554449141025543,252.73385620117188,252.82345581054688,252.53018188476562,177000,1.4053287506103516,12.822928428649902,2.7418136596679688e-05,14.22828459739685
178000,177,2.92156982421875,-256.93463134765625,5.300251007080078,5.937918663024902,-0.19914138317108154,0.07893814891576767,256.7215576171875,256.9022521972656,256.684814453125,178000,2.3561644554138184,14.743059158325195,8.821487426757812e-06,17.09923243522644
179000,178,3.154907703399658,-252.48660278320312,6.90303897857666,11.755955696105957,0.39417994022369385,0.07850330322980881,251.6361083984375,251.26348876953125,250.8114471435547,179000,1.3831760883331299,13.300940036773682,2.47955322265625e-05,14.684140920639038
180000,179,3.060425281524658,-256.801025390625,6.569248676300049,6.840265274047852,0.15280920267105103,0.07974740862846375,256.3403015136719,256.3520812988281,256.38751220703125,180000,1799.2742,543.6,1.4060490131378174,14.683130025863647,5.243172645568848,21.332351684570312
181000,180,3.099836587905884,-249.33522033691406,9.464340209960938,13.221149444580078,0.2545489966869354,0.07810839265584946,248.97674560546875,249.0940399169922,248.594482421875,181000,1.9932715892791748,14.280067920684814,7.152557373046875e-06,16.273346662521362
182000,181,3.1389334201812744,-250.86785888671875,7.181188583374023,7.570472717285156,0.3545530438423157,0.07792843878269196,251.13067626953125,250.17648315429688,250.0123291015625,182000,1.531778335571289,12.222225666046143,6.4373016357421875e-06,13.754010438919067
183000,182,3.288245439529419,-248.5841522216797,14.45859146118164,15.433785438537598,0.731913685798645,0.07892930507659912,247.95639038085938,248.60504150390625,247.74102783203125,183000,1.4393203258514404,12.134223937988281,8.344650268554688e-06,13.57355260848999
184000,183,3.296430826187134,-257.267578125,7.524359703063965,7.177896499633789,0.7522808909416199,0.07904043048620224,256.7627258300781,257.2982177734375,256.1285400390625,184000,1.391972303390503,12.055365324020386,1.0013580322265625e-05,13.447347640991211
185000,184,2.791144371032715,-261.8018798828125,8.23058795928955,11.696720123291016,-0.5325626730918884,0.07808864861726761,261.52655029296875,261.5164489746094,261.23321533203125,185000,1.4058787822723389,12.231086254119873,6.4373016357421875e-06,13.636971473693848
186000,185,2.890664577484131,-263.91546630859375,7.886250019073486,8.45100212097168,-0.2807726263999939,0.07668949663639069,263.70281982421875,263.8824462890625,262.7127685546875,186000,1.3996508121490479,14.516555547714233,8.106231689453125e-06,15.91621446609497
187000,186,3.1029396057128906,-261.34027099609375,7.670216083526611,7.865438461303711,0.26530343294143677,0.07598119974136353,261.3892822265625,260.8831787109375,260.2664794921875,187000,1.3742823600769043,14.262832164764404,6.198883056640625e-06,15.637120723724365
188000,187,2.889404535293579,-260.5079345703125,6.827663421630859,6.851813793182373,-0.28482866287231445,0.0761227011680603,260.5203857421875,260.23211669921875,260.4054260253906,188000,1.3950648307800293,13.660694360733032,6.9141387939453125e-06,15.055766105651855
189000,188,2.6726577281951904,-263.5933837890625,14.025491714477539,11.881926536560059,-0.8409727811813354,0.07660508900880814,263.27459716796875,262.81024169921875,262.68597412109375,189000,2.0157909393310547,15.198946237564087,9.059906005859375e-06,17.214746236801147
190000,189,2.9897189140319824,-257.03662109375,7.041985988616943,6.5027360916137695,-0.02657298371195793,0.07542335242033005,256.79931640625,256.45648193359375,256.53070068359375,190000,1929.9373,555.6,1.9253599643707275,13.2193124294281,3.8825619220733643,19.027234315872192
191000,190,2.995314121246338,-262.62579345703125,7.1449294090271,8.504579544067383,-0.012145020067691803,0.07489258795976639,262.1554260253906,262.13482666015625,261.4064025878906,191000,1.3980610370635986,12.608579397201538,8.821487426757812e-06,14.006649255752563
192000,191,3.007389545440674,-263.60211181640625,7.809300899505615,7.321460723876953,0.01917332410812378,0.0746709406375885,263.2513732910156,263.3121337890625,262.75665283203125,192000,1.4093012809753418,11.924028873443604,6.67572021484375e-06,13.33333683013916
193000,192,3.1230897903442383,-250.99636840820312,6.222291946411133,7.069908618927002,0.32047465443611145,0.07400768250226974,250.5113983154297,250.6638946533203,250.7592315673828,193000,1.3743031024932861,11.666308403015137,1.0728836059570312e-05,13.040622234344482
194000,193,3.308149814605713,-256.9544982910156,9.864452362060547,9.404586791992188,0.8053275346755981,0.07328280061483383,256.2664794921875,256.4833984375,256.3457336425781,194000,1.4118733406066895,13.383711814880371,8.106231689453125e-06,14.79559326171875
195000,194,3.0610673427581787,-262.20458984375,4.526606559753418,5.3421196937561035,0.15879055857658386,0.07425481826066971,262.22161865234375,261.9603271484375,261.6470947265625,195000,1.3966255187988281,15.720534324645996,9.059906005859375e-06,17.11716890335083
196000,195,3.0660743713378906,-262.1183166503906,10.763952255249023,19.048982620239258,0.1732713133096695,0.07262995094060898,261.1622009277344,260.9952697753906,261.1678771972656,196000,1.6028401851654053,13.245217323303223,1.3828277587890625e-05,14.848071336746216
197000,196,3.149374008178711,-260.4345703125,13.267459869384766,11.514846801757812,0.38933607935905457,0.07379624247550964,259.954345703125,260.00286865234375,258.19183349609375,197000,1.866351842880249,15.029003381729126,4.291534423828125e-05,16.895398139953613
198000,197,2.8890135288238525,-259.9422607421875,3.911407947540283,4.135186672210693,-0.2918371558189392,0.07211565226316452,259.7529602050781,259.7342529296875,259.4273376464844,198000,1.9819540977478027,14.408179998397827,6.4373016357421875e-06,16.390140533447266
199000,198,2.7594611644744873,-265.3731689453125,8.208732604980469,6.386815547943115,-0.6312065124511719,0.07250244915485382,265.500732421875,265.0650329589844,264.3284606933594,199000,1.5621542930603027,13.065530776977539,7.867813110351562e-06,14.627692937850952
200000,199,2.753941774368286,-265.95050048828125,6.1078314781188965,6.075737953186035,-0.6422349214553833,0.07352753728628159,265.81072998046875,265.87060546875,265.59112548828125,200000,953.1613,276.0,1.6924731731414795,12.221299171447754,2.095625638961792,16.009397983551025
201000,200,2.9463703632354736,-260.42486572265625,7.181231498718262,8.029732704162598,-0.1390710473060608,0.07478209584951401,260.001953125,259.9183654785156,259.370849609375,201000,1.3946185111999512,12.31886100769043,7.867813110351562e-06,13.713487386703491
202000,201,2.8919148445129395,-262.6156311035156,9.955192565917969,9.03536319732666,-0.27925610542297363,0.07549693435430527,262.5231628417969,262.03228759765625,262.6278076171875,202000,1.3759057521820068,12.056010723114014,1.0251998901367188e-05,13.431926727294922
203000,202,3.0163190364837646,-262.0332336425781,9.74072265625,10.000868797302246,0.042370378971099854,0.07454154640436172,261.52349853515625,261.071533203125,260.6747741699219,203000,1.390200138092041,14.998145341873169,6.4373016357421875e-06,16.388351917266846
204000,203,3.206735610961914,-266.2147521972656,7.812125205993652,5.496813774108887,0.5446420907974243,0.07175574451684952,265.70306396484375,266.45672607421875,266.1441650390625,204000,1.5476758480072021,14.37278151512146,1.2159347534179688e-05,15.920469522476196
205000,204,2.9307143688201904,-261.55450439453125,10.223884582519531,11.157540321350098,-0.17980128526687622,0.07464026659727097,261.40863037109375,260.9410705566406,261.06951904296875,205000,1.3978960514068604,13.472069263458252,1.0728836059570312e-05,14.869976043701172
206000,205,2.998094320297241,-260.4134521484375,192.1641845703125,186.0358123779297,-0.004945695400238037,0.07462345063686371,259.33319091796875,259.5782470703125,259.61578369140625,206000,1.950524091720581,14.392821311950684,6.4373016357421875e-06,16.3433518409729
207000,206,2.75038480758667,-259.41058349609375,5.193910121917725,5.682930946350098,-0.648451030254364,0.07443682104349136,259.0411376953125,259.06396484375,259.0434265136719,207000,1.961364507675171,12.36776614189148,1.33514404296875e-05,14.32914400100708
208000,207,2.9525063037872314,-264.7021484375,7.899351119995117,7.272146224975586,-0.12233690917491913,0.07608851790428162,264.322021484375,264.52197265625,264.11346435546875,208000,1.396010398864746,12.031052589416504,6.67572021484375e-06,13.427069664001465
209000,208,3.136413097381592,-263.8528137207031,6.990894794464111,6.298170566558838,0.35309839248657227,0.07513625174760818,263.6598205566406,263.4175109863281,262.71331787109375,209000,1.42704176902771,12.221189975738525,6.67572021484375e-06,13.64823842048645
210000,209,2.967498302459717,-259.90472412109375,8.98794174194336,10.367267608642578,-0.08499304950237274,0.07316526025533676,259.85833740234375,259.291259765625,259.4396667480469,210000,572.02795,198.4,1.6555187702178955,12.14288878440857,1.3105683326721191,15.108975887298584
211000,210,3.1144766807556152,-259.57757568359375,7.170761585235596,5.360881805419922,0.29830577969551086,0.07384218275547028,259.3952941894531,259.2567443847656,258.65948486328125,211000,1.7942140102386475,13.667130708694458,6.4373016357421875e-06,15.461351156234741
212000,211,3.1053695678710938,-270.81768798828125,6.473777770996094,5.750751972198486,0.27362680435180664,0.07450951635837555,270.5579833984375,270.5862121582031,271.01171875,212000,1.3825483322143555,14.974493265151978,6.67572021484375e-06,16.357048273086548
213000,212,2.7253074645996094,-267.7862854003906,6.862178325653076,8.415379524230957,-0.7155660390853882,0.07390514761209488,267.643798828125,267.6117248535156,266.9211120605469,213000,2.9763612747192383,12.259042978286743,1.0728836059570312e-05,15.235414981842041
214000,213,3.072509288787842,-266.67047119140625,7.69437313079834,9.960210800170898,0.19019988179206848,0.07257676124572754,266.469482421875,266.61834716796875,266.64190673828125,214000,1.944873571395874,14.782763004302979,1.0251998901367188e-05,16.727646827697754
215000,214,2.9321672916412354,-269.2493896484375,7.713813304901123,9.869516372680664,-0.1774444282054901,0.0731012299656868,269.0246276855469,269.06201171875,268.3442687988281,215000,1.6094551086425781,13.619081974029541,6.4373016357421875e-06,15.228543519973755
216000,215,3.1029365062713623,-265.7921142578125,6.460282325744629,4.558209419250488,0.2674615681171417,0.07439880073070526,265.4125061035156,265.143310546875,265.2560729980469,216000,1.9406013488769531,12.720570087432861,6.4373016357421875e-06,14.66117787361145
217000,216,2.989593982696533,-259.0572814941406,8.374884605407715,7.854403972625732,-0.02721157670021057,0.07316790521144867,258.6461181640625,258.9028015136719,258.0877685546875,217000,1.647273302078247,12.573232650756836,1.5974044799804688e-05,14.220521926879883
218000,217,3.2641046047210693,-261.366943359375,5.624446868896484,5.239331245422363,0.6861157417297363,0.07443021982908249,261.30792236328125,260.9147644042969,260.7919006347656,218000,1.6308467388153076,12.446062564849854,8.106231689453125e-06,14.07691740989685
219000,218,2.882997989654541,-271.95758056640625,5.753767013549805,4.691610336303711,-0.2999612092971802,0.07701687514781952,271.9239196777344,271.4655456542969,271.1520690917969,219000,1.4108564853668213,12.169827699661255,9.298324584960938e-06,13.580693483352661
220000,219,2.823335886001587,-270.885986328125,7.673788070678711,8.24793529510498,-0.4599359333515167,0.07401787489652634,270.69818115234375,270.816162109375,270.4248962402344,220000,2283.5383,700.2,1.4153079986572266,15.198811531066895,7.116029262542725,23.730148792266846
221000,220,3.0047082901000977,-256.90179443359375,6.4549102783203125,8.024343490600586,0.012343794107437134,0.07267794758081436,256.8968505859375,256.6542663574219,257.47283935546875,221000,1.5452220439910889,13.291130065917969,6.4373016357421875e-06,14.836358547210693
222000,221,3.006622314453125,-267.1683654785156,8.003362655639648,8.803306579589844,0.017441190779209137,0.0718081146478653,266.8155517578125,266.97509765625,266.0693359375,222000,1.482339859008789,14.59070634841919,1.8358230590820312e-05,16.07306456565857
223000,222,2.914947509765625,-265.09759521484375,6.2190446853637695,6.29744815826416,-0.2251012772321701,0.07089073210954666,265.20697021484375,264.84918212890625,265.3482666015625,223000,2.0310237407684326,14.463652610778809,6.4373016357421875e-06,16.494682788848877
224000,223,2.948481321334839,-267.1589050292969,30.90613555908203,30.66290283203125,-0.13581977784633636,0.07162469625473022,266.182373046875,266.66912841796875,266.6190490722656,224000,2.036759376525879,13.493638515472412,6.67572021484375e-06,15.530404567718506
225000,224,2.7490041255950928,-267.1240234375,4.769176483154297,4.182258605957031,-0.6620453000068665,0.0715274065732956,266.7447509765625,266.96307373046875,266.87371826171875,225000,1.6286234855651855,12.093953609466553,1.2159347534179688e-05,13.722589254379272
226000,225,3.0151567459106445,-264.57891845703125,9.56291675567627,12.836450576782227,0.039876341819763184,0.0720105767250061,264.03387451171875,264.48345947265625,264.544677734375,226000,1.3933517932891846,12.026437759399414,8.58306884765625e-06,13.419798135757446
227000,226,2.8372597694396973,-273.68548583984375,6.835633277893066,4.139316558837891,-0.4341554343700409,0.06940601021051407,273.7521667480469,273.42864990234375,273.1903076171875,227000,1.378420114517212,12.325416088104248,1.0728836059570312e-05,13.70384693145752
228000,227,3.0345449447631836,-273.20159912109375,5.892942428588867,5.260532379150391,0.09180966019630432,0.07011065632104874,272.79766845703125,273.8746032714844,273.25335693359375,228000,1.3971164226531982,13.585177421569824,1.4066696166992188e-05,14.98230791091919
229000,228,2.8366384506225586,-274.05963134765625,5.044830799102783,6.426082134246826,-0.4347502887248993,0.0698588490486145,273.6424560546875,273.77227783203125,273.32183837890625,229000,2.970022439956665,14.363990306854248,9.298324584960938e-06,17.334022045135498
230000,229,2.9442920684814453,-265.83294677734375,9.570725440979004,7.241750717163086,-0.1480768322944641,0.07008137553930283,265.5333251953125,265.594482421875,266.80126953125,230000,3315.0884,1000.0,1.4069108963012695,13.041615724563599,10.832000732421875,25.280527353286743
231000,230,2.7776741981506348,-273.2342834472656,5.857287883758545,10.168580055236816,-0.5893933773040771,0.07057801634073257,273.0605773925781,272.81427001953125,272.8617858886719,231000,2.047105312347412,14.108639001846313,6.198883056640625e-06,16.155750513076782
232000,231,3.070793867111206,-275.5044860839844,6.414266586303711,4.230239391326904,0.18804091215133667,0.07021604478359222,274.9487609863281,274.7174377441406,274.48529052734375,232000,1.9470980167388916,12.925611734390259,5.9604644775390625e-06,14.872715711593628
233000,232,2.622755289077759,-278.8164367675781,5.546481609344482,5.736408233642578,-1.0050503015518188,0.06965599954128265,278.41943359375,279.1359558105469,279.0302429199219,233000,1.4526653289794922,12.144796371459961,1.4781951904296875e-05,13.597476482391357
234000,233,2.831658363342285,-274.36907958984375,3.7465362548828125,3.8520078659057617,-0.45010459423065186,0.06899277865886688,273.87017822265625,274.1943054199219,273.9419250488281,234000,1.3736977577209473,11.994842767715454,1.239776611328125e-05,13.368552923202515
235000,234,2.8735294342041016,-273.5885009765625,6.131945610046387,4.73957633972168,-0.33530259132385254,0.07056410610675812,273.1050720214844,273.35784912109375,273.33612060546875,235000,1.4239990711212158,11.99623441696167,7.3909759521484375e-06,13.420240879058838
236000,235,2.5945310592651367,-280.81451416015625,6.002407550811768,4.362937927246094,-1.0859695672988892,0.06867942214012146,280.93524169921875,280.7040100097656,280.7084045410156,236000,1.396728515625,13.460546255111694,1.5497207641601562e-05,14.857290267944336
237000,236,2.8350253105163574,-271.35858154296875,7.620950698852539,6.792612552642822,-0.44029688835144043,0.06933031231164932,270.72930908203125,271.5142822265625,271.362060546875,237000,1.6217548847198486,14.75972032546997,9.5367431640625e-06,16.381484746932983
238000,237,2.988536834716797,-270.15948486328125,7.965495586395264,8.911991119384766,-0.030939608812332153,0.06726588308811188,269.0118103027344,269.3070983886719,269.55145263671875,238000,2.4569382667541504,12.968589305877686,1.5735626220703125e-05,15.425543308258057
239000,238,3.0423619747161865,-282.6777648925781,3.8051609992980957,4.514156818389893,0.11409124732017517,0.067661352455616,282.28302001953125,282.3529968261719,281.749267578125,239000,1.9358127117156982,14.647310018539429,1.33514404296875e-05,16.583136081695557
240000,239,2.805642604827881,-270.7847595214844,10.159634590148926,12.913715362548828,-0.5234264731407166,0.06766985356807709,270.62091064453125,270.3698425292969,271.23486328125,240000,2802.3257,856.8,1.957991361618042,13.737728118896484,5.7112791538238525,21.40699863433838
241000,240,3.058034896850586,-278.299072265625,10.714622497558594,6.52543830871582,0.15745045244693756,0.0663357526063919,277.52239990234375,277.44464111328125,276.4120788574219,241000,1.398848295211792,11.841937065124512,6.67572021484375e-06,13.240792036056519
242000,241,3.075143814086914,-276.80194091796875,5.911105155944824,6.630246162414551,0.20266112685203552,0.06740871071815491,276.75628662109375,276.706787109375,276.05999755859375,242000,1.3749070167541504,12.612440824508667,6.9141387939453125e-06,13.987354755401611
243000,242,3.097527265548706,-265.6594543457031,10.986955642700195,6.468899726867676,0.2633301019668579,0.06720113754272461,265.363525390625,265.27972412109375,264.9901123046875,243000,1.3850538730621338,12.241498947143555,7.3909759521484375e-06,13.62656021118164
244000,243,3.295626163482666,-273.9234619140625,6.275523662567139,5.910506248474121,0.7973867654800415,0.06738849729299545,273.5489807128906,273.79034423828125,273.78875732421875,244000,1.4006831645965576,12.115923643112183,1.2159347534179688e-05,13.516618967056274
245000,244,2.856966495513916,-277.92169189453125,5.998317718505859,7.185791015625,-0.3854283094406128,0.06756456196308136,277.5674133300781,277.34759521484375,277.7154541015625,245000,2.748175859451294,14.706949472427368,6.67572021484375e-06,17.455132007598877
246000,245,3.126461982727051,-272.0125732421875,7.968642234802246,6.914333343505859,0.34488555788993835,0.06540298461914062,271.52410888671875,271.583740234375,270.9452209472656,246000,1.3988983631134033,13.3822500705719,1.0013580322265625e-05,14.781158447265625
247000,246,2.821885824203491,-274.2799072265625,4.277756214141846,5.6411848068237305,-0.4862080514431,0.06523512303829193,274.0894775390625,274.085205078125,273.82086181640625,247000,1.4054851531982422,14.370619773864746,1.5735626220703125e-05,15.776120662689209
248000,247,2.9537553787231445,-285.9161682128906,7.3344316482543945,5.975092887878418,-0.12628433108329773,0.0651685893535614,286.0558166503906,285.552978515625,285.4730224609375,248000,1.916860818862915,14.069773435592651,5.9604644775390625e-06,15.986640214920044
249000,248,3.2846546173095703,-279.96612548828125,43.321632385253906,48.45417022705078,0.7807354927062988,0.06439317017793655,279.52337646484375,279.60504150390625,279.82635498046875,249000,2.2593493461608887,12.60392451286316,6.67572021484375e-06,14.863280534744263
250000,249,3.4635276794433594,-277.346435546875,4.241750717163086,3.9300999641418457,1.2781152725219727,0.06345882266759872,276.86871337890625,277.3052062988281,276.5782470703125,250000,1262.5544,347.8,1.437037467956543,12.12900447845459,2.3150887489318848,15.881130695343018
251000,250,3.0661098957061768,-277.2781982421875,29.757535934448242,9.089960098266602,0.18328896164894104,0.06250615417957306,276.35369873046875,276.18536376953125,276.4615478515625,251000,1.3886516094207764,12.419827461242676,1.0967254638671875e-05,13.80849003791809
252000,251,3.1501007080078125,-276.18890380859375,4.694526672363281,5.644046783447266,0.4214273691177368,0.0603477880358696,275.82232666015625,275.510986328125,275.4883728027344,252000,1.4123027324676514,12.57685112953186,6.4373016357421875e-06,13.989160299301147
253000,252,2.9077677726745605,-275.2384033203125,5.325500965118408,5.320372104644775,-0.2560381293296814,0.062285955995321274,274.62701416015625,274.8960266113281,274.67425537109375,253000,1.6979103088378906,14.04042363166809,6.9141387939453125e-06,15.738340854644775
254000,253,2.999441623687744,-279.4215087890625,344.5159606933594,335.05419921875,-0.001539379358291626,0.0635070726275444,279.208740234375,279.38616943359375,279.0620422363281,254000,2.7479257583618164,14.363935232162476,9.775161743164062e-06,17.111870765686035
255000,254,3.2849998474121094,-274.66400146484375,18.402584075927734,10.814186096191406,0.7917879819869995,0.06214994192123413,274.29266357421875,274.47601318359375,274.53570556640625,255000,1.4337706565856934,12.88909101486206,7.867813110351562e-06,14.322869539260864
256000,255,2.8547115325927734,-279.6557922363281,4.583124160766602,5.036116600036621,-0.4021555483341217,0.06278873980045319,279.64404296875,279.4580383300781,278.74267578125,256000,1.793046474456787,14.466503620147705,1.2874603271484375e-05,16.259562969207764
257000,256,3.332077980041504,-277.0501708984375,8.726049423217773,10.794514656066895,0.9238748550415039,0.061908334493637085,276.7773132324219,276.97052001953125,277.5820617675781,257000,2.0374200344085693,14.118688344955444,7.62939453125e-06,16.156116008758545
258000,257,2.8386893272399902,-271.55169677734375,5.38112735748291,5.467822551727295,-0.4500846266746521,0.06141064316034317,271.02691650390625,270.7753601074219,270.9166564941406,258000,1.6606214046478271,12.579217672348022,6.9141387939453125e-06,14.239845991134644
259000,258,3.169708251953125,-280.98626708984375,5.295751571655273,6.796355724334717,0.47359755635261536,0.061380766332149506,280.3798522949219,280.263427734375,280.1877746582031,259000,1.359163761138916,11.691916227340698,7.152557373046875e-06,13.051087141036987
260000,259,3.071718215942383,-283.1103515625,5.470974922180176,9.444252967834473,0.19856835901737213,0.06274179369211197,282.6885986328125,282.939453125,282.58819580078125,260000,3259.9363,950.2,1.4084579944610596,11.754465103149414,6.284498929977417,19.44742202758789
261000,260,3.2877326011657715,-280.3180847167969,6.1987738609313965,9.363052368164062,0.8004518747329712,0.06191890686750412,280.2562255859375,279.9176025390625,279.12481689453125,261000,1.384326457977295,12.490696668624878,1.2874603271484375e-05,13.875036001205444
262000,261,2.7340645790100098,-282.6248779296875,9.348273277282715,15.232824325561523,-0.7400389313697815,0.061866506934165955,282.21697998046875,282.314208984375,281.87921142578125,262000,2.932002544403076,14.84056568145752,7.152557373046875e-06,17.77257537841797
263000,262,3.116353988647461,-277.44439697265625,4.085238456726074,4.767208576202393,0.3197064995765686,0.06407470256090164,277.2965393066406,277.1404113769531,277.0187072753906,263000,1.4033348560333252,13.083855390548706,6.67572021484375e-06,14.487196922302246
264000,263,3.369194507598877,-287.36138916015625,3.071824073791504,4.297725200653076,1.0264173746109009,0.06202893704175949,287.1083679199219,286.92498779296875,286.9643859863281,264000,1.3956689834594727,13.621433973312378,8.106231689453125e-06,15.01711106300354
265000,264,2.9895739555358887,-273.052734375,3.81244158744812,4.572941780090332,-0.02862851321697235,0.06419363617897034,273.12109375,272.8512268066406,272.09039306640625,265000,1.7394602298736572,14.578711032867432,7.867813110351562e-06,16.3181791305542
266000,265,3.0380477905273438,-283.200439453125,9.2023286819458,6.758932590484619,0.10475894808769226,0.06371413916349411,282.8175048828125,283.5059814453125,283.931396484375,266000,2.243736505508423,13.121070861816406,6.9141387939453125e-06,15.364814281463623
267000,266,2.432199001312256,-280.51568603515625,8.842144966125488,8.182470321655273,-1.571312427520752,0.06282735615968704,280.1039733886719,280.59710693359375,280.236328125,267000,1.418524980545044,12.212934494018555,1.3589859008789062e-05,13.631473064422607
268000,267,2.9567556381225586,-283.57867431640625,5.4954915046691895,8.522987365722656,-0.12041521072387695,0.061758700758218765,283.22784423828125,283.59759521484375,282.82269287109375,268000,1.425300121307373,12.241511583328247,7.867813110351562e-06,13.66681957244873
269000,268,3.0316073894500732,-280.345947265625,30.35292625427246,32.843753814697266,0.08881748467683792,0.06020369008183479,280.0584716796875,280.16571044921875,279.00311279296875,269000,1.3896739482879639,12.494478464126587,1.3113021850585938e-05,13.884165525436401
270000,269,3.142815589904785,-274.6170654296875,3.7953476905822754,3.3097190856933594,0.4008799195289612,0.06038738042116165,274.2076416015625,274.215087890625,273.484619140625,270000,2912.519,857.0,1.4391651153564453,12.560847282409668,8.375156164169312,22.375168561935425
271000,270,2.90753436088562,-272.36932373046875,6.851746082305908,8.803360939025879,-0.25990960001945496,0.06015212461352348,271.71417236328125,271.78125,271.57037353515625,271000,1.5010690689086914,14.019561767578125,7.3909759521484375e-06,15.520638227462769
272000,271,3.018573760986328,-281.072265625,4.3876261711120605,4.150974273681641,0.0517672598361969,0.06159918010234833,280.81512451171875,281.37188720703125,281.115234375,272000,1.5564050674438477,13.693536758422852,7.62939453125e-06,15.24994945526123
273000,272,2.982905864715576,-283.5545654296875,8.797918319702148,9.460065841674805,-0.04768580198287964,0.06144736334681511,283.26934814453125,283.15155029296875,282.9884948730469,273000,1.9851951599121094,15.60701584815979,7.3909759521484375e-06,17.59221839904785
274000,273,2.951371192932129,-285.9521179199219,5.239327430725098,4.228432655334473,-0.13752016425132751,0.05913360044360161,285.4898681640625,285.5689697265625,285.37945556640625,274000,1.971043348312378,12.835166215896606,8.344650268554688e-06,14.806217908859253
275000,274,3.5342721939086914,-280.0849609375,9.807870864868164,8.536947250366211,1.503823161125183,0.05992180109024048,279.7112121582031,280.1195983886719,280.63616943359375,275000,1.4176514148712158,12.325713634490967,6.9141387939453125e-06,13.743371963500977
276000,275,3.156426191329956,-279.3433837890625,13.589920043945312,13.897859573364258,0.43942439556121826,0.060256365686655045,278.8174133300781,279.4952697753906,279.07861328125,276000,1.6896021366119385,12.379909038543701,1.3589859008789062e-05,14.069524765014648
277000,276,2.9566190242767334,-283.78594970703125,5.521298885345459,5.034350395202637,-0.1218731552362442,0.06024329364299774,283.9454650878906,283.49517822265625,282.19146728515625,277000,1.3791706562042236,12.487726211547852,7.867813110351562e-06,13.866904735565186
278000,277,3.041792392730713,-284.6873779296875,4.911807537078857,6.398383140563965,0.11791863292455673,0.059514906257390976,284.40966796875,284.7005615234375,284.0032958984375,278000,1.425302505493164,12.71230936050415,1.71661376953125e-05,14.13762903213501
279000,278,3.2186427116394043,-274.31689453125,6.657700061798096,11.973756790161133,0.6166532039642334,0.05958390608429909,273.92242431640625,273.5409240722656,273.9033203125,279000,3.1584854125976562,15.278428554534912,1.2636184692382812e-05,18.43692660331726
280000,279,2.8560047149658203,-287.6717529296875,5.133081436157227,3.4151992797851562,-0.4075573682785034,0.05899205431342125,287.4598388671875,287.7904052734375,287.1290588378906,280000,3325.5645,1000.0,1.4867377281188965,13.262331008911133,8.023938417434692,22.77300715446472
281000,280,2.8024773597717285,-280.30218505859375,4.961917877197266,6.604420185089111,-0.55967116355896,0.058809325098991394,279.99163818359375,280.41357421875,279.70147705078125,281000,2.0163261890411377,15.22789716720581,1.3113021850585938e-05,17.2442364692688
282000,281,3.0023772716522217,-275.99578857421875,4.0596089363098145,4.272549152374268,0.006705433130264282,0.059563327580690384,275.4246826171875,275.6626281738281,275.33245849609375,282000,1.929630994796753,14.019437551498413,6.4373016357421875e-06,15.949074983596802
283000,282,2.9978833198547363,-283.82659912109375,6.7976531982421875,10.94128131866455,-0.00597149133682251,0.05954591929912567,283.00445556640625,283.6878356933594,283.6214294433594,283000,1.401332139968872,12.752240896224976,6.67572021484375e-06,14.153579711914062
284000,283,3.049830198287964,-281.4171142578125,6.394820213317871,6.191546440124512,0.14135687053203583,0.058614615350961685,281.3560791015625,281.195068359375,281.109619140625,284000,1.5581297874450684,12.615475416183472,6.67572021484375e-06,14.173611879348755
285000,284,3.1031885147094727,-280.19390869140625,6.984912872314453,5.536003112792969,0.29040464758872986,0.05994568020105362,279.93804931640625,279.765380859375,279.66046142578125,285000,1.4119758605957031,12.229573249816895,1.5735626220703125e-05,13.641564846038818
286000,285,3.159057855606079,-286.72393798828125,3.7542290687561035,3.9664406776428223,0.4507853388786316,0.05877160653471947,286.5038757324219,286.4080810546875,286.2481994628906,286000,1.603126049041748,12.321572542190552,9.059906005859375e-06,13.924707651138306
287000,286,2.6478500366210938,-281.2759094238281,3.46877384185791,4.266005516052246,-1.0096369981765747,0.05686549097299576,281.283935546875,281.21417236328125,281.8385009765625,287000,1.4128811359405518,15.068872451782227,7.62939453125e-06,16.48176121711731
288000,287,3.0743629932403564,-279.7500915527344,16.5008487701416,12.120723724365234,0.2118518203496933,0.0579085573554039,279.3330383300781,279.2901916503906,278.3734130859375,288000,2.8446123600006104,13.306905746459961,6.4373016357421875e-06,16.151524543762207
289000,288,2.9447450637817383,-279.2823486328125,3.5049266815185547,4.67446231842041,-0.15726026892662048,0.058071646839380264,279.09136962890625,279.45111083984375,278.8692626953125,289000,1.4013168811798096,13.640028715133667,2.0265579223632812e-05,15.0413658618927
290000,289,3.028290033340454,-278.3587341308594,6.070587158203125,4.817248344421387,0.08066295087337494,0.05777067318558693,278.60919189453125,278.12225341796875,278.28021240234375,290000,2598.8296,760.0,1.9238245487213135,14.28808879852295,6.944933176040649,23.156846523284912
291000,290,3.020325183868408,-284.297607421875,14.38228988647461,16.23831558227539,0.05764598399400711,0.058648690581321716,284.0863952636719,284.47637939453125,284.3160400390625,291000,1.4457621574401855,12.491147994995117,7.3909759521484375e-06,13.936917543411255
292000,291,3.0235302448272705,-281.0729064941406,37.267120361328125,8.201021194458008,0.06723400950431824,0.057420432567596436,281.19207763671875,280.8387451171875,279.89837646484375,292000,1.4120750427246094,12.597038745880127,6.67572021484375e-06,14.009120464324951
293000,292,3.1873271465301514,-275.227294921875,5.463263988494873,5.653195381164551,0.535083532333374,0.05747459828853607,274.82708740234375,274.7454833984375,275.051025390625,293000,1.4240164756774902,12.284976243972778,1.239776611328125e-05,13.709005117416382
294000,293,3.0892105102539062,-283.8184814453125,6.25112247467041,4.998743057250977,0.25611618161201477,0.05664674937725067,283.5675048828125,283.7937927246094,283.7884826660156,294000,1.41815185546875,12.34591817855835,8.821487426757812e-06,13.764078855514526
295000,294,3.1193292140960693,-283.175537109375,7.659791469573975,5.190986633300781,0.3466739356517792,0.054738402366638184,282.9773254394531,282.8852844238281,282.1416320800781,295000,1.391211986541748,15.31384825706482,6.9141387939453125e-06,16.70506715774536
296000,295,3.0266451835632324,-286.9684143066406,3.4928946495056152,5.655176162719727,0.07743047922849655,0.054694872349500656,287.04302978515625,286.68902587890625,286.6147766113281,296000,1.4118449687957764,14.642495155334473,1.0013580322265625e-05,16.05435013771057
297000,296,3.440849781036377,-282.7803955078125,5.294247627258301,5.543453216552734,1.2884840965270996,0.05378676578402519,281.99560546875,282.67144775390625,281.9825744628906,297000,1.513124942779541,13.756648302078247,1.52587890625e-05,15.26978850364685
298000,297,2.8653314113616943,-276.5915222167969,4.763330936431885,4.614424705505371,-0.3899088501930237,0.055281296372413635,276.3467712402344,276.54608154296875,276.16729736328125,298000,2.0113525390625,14.672666311264038,7.62939453125e-06,16.68402647972107
299000,298,3.0654075145721436,-282.92333984375,6.005525588989258,7.912049293518066,0.19130395352840424,0.053675416857004166,282.20928955078125,282.25665283203125,281.8529052734375,299000,2.0070042610168457,13.381860971450806,1.2636184692382812e-05,15.388877868652344
300000,299,2.9149978160858154,-289.1506042480469,4.016880989074707,6.6239800453186035,-0.24965700507164001,0.05302097275853157,288.8934326171875,288.95379638671875,289.215087890625,300000,3327.8267,1000.0,1.3958280086517334,12.164454221725464,7.127445459365845,20.687727689743042
301000,300,3.016845703125,-279.4891052246094,5.6588239669799805,6.311625957489014,0.04952269792556763,0.052875809371471405,279.34503173828125,279.50213623046875,278.0660400390625,301000,1.5330135822296143,12.98022174835205,1.049041748046875e-05,14.513245820999146
302000,301,2.810222864151001,-292.3306884765625,4.429196834564209,3.9020392894744873,-0.5600628852844238,0.05227894335985184,292.7768249511719,291.95892333984375,291.85003662109375,302000,1.424971580505371,12.292711019515991,1.0251998901367188e-05,13.717692852020264
303000,302,2.8377270698547363,-284.0936279296875,4.191212177276611,4.068436622619629,-0.48031893372535706,0.05182184651494026,283.9840087890625,284.11285400390625,284.26776123046875,303000,1.3877267837524414,15.080443143844604,7.867813110351562e-06,16.468177795410156
304000,303,2.7808754444122314,-284.9113464355469,5.121506690979004,13.38770866394043,-0.6473387479782104,0.052120089530944824,284.7362365722656,284.68695068359375,284.83843994140625,304000,1.389986515045166,14.510281801223755,7.867813110351562e-06,15.900276184082031
305000,304,3.007420301437378,-280.18072509765625,7.733103275299072,7.771971702575684,0.02203775942325592,0.051305562257766724,279.8980712890625,280.16961669921875,279.302490234375,305000,1.6966257095336914,13.838207960128784,2.47955322265625e-05,15.534858465194702
306000,305,2.5058305263519287,-288.9195556640625,4.239910125732422,3.19394850730896,-1.4654877185821533,0.05153173953294754,288.5143737792969,288.8673095703125,288.9781799316406,306000,1.9858808517456055,14.471750259399414,6.9141387939453125e-06,16.457638025283813
307000,306,2.9068684577941895,-276.7663269042969,10.177858352661133,6.590827465057373,-0.2791217565536499,0.049933288246393204,276.69488525390625,276.7105712890625,276.80755615234375,307000,1.986112117767334,13.206300735473633,6.9141387939453125e-06,15.19241976737976
308000,307,2.9038891792297363,-294.65643310546875,3.7617764472961426,3.515043258666992,-0.2863706946372986,0.05081353336572647,294.9775695800781,294.49139404296875,294.05755615234375,308000,1.4066660404205322,12.031554460525513,6.9141387939453125e-06,13.438227415084839
309000,308,3.5365569591522217,-274.8306884765625,9.475202560424805,11.155576705932617,1.5914255380630493,0.05150916427373886,274.4156494140625,274.06884765625,274.59552001953125,309000,1.4095547199249268,12.160106182098389,7.3909759521484375e-06,13.569668292999268
310000,309,2.839383840560913,-286.9834289550781,120.7090835571289,93.35679626464844,-0.48005685210227966,0.05034554749727249,286.9815673828125,286.7530517578125,286.7657470703125,310000,163.37808,79.8,1.4504470825195312,12.97309398651123,0.5377271175384521,14.961268186569214
311000,310,3.2160468101501465,-280.6773681640625,2.7729568481445312,4.238945484161377,0.6489901542663574,0.0495915487408638,280.0685729980469,280.21051025390625,279.99951171875,311000,1.396543264389038,12.817094564437866,1.5497207641601562e-05,14.213653326034546
312000,311,2.957383871078491,-281.5302734375,4.441213607788086,4.110919952392578,-0.12722644209861755,0.050519198179244995,281.33441162109375,281.28802490234375,281.2021484375,312000,3.274819850921631,15.460716247558594,8.106231689453125e-06,18.735544204711914
313000,312,3.1864190101623535,-287.89483642578125,4.2204999923706055,4.714223861694336,0.560613214969635,0.04942610487341881,287.4941711425781,288.23944091796875,287.4844665527344,313000,1.5438804626464844,13.856405258178711,1.3828277587890625e-05,15.400299549102783
314000,313,3.016263008117676,-282.33062744140625,5.635893821716309,6.912892818450928,0.04858784377574921,0.05040784925222397,282.28094482421875,281.91436767578125,282.6302490234375,314000,1.5848312377929688,15.447643041610718,7.62939453125e-06,17.032481908798218
315000,314,2.7483816146850586,-282.79296875,4.250977993011475,3.7636830806732178,-0.7489431500434875,0.05097077041864395,283.0062255859375,282.72796630859375,283.0364990234375,315000,1.9854307174682617,14.204752445220947,5.9604644775390625e-06,16.190189123153687
316000,315,2.941883087158203,-284.8392028808594,4.8283915519714355,3.425875186920166,-0.1740383803844452,0.05005534365773201,284.7124328613281,284.7164306640625,284.1512756347656,316000,1.977799654006958,11.892966747283936,8.344650268554688e-06,13.870774745941162
317000,316,2.713624954223633,-288.4768981933594,4.458788871765137,3.160675525665283,-0.856468915939331,0.05025103688240051,288.16912841796875,288.3848876953125,288.5471496582031,317000,1.6449894905090332,12.132702827453613,9.298324584960938e-06,13.777701616287231
318000,317,3.0566530227661133,-281.4804382324219,5.581128120422363,5.435782432556152,0.17151933908462524,0.04843488708138466,281.25897216796875,281.547607421875,281.08465576171875,318000,1.3792457580566406,12.135316371917725,7.62939453125e-06,13.514569759368896
319000,318,3.279183864593506,-284.09869384765625,4.027037143707275,4.006241798400879,0.8410701751708984,0.049163538962602615,283.92828369140625,283.9523010253906,284.0634765625,319000,1.3889522552490234,12.44925570487976,8.106231689453125e-06,13.838216066360474
320000,319,2.864637851715088,-286.0239562988281,3.3189446926116943,4.0514726638793945,-0.40851619839668274,0.04890134558081627,285.44134521484375,285.38739013671875,284.5408630371094,320000,3026.561,896.0,1.6890439987182617,14.002306699752808,7.53006911277771,23.22141981124878
321000,320,3.019104480743408,-280.79595947265625,2.5743017196655273,4.177675724029541,0.058187246322631836,0.04756094142794609,281.01806640625,280.4893493652344,280.9233093261719,321000,3.0219171047210693,13.118067264556885,6.67572021484375e-06,16.13999104499817
322000,321,3.106649875640869,-286.60003662109375,3.9230103492736816,4.916228294372559,0.32477837800979614,0.047583021223545074,286.4912414550781,286.5945739746094,285.9750671386719,322000,1.4215240478515625,14.369266986846924,1.1444091796875e-05,15.790802478790283
323000,322,2.6097071170806885,-284.9502868652344,5.673162937164307,4.234262943267822,-1.176912784576416,0.04902328923344612,284.6673889160156,285.0457763671875,284.77496337890625,323000,1.890624761581421,14.806645154953003,7.867813110351562e-06,16.697277784347534
324000,323,3.105825424194336,-290.62884521484375,3.9395174980163574,4.819478988647461,0.3228890001773834,0.04730460047721863,290.43304443359375,290.5276184082031,290.2900695800781,324000,2.06480073928833,12.61296558380127,1.0013580322265625e-05,14.677776336669922
325000,324,3.513800859451294,-282.74322509765625,4.375470161437988,4.9864702224731445,1.560420274734497,0.04797793924808502,282.8363952636719,282.49951171875,282.6924133300781,325000,1.4078528881072998,12.51716685295105,1.0728836059570312e-05,13.92503046989441
326000,325,2.786970376968384,-283.71624755859375,5.187931537628174,5.588801383972168,-0.6468623876571655,0.04800304397940636,283.597900390625,283.1903076171875,282.61395263671875,326000,1.4265403747558594,12.810513973236084,1.4066696166992188e-05,14.23706841468811
327000,326,3.206979751586914,-286.2664794921875,3.91983699798584,3.2316832542419434,0.6337332725524902,0.046802692115306854,286.04705810546875,286.2499694824219,286.0055847167969,327000,1.4072463512420654,12.551822423934937,8.58306884765625e-06,13.95907735824585
328000,327,3.1934432983398438,-288.01446533203125,8.566914558410645,8.493063926696777,0.5881582498550415,0.047812554985284805,287.683837890625,287.8500671386719,285.78143310546875,328000,1.3879477977752686,14.587114334106445,1.2874603271484375e-05,15.975075006484985
329000,328,3.013713836669922,-286.1815185546875,4.465113162994385,5.560940742492676,0.041827380657196045,0.04735839366912842,285.88336181640625,286.0365295410156,285.7492370605469,329000,2.418853998184204,14.436705827713013,8.106231689453125e-06,16.855567932128906
330000,329,2.8351128101348877,-286.8847351074219,4.935113906860352,4.865025520324707,-0.4965416193008423,0.04922256991267204,286.6175842285156,286.7060546875,286.79034423828125,330000,3279.097,1000.0,1.4370739459991455,12.747212886810303,9.70828628540039,23.89257311820984
331000,330,3.1364800930023193,-273.2918701171875,7.0916643142700195,10.775708198547363,0.41648077964782715,0.04728382080793381,273.14190673828125,273.45562744140625,272.6628112792969,331000,1.9920048713684082,14.055882453918457,6.9141387939453125e-06,16.04789423942566
332000,331,2.923457622528076,-288.70367431640625,4.369448661804199,6.402317523956299,-0.2332805097103119,0.04746644198894501,288.30419921875,288.73626708984375,288.4521484375,332000,1.925588846206665,12.185572862625122,1.049041748046875e-05,14.111172199249268
333000,332,3.067784547805786,-280.5444030761719,3.4587435722351074,3.3832366466522217,0.20607128739356995,0.047830477356910706,280.3761291503906,280.35467529296875,279.85382080078125,333000,1.5437297821044922,11.97876501083374,6.9141387939453125e-06,13.522501707077026
334000,333,2.6771225929260254,-293.12420654296875,3.843301773071289,3.543642520904541,-0.9841621518135071,0.047449082136154175,293.0721130371094,293.1952209472656,292.8975830078125,334000,1.3851613998413086,11.899421215057373,5.9604644775390625e-06,13.28458857536316
335000,334,3.197016954421997,-278.117431640625,3.532866954803467,3.125229597091675,0.5964651107788086,0.048437509685754776,277.96307373046875,278.010009765625,277.50738525390625,335000,1.3949859142303467,12.06023621559143,6.4373016357421875e-06,13.455228567123413
336000,335,3.250852584838867,-273.05670166015625,6.152997016906738,6.217317581176758,0.759070634841919,0.04851101338863373,272.92486572265625,272.8199768066406,272.6127624511719,336000,1.3679430484771729,11.737626791000366,7.152557373046875e-06,13.105576992034912
337000,336,2.7720916271209717,-288.42437744140625,6.291838645935059,8.295536041259766,-0.7002061605453491,0.04631387069821358,288.3498840332031,288.4324035644531,287.54248046875,337000,1.3830604553222656,11.654989242553711,6.67572021484375e-06,13.038056373596191
338000,337,2.7847366333007812,-291.108154296875,4.816267013549805,4.077558517456055,-0.6619426012039185,0.04618794098496437,290.9987487792969,291.025390625,290.76025390625,338000,1.6724662780761719,13.262719631195068,7.152557373046875e-06,14.935193061828613
339000,338,2.787088632583618,-281.29034423828125,4.313234329223633,4.7261786460876465,-0.6563401222229004,0.0458357073366642,281.22918701171875,281.070068359375,281.7083740234375,339000,1.6800522804260254,11.422979593276978,6.4373016357421875e-06,13.103038311004639
340000,339,3.2130582332611084,-283.0858154296875,10.070889472961426,12.531272888183594,0.6523319482803345,0.04680547118186951,282.6776428222656,283.2545166015625,282.34539794921875,340000,3278.4414,1000.0,1.3844873905181885,11.726805686950684,7.074874401092529,20.1861674785614
341000,340,3.1881704330444336,-289.377197265625,234.0401153564453,251.72193908691406,0.5756791830062866,0.046918127685785294,289.47076416015625,289.063232421875,289.01165771484375,341000,1.3929660320281982,11.189462661743164,6.198883056640625e-06,12.582434892654419
342000,341,2.8971853256225586,-283.7831115722656,3.857475996017456,3.7229270935058594,-0.3144989609718323,0.04693983495235443,283.58966064453125,284.2161560058594,284.1107177734375,342000,1.6135578155517578,12.3793203830719,6.67572021484375e-06,13.992884874343872
343000,342,2.873539686203003,-288.074462890625,5.582006931304932,14.055316925048828,-0.38357433676719666,0.04816322401165962,287.90472412109375,287.781494140625,287.6396484375,343000,1.4097936153411865,11.12154746055603,6.67572021484375e-06,12.531347751617432
344000,343,2.835193157196045,-286.53021240234375,3.881855010986328,2.7613964080810547,-0.5083858966827393,0.045742105692625046,286.5818786621094,286.376708984375,285.86578369140625,344000,1.3858752250671387,11.16949462890625,6.4373016357421875e-06,12.555376291275024
345000,344,3.2030389308929443,-285.89849853515625,4.5813398361206055,4.084706783294678,0.6229850649833679,0.04649999365210533,285.77337646484375,285.761474609375,286.0004577636719,345000,1.367579460144043,11.276033163070679,6.4373016357421875e-06,12.643619060516357
346000,345,3.1855363845825195,-289.37164306640625,6.218099594116211,4.609334945678711,0.5698634386062622,0.04635440185666084,289.2520751953125,289.318359375,289.2088623046875,346000,1.3973894119262695,11.66129207611084,7.62939453125e-06,13.05868911743164
347000,346,2.511408805847168,-291.1009521484375,5.142068386077881,4.798766136169434,-1.5063281059265137,0.045821502804756165,290.98931884765625,291.36956787109375,290.869873046875,347000,1.39109206199646,12.522547006607056,7.867813110351562e-06,13.913646936416626
348000,347,2.9687399864196777,-289.2935791015625,7.2801313400268555,7.186033248901367,-0.09605848789215088,0.046287551522254944,289.2899475097656,289.28363037109375,289.6134948730469,348000,1.3924593925476074,11.215843439102173,6.67572021484375e-06,12.608309507369995
349000,348,3.0339722633361816,-281.1369323730469,6.555933475494385,6.180414199829102,0.10464799404144287,0.04594094678759575,280.7208251953125,281.0667724609375,281.8652648925781,349000,1.3585622310638428,11.806900024414062,6.4373016357421875e-06,13.165468692779541
350000,349,2.7198052406311035,-290.30462646484375,4.27484655380249,3.328423023223877,-0.8670651912689209,0.04529717564582825,290.07568359375,290.2427673339844,290.35296630859375,350000,2643.0825,789.2,1.6718990802764893,11.540717363357544,5.186204195022583,18.398820638656616
351000,350,3.022406578063965,-289.7093200683594,3.8296117782592773,4.144184589385986,0.06910723447799683,0.04576509818434715,289.5752868652344,289.93115234375,288.995849609375,351000,1.3738362789154053,11.236992359161377,6.198883056640625e-06,12.610834836959839
352000,351,2.75079083442688,-291.96221923828125,6.98277473449707,10.081055641174316,-0.7753217816352844,0.04455062747001648,291.999755859375,291.6146240234375,291.494140625,352000,1.3674070835113525,11.402425289154053,7.867813110351562e-06,12.769840240478516
353000,352,3.1327743530273438,-283.679931640625,6.5001044273376465,5.102542400360107,0.4124216139316559,0.044771499931812286,283.28265380859375,283.7906494140625,283.408935546875,353000,1.3842756748199463,11.927464962005615,6.67572021484375e-06,13.311747312545776
354000,353,3.2307515144348145,-281.41583251953125,3.842838764190674,3.465879440307617,0.7157484889030457,0.04496743157505989,281.26068115234375,281.46142578125,281.2559814453125,354000,1.3818247318267822,11.068223237991333,6.67572021484375e-06,12.45005464553833
355000,354,2.95414400100708,-289.7652587890625,3.9276790618896484,5.533844947814941,-0.14180952310562134,0.04538791999220848,289.71929931640625,289.8089599609375,289.3428955078125,355000,1.365567684173584,11.229449272155762,6.4373016357421875e-06,12.595023393630981
356000,355,2.9082155227661133,-289.5356140136719,3.624207019805908,5.453350067138672,-0.2826452851295471,0.04598458111286163,289.2257995605469,288.7197265625,288.79254150390625,356000,1.360931396484375,11.89057207107544,7.62939453125e-06,13.251511096954346
357000,356,3.1652157306671143,-283.4039306640625,9.666015625,5.278894424438477,0.5089002847671509,0.04594932496547699,283.09820556640625,282.49774169921875,281.4906005859375,357000,1.6770029067993164,11.787976503372192,7.867813110351562e-06,13.46498727798462
358000,357,3.097447633743286,-289.98699951171875,4.650714874267578,5.288373947143555,0.30163517594337463,0.04525880143046379,290.14202880859375,289.98785400390625,288.717529296875,358000,1.3924341201782227,11.690023183822632,6.67572021484375e-06,13.08246397972107
359000,358,3.0977578163146973,-288.6634521484375,3.530917167663574,3.3447070121765137,0.30476492643356323,0.04426548257470131,288.4692077636719,288.3741455078125,287.70257568359375,359000,1.3914740085601807,11.357111692428589,7.152557373046875e-06,12.748592853546143
360000,359,3.210967540740967,-285.9543762207031,9.29965877532959,6.582618713378906,0.6592090129852295,0.04395037516951561,285.7889099121094,285.4066467285156,285.7637939453125,360000,3327.2441,1000.0,1.364537000656128,11.376070499420166,6.6173107624053955,19.35791826248169
361000,360,3.018739700317383,-287.50286865234375,4.042501926422119,4.550846576690674,0.05816575512290001,0.044874560087919235,287.4586486816406,287.27667236328125,287.4170837402344,361000,1.3816003799438477,11.805088996887207,7.3909759521484375e-06,13.186696767807007
362000,361,2.713442087173462,-281.38592529296875,6.897576332092285,8.2725830078125,-0.8864325881004333,0.04534842073917389,281.4378662109375,281.0181884765625,281.06597900390625,362000,1.3917686939239502,12.104307174682617,6.9141387939453125e-06,13.496082782745361
363000,362,2.8303210735321045,-291.32904052734375,5.05134391784668,7.860568046569824,-0.5221703052520752,0.04607871174812317,290.61004638671875,290.5100402832031,291.0772705078125,363000,1.3822736740112305,11.459980964660645,6.198883056640625e-06,12.842260837554932
364000,363,3.1475539207458496,-288.2275390625,4.863980770111084,4.048158168792725,0.46017175912857056,0.044215891510248184,288.12359619140625,288.28314208984375,287.9069519042969,364000,1.3639185428619385,11.298625230789185,6.67572021484375e-06,12.662550449371338
365000,364,2.857170343399048,-288.2550964355469,4.952023029327393,6.840204238891602,-0.4461750388145447,0.043988555669784546,288.14923095703125,288.32373046875,287.45977783203125,365000,1.388524055480957,12.321855068206787,6.4373016357421875e-06,13.71038556098938
366000,365,3.081345558166504,-292.8560791015625,3.2183990478515625,2.6007118225097656,0.2561778426170349,0.04288390651345253,292.8083190917969,292.7493896484375,292.96112060546875,366000,1.3809800148010254,12.308220863342285,6.9141387939453125e-06,13.689207792282104
367000,366,3.0658133029937744,-287.258544921875,4.1044206619262695,3.739459753036499,0.20640218257904053,0.04344834014773369,286.93853759765625,287.2424621582031,287.7954406738281,367000,1.3927221298217773,11.60570764541626,6.4373016357421875e-06,12.998436212539673
368000,367,2.846696376800537,-292.09674072265625,4.118566989898682,6.123891830444336,-0.47769758105278015,0.04433317109942436,292.00433349609375,292.0782470703125,292.47003173828125,368000,1.3856632709503174,11.566227436065674,6.67572021484375e-06,12.951897382736206
369000,368,2.850597381591797,-287.000244140625,4.669713020324707,4.3133416175842285,-0.4670782685279846,0.04387955740094185,287.1092224121094,286.72967529296875,286.71337890625,369000,1.384660243988037,12.352578401565552,7.152557373046875e-06,13.737245798110962
370000,369,2.967611789703369,-297.2824401855469,3.2354848384857178,3.2025952339172363,-0.10161308944225311,0.04339860752224922,297.38238525390625,297.330810546875,296.87347412109375,370000,2624.3518,752.6,1.6767504215240479,11.644044160842896,4.912823915481567,18.23361849784851
371000,370,2.8231701850891113,-286.7113037109375,5.35905647277832,5.016746520996094,-0.5569009780883789,0.04287957400083542,286.44354248046875,286.45489501953125,286.1177978515625,371000,1.3614962100982666,11.116172313690186,6.9141387939453125e-06,12.477675437927246
372000,371,3.271284818649292,-293.95465087890625,6.40529727935791,4.622620582580566,0.8479698896408081,0.043903760612010956,293.8675842285156,293.82196044921875,293.4549255371094,372000,1.3856642246246338,11.324618577957153,6.67572021484375e-06,12.710289478302002
373000,372,3.07121205329895,-290.1634521484375,1.9789910316467285,2.28065824508667,0.22349940240383148,0.04334741830825806,290.117431640625,290.06005859375,289.91156005859375,373000,1.38423490524292,12.146385192871094,6.4373016357421875e-06,13.53062653541565
374000,373,2.906249761581421,-286.33892822265625,3.826801300048828,3.3451128005981445,-0.2938234210014343,0.04353836923837662,285.9327087402344,286.03564453125,285.63470458984375,374000,1.3758752346038818,11.192016124725342,6.67572021484375e-06,12.567898035049438
