NanFang2023/CQL_sepsis/CQL-new/SimpleSAC/experiment_output/default_2023_06_07_13_15_19-s-42--0561e18d37604868ae62c6feb720f959/progress.csv
epoch,sac/log_pi,sac/policy_loss,sac/qf1_loss,sac/qf2_loss,sac/alpha_loss,sac/alpha,sac/average_qf1,sac/average_qf2,sac/average_target_q,sac/total_steps,sac/cql/cql_std_q1,sac/cql/cql_std_q2,sac/cql/cql_q1_rand,sac/cql/cql_q2_rand,sac/cql/cql_min_qf1_loss,sac/cql/cql_min_qf2_loss,sac/cql/cql_qf1_diff,sac/cql/cql_qf2_diff,sac/cql/cql_q1_current_actions,sac/cql/cql_q2_current_actions,sac/cql/cql_q1_next_actions,sac/cql/cql_q2_next_actions,sac/cql/alpha_prime_loss,sac/cql/alpha_prime,average_return,average_traj_length,average_normalizd_return,train_time,eval_time,epoch_time
0,-0.25860536098480225,-13.05948543548584,1.831608772277832,1.8587183952331543,-0.8982565402984619,0.7590734362602234,13.67841625213623,13.53184700012207,10.685640335083008,1000,2.193920135498047,2.197817325592041,9.719804763793945,9.509411811828613,17.018047332763672,16.724590301513672,3.403609275817871,3.3449180126190186,13.190825462341309,13.000502586364746,12.9923734664917,12.803988456726074,0.0,0.0,247.4896,153.4,0.0822725284028814,21.921887397766113,1.008955717086792,22.930843114852905
1,0.5848329663276672,-25.709260940551758,2.298269748687744,2.1047251224517822,-1.2384121417999268,0.5988377928733826,26.610855102539062,26.43377685546875,23.29777717590332,2000,2.843334436416626,2.8507351875305176,21.501312255859375,21.21498680114746,15.119951248168945,14.686522483825684,3.0239901542663574,2.9373044967651367,26.429861068725586,26.154834747314453,25.973087310791016,25.671613693237305,0.0,0.0,247.4896,153.4,0.0822725284028814,19.765966176986694,1.1205673217773438e-05,19.765977382659912
2,1.3566771745681763,-37.58760070800781,4.137149333953857,4.398246765136719,-1.2134262323379517,0.4778788685798645,38.33051300048828,38.283172607421875,35.11671447753906,3000,3.2822251319885254,3.3816661834716797,32.59819412231445,32.36619186401367,14.341972351074219,14.267997741699219,2.868394374847412,2.8535995483398438,38.5606803894043,38.51253890991211,37.95331573486328,37.85981369018555,0.0,0.0,247.4896,153.4,0.0822725284028814,21.267274379730225,6.4373016357421875e-06,21.26728081703186
3,1.8208218812942505,-49.66202926635742,2.6926960945129395,2.814563751220703,-1.1226158142089844,0.385955810546875,50.28853988647461,50.50459289550781,47.97270965576172,4000,3.544027805328369,3.6322994232177734,44.123538970947266,44.23965072631836,13.712530136108398,13.927750587463379,2.7425060272216797,2.785550117492676,50.59825134277344,50.8381462097168,50.023712158203125,50.21282958984375,0.0,0.0,247.4896,153.4,0.0822725284028814,20.044845819473267,8.106231689453125e-06,20.044853925704956
4,2.106356143951416,-63.16948699951172,2.0389509201049805,2.3066294193267822,-1.0268781185150146,0.3169248104095459,63.79880142211914,63.82398223876953,61.26087951660156,5000,3.611785888671875,3.741727590560913,57.419036865234375,57.30184555053711,12.071847915649414,12.302441596984863,2.414369583129883,2.4604883193969727,64.16606903076172,64.22888946533203,63.41969680786133,63.45798873901367,0.0,0.0,247.4896,153.4,0.0822725284028814,21.763951301574707,6.67572021484375e-06,21.763957977294922
5,2.1197075843811035,-77.31929016113281,2.576467514038086,2.744075298309326,-1.1640732288360596,0.2665026783943176,77.90228271484375,77.69706726074219,75.75042724609375,6000,3.6774919033050537,3.8419008255004883,71.55854797363281,71.09813690185547,12.827072143554688,12.691400527954102,2.5654144287109375,2.5382800102233887,78.37745666503906,78.1897201538086,77.65947723388672,77.36441802978516,0.0,0.0,247.4896,153.4,0.0822725284028814,22.718077182769775,6.4373016357421875e-06,22.71808362007141
6,2.9406166076660156,-87.84828186035156,2.5433530807495117,2.707916736602783,-0.0865306481719017,0.23289741575717926,88.29423522949219,88.48873901367188,85.76043701171875,7000,3.951554775238037,4.045305252075195,81.2676010131836,81.32492065429688,10.438451766967773,10.376321792602539,2.0876903533935547,2.0752644538879395,88.78167724609375,88.98204803466797,87.8655014038086,88.00337219238281,0.0,0.0,247.4896,153.4,0.0822725284028814,21.09352469444275,6.198883056640625e-06,21.093530893325806
7,2.8388986587524414,-97.75426483154297,2.1305599212646484,2.018129825592041,-0.24705028533935547,0.21577763557434082,98.03728485107422,98.15728759765625,96.06529998779297,8000,4.057535171508789,4.198633193969727,91.0233383178711,90.8854751586914,11.21259880065918,10.983497619628906,2.2425198554992676,2.196699619293213,98.64002227783203,98.7265853881836,97.60478210449219,97.61910247802734,0.0,0.0,247.4896,153.4,0.0822725284028814,20.706631660461426,5.9604644775390625e-06,20.706637620925903
8,2.990342617034912,-111.87783813476562,2.618018627166748,2.763641834259033,-0.015044167637825012,0.21060709655284882,112.16973876953125,112.168701171875,110.44181060791016,9000,4.264164924621582,4.3719611167907715,104.8467025756836,104.67729949951172,11.003284454345703,10.850923538208008,2.2006568908691406,2.17018461227417,112.8310546875,112.86700439453125,111.99938201904297,111.97374725341797,0.0,0.0,247.4896,153.4,0.0822725284028814,21.239533185958862,5.9604644775390625e-06,21.23953914642334
9,2.8888700008392334,-120.79414367675781,3.456460475921631,3.367039680480957,-0.17164315283298492,0.21341311931610107,120.95233154296875,121.18560028076172,119.36492919921875,10000,4.46970272064209,4.520395278930664,113.25191497802734,113.5212631225586,11.344381332397461,11.71882152557373,2.268876314163208,2.343764305114746,121.6830062866211,121.95806121826172,120.63094329833984,120.84648895263672,0.0,0.0,24.024403,23.6,0.013610607225267912,19.45315432548523,0.1585233211517334,19.611677646636963
10,2.809767007827759,-133.36154174804688,3.2606759071350098,3.4115514755249023,-0.2900124788284302,0.21772733330726624,133.77047729492188,133.729248046875,131.84255981445312,11000,4.3466267585754395,4.418453216552734,126.26509857177734,126.02850341796875,10.720460891723633,10.299266815185547,2.144092082977295,2.0598533153533936,134.4385986328125,134.2946014404297,133.50775146484375,133.31695556640625,0.0,0.0,24.024403,23.6,0.013610607225267912,21.01664900779724,5.7220458984375e-06,21.01665472984314
11,2.8828020095825195,-138.85049438476562,3.134617328643799,3.4109559059143066,-0.17632661759853363,0.22212402522563934,139.2869110107422,139.35598754882812,137.03219604492188,12000,4.330563545227051,4.444806098937988,131.7014617919922,131.70286560058594,10.575807571411133,11.26378059387207,2.115161418914795,2.252756118774414,139.77001953125,139.8991241455078,138.83824157714844,139.0210418701172,0.0,0.0,24.024403,23.6,0.013610607225267912,19.807445526123047,6.4373016357421875e-06,19.807451963424683
12,2.7102506160736084,-143.88467407226562,4.705288887023926,4.468998908996582,-0.43204617500305176,0.22512412071228027,144.46475219726562,144.35516357421875,144.60665893554688,13000,4.609975337982178,4.675118446350098,136.3829345703125,136.19715881347656,10.380914688110352,10.237320899963379,2.0761828422546387,2.04746413230896,144.99937438964844,144.8792724609375,143.8372039794922,143.6831512451172,0.0,0.0,24.024403,23.6,0.013610607225267912,20.230308771133423,6.198883056640625e-06,20.23031497001648
13,3.0249576568603516,-156.4272003173828,3.431438446044922,3.681804895401001,0.036726150661706924,0.22957172989845276,156.9788818359375,156.86903381347656,155.04315185546875,14000,4.957635879516602,4.934718132019043,148.2180938720703,148.15003967285156,9.737039566040039,9.762778282165527,1.9474079608917236,1.9525556564331055,157.56382751464844,157.449951171875,156.53038024902344,156.3162384033203,0.0,0.0,24.024403,23.6,0.013610607225267912,20.42556881904602,6.198883056640625e-06,20.425575017929077
14,3.2158942222595215,-163.86285400390625,4.129735946655273,3.6189992427825928,0.3127847909927368,0.23485472798347473,164.2939453125,164.41827392578125,162.7273712158203,15000,5.449265480041504,5.286369800567627,154.66416931152344,155.02725219726562,9.554344177246094,9.186583518981934,1.9108688831329346,1.8373167514801025,164.9434356689453,165.0264129638672,163.70713806152344,163.7327117919922,0.0,0.0,24.024403,23.6,0.013610607225267912,19.67950415611267,6.198883056640625e-06,19.679510354995728
15,3.3629560470581055,-165.67416381835938,4.666318893432617,3.520993709564209,0.5233996510505676,0.23644332587718964,166.1973114013672,166.17149353027344,165.0369873046875,16000,5.374964237213135,5.354154586791992,156.7769775390625,156.7828826904297,9.724872589111328,9.960783004760742,1.9449745416641235,1.9921565055847168,166.8883514404297,166.87489318847656,165.69924926757812,165.7098388671875,0.0,0.0,24.024403,23.6,0.013610607225267912,20.09097170829773,5.7220458984375e-06,20.090977430343628
16,3.125154495239258,-179.36776733398438,4.37322998046875,3.432368516921997,0.1777057945728302,0.24173976480960846,180.14208984375,179.75613403320312,178.34628295898438,17000,5.722250938415527,5.625402450561523,170.006591796875,169.7769012451172,9.005585670471191,9.23892593383789,1.8011170625686646,1.847785234451294,180.78846740722656,180.3936309814453,179.6676788330078,179.2882080078125,0.0,0.0,24.024403,23.6,0.013610607225267912,19.981131553649902,6.198883056640625e-06,19.98113775253296
17,3.052590847015381,-185.65731811523438,120.82157897949219,120.37104034423828,0.0740758404135704,0.24450109899044037,186.10728454589844,186.01495361328125,185.032958984375,18000,5.709229946136475,5.578993797302246,176.1601104736328,176.3531951904297,10.192176818847656,10.337484359741211,2.038435459136963,2.0674967765808105,186.8790283203125,186.79629516601562,185.5929412841797,185.46400451660156,0.0,0.0,24.024403,23.6,0.013610607225267912,20.63270354270935,5.7220458984375e-06,20.63270926475525
18,2.998076915740967,-190.7222900390625,4.197627067565918,5.22536039352417,-0.0026855766773223877,0.24743063747882843,190.85633850097656,191.45957946777344,190.23153686523438,19000,5.618818283081055,5.64592981338501,181.24057006835938,181.73338317871094,10.877691268920898,10.812761306762695,2.1755383014678955,2.1625523567199707,191.69773864746094,192.21630859375,190.6602783203125,191.078369140625,0.0,0.0,24.024403,23.6,0.013610607225267912,20.042506217956543,5.7220458984375e-06,20.04251194000244
19,2.793492078781128,-194.334716796875,5.172850608825684,5.176612854003906,-0.2865241467952728,0.24970552325248718,194.6336669921875,195.04910278320312,194.8253631591797,20000,5.273775100708008,5.2176008224487305,185.61961364746094,186.05682373046875,11.381145477294922,11.415238380432129,2.2762291431427,2.283047676086426,195.39610290527344,195.69627380371094,194.17303466796875,194.4847412109375,0.0,0.0,904.40155,320.2,0.28411533229527136,21.45400357246399,2.559769868850708,24.013773441314697
20,3.0560965538024902,-204.33236694335938,5.4858527183532715,5.645803451538086,0.07745476067066193,0.25139355659484863,204.68893432617188,204.85513305664062,203.7256317138672,21000,5.4683074951171875,5.567742347717285,195.28302001953125,195.2281036376953,10.65035629272461,10.733777046203613,2.1300711631774902,2.1467554569244385,205.408935546875,205.5690155029297,204.1941375732422,204.3148651123047,0.0,0.0,904.40155,320.2,0.28411533229527136,19.76191759109497,5.9604644775390625e-06,19.76192355155945
21,3.0627782344818115,-197.1998748779297,4.652990341186523,3.891409397125244,0.08593171834945679,0.2544076442718506,197.82028198242188,197.67343139648438,196.40277099609375,22000,5.514017105102539,5.5744171142578125,188.2728271484375,187.9781036376953,11.091154098510742,11.221529006958008,2.218230724334717,2.2443058490753174,198.48263549804688,198.29376220703125,197.32196044921875,197.3038787841797,0.0,0.0,904.40155,320.2,0.28411533229527136,21.267269134521484,6.198883056640625e-06,21.26727533340454
22,3.111912727355957,-207.69158935546875,4.418508052825928,4.005154609680176,0.15343642234802246,0.2538442015647888,208.32786560058594,208.03489685058594,208.83990478515625,23000,5.791046142578125,5.861941814422607,198.38565063476562,197.98182678222656,10.328178405761719,10.67543888092041,2.0656356811523438,2.135087728500366,209.1361846923828,208.88121032714844,207.7018585205078,207.5276336669922,0.0,0.0,904.40155,320.2,0.28411533229527136,20.135940074920654,5.7220458984375e-06,20.135945796966553
23,2.9277474880218506,-209.78573608398438,8.672619819641113,7.875650405883789,-0.09863709658384323,0.2553364038467407,210.41796875,210.19581604003906,211.0076904296875,24000,5.985472679138184,5.796282768249512,200.0078887939453,200.17068481445312,10.270366668701172,10.975502014160156,2.0540733337402344,2.1951003074645996,211.1021728515625,210.9209442138672,209.74790954589844,209.5625,0.0,0.0,904.40155,320.2,0.28411533229527136,19.899651288986206,5.7220458984375e-06,19.899657011032104
24,3.018282651901245,-214.46942138671875,4.694846153259277,5.162014961242676,0.024696074426174164,0.25903454422950745,215.01971435546875,215.088623046875,213.80780029296875,25000,5.890859603881836,5.941035270690918,204.8088836669922,204.6986083984375,10.43699836730957,10.783357620239258,2.08739972114563,2.1566715240478516,215.7089080810547,215.86123657226562,214.57632446289062,214.5686492919922,0.0,0.0,904.40155,320.2,0.28411533229527136,19.45792531967163,6.198883056640625e-06,19.457931518554688
25,2.8317160606384277,-219.46803283691406,4.560865879058838,4.795483112335205,-0.227113276720047,0.2593482732772827,219.81564331054688,220.33059692382812,219.72801208496094,26000,5.9764251708984375,6.115370273590088,209.59727478027344,209.59678649902344,10.604803085327148,9.903173446655273,2.1209607124328613,1.9806346893310547,220.61074829101562,221.0155792236328,219.4935302734375,219.6746826171875,0.0,0.0,904.40155,320.2,0.28411533229527136,20.91273522377014,5.7220458984375e-06,20.91274094581604
26,2.9749205112457275,-221.83343505859375,9.766693115234375,9.898514747619629,-0.03411492705345154,0.25659048557281494,222.40023803710938,222.5726318359375,222.657470703125,27000,5.986159801483154,5.865420341491699,212.0515594482422,212.494384765625,9.76640510559082,10.336172103881836,1.953281044960022,2.067234516143799,223.0765838623047,223.3068084716797,221.491455078125,221.7783660888672,0.0,0.0,904.40155,320.2,0.28411533229527136,20.628583431243896,6.198883056640625e-06,20.628589630126953
27,3.084162950515747,-212.89849853515625,5.372289180755615,5.54875373840332,0.11370668560266495,0.25897324085235596,213.31793212890625,213.61636352539062,215.18142700195312,28000,5.923392295837402,6.103550434112549,203.00242614746094,202.9271240234375,10.233678817749023,10.239639282226562,2.0467357635498047,2.0479278564453125,214.056396484375,214.29087829589844,212.4412384033203,212.67478942871094,0.0,0.0,904.40155,320.2,0.28411533229527136,20.93405055999756,6.4373016357421875e-06,20.934056997299194
28,2.998584508895874,-227.23863220214844,5.054614543914795,6.11649227142334,-0.0019031930714845657,0.2606610357761383,228.001953125,227.63751220703125,227.49691772460938,29000,5.795623302459717,5.795588493347168,218.1464385986328,217.6656036376953,11.414594650268555,11.17841911315918,2.282918930053711,2.2356839179992676,228.77964782714844,228.38720703125,227.6047821044922,227.091796875,0.0,0.0,904.40155,320.2,0.28411533229527136,19.727132081985474,5.9604644775390625e-06,19.72713804244995
29,3.0831611156463623,-226.4027099609375,6.6832990646362305,5.574182033538818,0.11217539012432098,0.2595274746417999,227.4493408203125,226.69435119628906,226.44212341308594,30000,5.933357238769531,6.07943058013916,217.27830505371094,216.308349609375,10.703840255737305,11.339481353759766,2.140768051147461,2.2678961753845215,228.2080078125,227.5325164794922,226.9447021484375,226.28086853027344,0.0,0.0,809.6019,288.8,0.2549871897585537,20.682665586471558,1.8912458419799805,22.573911428451538
30,2.718782424926758,-231.33641052246094,5.241616725921631,3.8539509773254395,-0.3792581558227539,0.259595662355423,232.3663330078125,232.0,232.01919555664062,31000,5.90929651260376,5.883320331573486,222.19790649414062,221.7200164794922,10.154865264892578,9.628402709960938,2.030972957611084,1.9256806373596191,232.9872589111328,232.50376892089844,231.61221313476562,231.09780883789062,0.0,0.0,809.6019,288.8,0.2549871897585537,21.02987790107727,5.9604644775390625e-06,21.029883861541748
31,2.9022083282470703,-232.99542236328125,4.679563522338867,5.617143630981445,-0.13209596276283264,0.25903573632240295,233.60687255859375,233.292724609375,232.8572998046875,32000,5.937884330749512,6.278570175170898,223.4324188232422,222.56436157226562,11.158172607421875,11.8109130859375,2.2316346168518066,2.3621826171875,234.316162109375,234.1411895751953,232.9861297607422,232.80894470214844,0.0,0.0,809.6019,288.8,0.2549871897585537,21.831453323364258,6.67572021484375e-06,21.831459999084473
32,2.9316959381103516,-239.4899444580078,7.5388031005859375,7.054915904998779,-0.09207677841186523,0.25974830985069275,239.90542602539062,240.24252319335938,239.06289672851562,33000,6.222110748291016,6.177177429199219,229.34487915039062,229.6833953857422,10.874454498291016,10.990972518920898,2.1748909950256348,2.1981945037841797,240.7022247314453,241.03001403808594,239.53369140625,239.74229431152344,0.0,0.0,809.6019,288.8,0.2549871897585537,19.83083963394165,5.9604644775390625e-06,19.830845594406128
33,3.1268506050109863,-224.2811279296875,4.8104448318481445,4.063370704650879,0.17125999927520752,0.25921615958213806,224.98231506347656,224.7814178466797,225.263671875,34000,6.229344367980957,6.331933975219727,214.26553344726562,213.82730102539062,9.854727745056152,9.715567588806152,1.9709455966949463,1.9431134462356567,225.79678344726562,225.520263671875,224.4428253173828,224.2268524169922,0.0,0.0,809.6019,288.8,0.2549871897585537,20.949946880340576,6.198883056640625e-06,20.949953079223633
34,2.9242172241210938,-235.64511108398438,5.94489860534668,5.091834545135498,-0.10260550677776337,0.2582208812236786,236.52975463867188,236.10064697265625,236.30517578125,35000,6.301572799682617,6.406458854675293,225.60302734375,224.8813934326172,9.745129585266113,9.904351234436035,1.9490258693695068,1.980870246887207,237.2520751953125,236.806884765625,235.9464111328125,235.43785095214844,0.0,0.0,809.6019,288.8,0.2549871897585537,20.399999380111694,6.198883056640625e-06,20.40000557899475
35,2.97953200340271,-244.95765686035156,8.283088684082031,9.071825981140137,-0.02767840400338173,0.25865018367767334,245.408935546875,245.2554473876953,245.23782348632812,36000,6.397748947143555,6.579181671142578,234.5668487548828,234.03042602539062,10.873100280761719,11.225488662719727,2.1746201515197754,2.2450976371765137,246.35586547851562,246.2726287841797,244.73013305664062,244.52734375,0.0,0.0,809.6019,288.8,0.2549871897585537,20.286073207855225,5.7220458984375e-06,20.286078929901123
36,2.793849468231201,-235.91819763183594,7.3025102615356445,6.175139427185059,-0.2770788073539734,0.2607843279838562,236.51739501953125,236.3719482421875,237.59982299804688,37000,6.191808700561523,6.224168300628662,225.8870086669922,225.6636505126953,10.235345840454102,10.490467071533203,2.0470690727233887,2.0980935096740723,237.28857421875,237.1436004638672,235.79031372070312,235.73876953125,0.0,0.0,809.6019,288.8,0.2549871897585537,19.503932237625122,5.9604644775390625e-06,19.5039381980896
37,3.088111639022827,-240.50714111328125,8.872098922729492,8.159585952758789,0.11845375597476959,0.26070618629455566,241.0575714111328,241.197509765625,240.054931640625,38000,5.801916122436523,6.058917999267578,231.0218505859375,230.62109375,10.841150283813477,10.754790306091309,2.1682300567626953,2.1509580612182617,241.82595825195312,241.89146423339844,240.3794403076172,240.4578094482422,0.0,0.0,809.6019,288.8,0.2549871897585537,21.66378355026245,6.198883056640625e-06,21.663789749145508
38,3.1014187335968018,-248.82089233398438,8.901741027832031,9.486410140991211,0.1371881067752838,0.2585436701774597,249.26651000976562,249.58262634277344,249.32974243164062,39000,6.325314998626709,6.681640625,238.45669555664062,238.07408142089844,10.404487609863281,10.091500282287598,2.080897569656372,2.0183000564575195,250.156982421875,250.31155395507812,248.80224609375,249.04051208496094,0.0,0.0,809.6019,288.8,0.2549871897585537,21.497647762298584,7.152557373046875e-06,21.497654914855957
39,2.9641175270080566,-252.2613067626953,5.512710094451904,4.5049519538879395,-0.04838629066944122,0.259635865688324,252.79681396484375,253.1028289794922,253.09043884277344,40000,6.532046794891357,6.497960567474365,241.546630859375,241.8296356201172,9.683355331420898,9.893526077270508,1.9366711378097534,1.9787052869796753,253.50584411621094,253.7911376953125,252.09263610839844,252.295654296875,0.0,0.0,2184.2651,795.4,0.6773662437666099,21.333276748657227,5.1906280517578125,26.52390480041504
40,3.1642258167266846,-246.01654052734375,4.8489580154418945,4.672603130340576,0.22048485279083252,0.2611732482910156,246.60089111328125,246.89132690429688,246.788330078125,41000,6.402106761932373,6.765164375305176,235.37144470214844,234.978271484375,9.22081470489502,9.252723693847656,1.844162940979004,1.8505446910858154,247.268310546875,247.56065368652344,245.9397430419922,246.1611785888672,0.0,0.0,2184.2651,795.4,0.6773662437666099,20.208075046539307,6.198883056640625e-06,20.208081245422363
41,3.2274115085601807,-242.41812133789062,7.224429607391357,6.7763166427612305,0.30585482716560364,0.2605555057525635,243.35665893554688,242.775146484375,243.81195068359375,42000,6.201648712158203,6.5056352615356445,232.773193359375,231.52952575683594,9.533503532409668,9.503695487976074,1.9067007303237915,1.900739073753357,244.1834259033203,243.56045532226562,242.68984985351562,241.9179229736328,0.0,0.0,2184.2651,795.4,0.6773662437666099,20.655311107635498,5.7220458984375e-06,20.655316829681396
42,2.6805317401885986,-247.8992919921875,6.068711757659912,6.7836809158325195,-0.4291861057281494,0.2609465718269348,248.50827026367188,248.67881774902344,248.052001953125,43000,6.083620548248291,6.321640968322754,238.0004425048828,237.60952758789062,10.031335830688477,9.77511978149414,2.0062670707702637,1.9550238847732544,249.1588897705078,249.2327117919922,247.737548828125,247.8887939453125,0.0,0.0,2184.2651,795.4,0.6773662437666099,22.2904851436615,7.62939453125e-06,22.29049277305603
43,2.927888870239258,-251.63365173339844,3.611538887023926,4.109960556030273,-0.09648752212524414,0.2623584270477295,252.22549438476562,252.0849151611328,251.74609375,44000,6.291939735412598,6.554747581481934,241.42796325683594,240.779296875,9.827719688415527,10.014080047607422,1.9655439853668213,2.0028159618377686,253.0836639404297,252.9498748779297,251.644287109375,251.49058532714844,0.0,0.0,2184.2651,795.4,0.6773662437666099,19.586560249328613,6.4373016357421875e-06,19.58656668663025
44,2.752077579498291,-240.64476013183594,6.056838512420654,6.872779846191406,-0.3332098126411438,0.2607983350753784,241.25892639160156,241.44842529296875,241.55517578125,45000,5.7088165283203125,6.177585124969482,231.46475219726562,230.81411743164062,10.639501571655273,10.570426940917969,2.1279003620147705,2.1140854358673096,241.9026641845703,242.12353515625,240.49046325683594,240.5856170654297,0.0,0.0,2184.2651,795.4,0.6773662437666099,20.092052936553955,1.0251998901367188e-05,20.092063188552856
45,3.0974597930908203,-254.30108642578125,5.330662250518799,5.483359336853027,0.13058678805828094,0.26187077164649963,254.91217041015625,255.07723999023438,255.90625,46000,6.560198783874512,6.7670392990112305,243.45217895507812,243.08096313476562,9.711247444152832,9.52090072631836,1.9422495365142822,1.9041800498962402,255.6193389892578,255.7544403076172,254.00169372558594,253.94424438476562,0.0,0.0,2184.2651,795.4,0.6773662437666099,20.30501127243042,7.152557373046875e-06,20.305018424987793
46,2.891781806945801,-249.99411010742188,5.841988563537598,4.4434099197387695,-0.14564675092697144,0.2603153586387634,250.89088439941406,250.39459228515625,251.36965942382812,47000,5.906754016876221,6.251577854156494,240.70506286621094,239.72720336914062,9.956730842590332,10.683327674865723,1.9913462400436401,2.1366655826568604,251.556396484375,251.1597900390625,250.09133911132812,249.774169921875,0.0,0.0,2184.2651,795.4,0.6773662437666099,20.673482656478882,6.9141387939453125e-06,20.673489570617676
47,2.8369181156158447,-246.1741180419922,5.254822731018066,4.6123151779174805,-0.21903498470783234,0.261035293340683,247.06808471679688,246.55099487304688,247.2569122314453,48000,5.845029354095459,6.191100597381592,237.0054931640625,235.8406219482422,10.575571060180664,10.815138816833496,2.115114212036133,2.163027763366699,247.8309783935547,247.3125,246.202392578125,245.4713897705078,0.0,0.0,2184.2651,795.4,0.6773662437666099,19.491149187088013,6.198883056640625e-06,19.49115538597107
48,3.2526464462280273,-264.02655029296875,7.363041400909424,6.177001953125,0.3411557674407959,0.2591550946235657,264.9372863769531,264.62744140625,265.5110778808594,49000,6.287177085876465,6.7321343421936035,253.9077606201172,252.72341918945312,8.826333999633789,8.728999137878418,1.7652667760849,1.7457997798919678,265.64990234375,265.255126953125,264.1136779785156,263.8016662597656,0.0,0.0,2184.2651,795.4,0.6773662437666099,22.99303150177002,6.198883056640625e-06,22.993037700653076
49,3.1692826747894287,-245.30661010742188,7.545389652252197,7.317507743835449,0.2281213104724884,0.2598690986633301,245.92201232910156,246.03475952148438,246.37567138671875,50000,5.880562782287598,6.292154788970947,235.83201599121094,235.20848083496094,10.59952163696289,10.85241413116455,2.1199042797088623,2.170482873916626,246.61795043945312,246.7939910888672,245.424560546875,245.48497009277344,0.0,0.0,427.01422,155.6,0.13743327106664857,19.791148900985718,1.034123182296753,20.82527208328247
50,3.0971627235412598,-248.95626831054688,5.721857070922852,4.713998317718506,0.1308383345603943,0.26012685894966125,249.73617553710938,249.46566772460938,249.75140380859375,51000,5.97263240814209,6.3547773361206055,239.44517517089844,238.43386840820312,9.850994110107422,9.782547950744629,1.9701987504959106,1.9565095901489258,250.4298553466797,250.16726684570312,249.23583984375,248.8524627685547,0.0,0.0,427.01422,155.6,0.13743327106664857,21.702033519744873,6.9141387939453125e-06,21.702040433883667
51,3.062368869781494,-252.56143188476562,5.289909362792969,5.534921646118164,0.08460799604654312,0.25754132866859436,252.9041748046875,253.41494750976562,253.19912719726562,52000,5.985313415527344,6.49285364151001,242.52427673339844,242.0659637451172,9.9577054977417,9.965476989746094,1.9915411472320557,1.9930953979492188,253.7303009033203,254.20962524414062,252.1327667236328,252.6007537841797,0.0,0.0,427.01422,155.6,0.13743327106664857,20.893389225006104,6.198883056640625e-06,20.89339542388916
52,2.984156608581543,-251.82835388183594,4.063780784606934,4.397764205932617,-0.021446049213409424,0.25830090045928955,252.4605712890625,252.8681640625,252.351318359375,53000,5.746119022369385,6.118807315826416,242.37559509277344,242.2102508544922,9.104530334472656,9.895806312561035,1.8209060430526733,1.979161262512207,252.98599243164062,253.51206970214844,251.63023376464844,252.14329528808594,0.0,0.0,427.01422,155.6,0.13743327106664857,20.403822898864746,6.4373016357421875e-06,20.403829336166382
53,2.82570481300354,-234.88328552246094,6.2230305671691895,7.356432914733887,-0.23470225930213928,0.2601287066936493,235.58755493164062,235.6522216796875,237.31272888183594,54000,5.687773704528809,6.226345539093018,225.8751220703125,224.820068359375,10.760551452636719,10.401763916015625,2.1521103382110596,2.080352783203125,236.36514282226562,236.3357391357422,234.9219207763672,234.74380493164062,0.0,0.0,427.01422,155.6,0.13743327106664857,22.867290496826172,6.4373016357421875e-06,22.867296934127808
54,3.144368886947632,-240.47784423828125,5.49000883102417,5.0141754150390625,0.19507895410060883,0.2589156925678253,241.0850372314453,240.9673614501953,241.00143432617188,55000,5.545402526855469,5.980852127075195,231.5908203125,230.730712890625,10.707749366760254,11.087762832641602,2.141549825668335,2.217552661895752,241.89244079589844,241.8313446044922,240.54345703125,240.373291015625,0.0,0.0,427.01422,155.6,0.13743327106664857,24.295888423919678,6.198883056640625e-06,24.295894622802734
55,2.971437931060791,-256.4617614746094,4.769992351531982,4.810354709625244,-0.03844667971134186,0.26026028394699097,257.3321838378906,257.0611877441406,257.2335510253906,56000,6.118338584899902,6.627025604248047,246.6589813232422,245.4396514892578,9.102556228637695,8.981958389282227,1.8205112218856812,1.7963917255401611,257.98419189453125,257.6536560058594,256.4740905761719,256.1375427246094,0.0,0.0,427.01422,155.6,0.13743327106664857,21.249208211898804,7.3909759521484375e-06,21.249215602874756
56,2.906851291656494,-248.85366821289062,4.648846626281738,4.494528770446777,-0.12646016478538513,0.25727376341819763,249.7266845703125,249.54489135742188,248.83840942382812,57000,5.547890663146973,5.887458324432373,240.20567321777344,239.310302734375,10.018871307373047,10.024988174438477,2.0037741661071777,2.004997730255127,250.35928344726562,250.148193359375,249.0135498046875,248.83824157714844,0.0,0.0,427.01422,155.6,0.13743327106664857,19.30730652809143,6.198883056640625e-06,19.307312726974487
57,3.018080234527588,-241.47836303710938,4.809372901916504,6.068780899047852,0.02458244562149048,0.25675836205482483,241.84083557128906,242.48660278320312,242.4571990966797,58000,5.695771217346191,6.333776950836182,232.017578125,231.52847290039062,10.146393775939941,10.169243812561035,2.0292787551879883,2.033848762512207,242.6200714111328,243.27708435058594,241.1884307861328,241.81787109375,0.0,0.0,427.01422,155.6,0.13743327106664857,20.80447244644165,6.4373016357421875e-06,20.804478883743286
58,3.0162148475646973,-253.73683166503906,4.983232021331787,4.815800666809082,0.02201668545603752,0.25721728801727295,254.5224151611328,254.53582763671875,255.26651000976562,59000,5.709901809692383,6.24051570892334,244.6448516845703,243.6208953857422,9.308483123779297,8.738007545471191,1.8616966009140015,1.7476015090942383,255.2364044189453,255.1602325439453,253.74929809570312,253.65208435058594,0.0,0.0,427.01422,155.6,0.13743327106664857,19.359891891479492,6.198883056640625e-06,19.35989809036255
59,2.586075782775879,-257.03314208984375,3.605565309524536,3.970658540725708,-0.5624756217002869,0.2569471001625061,257.51416015625,257.85479736328125,256.88446044921875,60000,5.481867790222168,5.805235862731934,248.1454620361328,247.8029022216797,11.201066017150879,10.899932861328125,2.24021315574646,2.1799864768981934,258.1473693847656,258.469970703125,256.82928466796875,256.9852600097656,0.0,0.0,1515.0319,569.4,0.47173760251114255,22.096800327301025,3.714766263961792,25.811566591262817
60,3.102637767791748,-245.9826202392578,4.049136161804199,4.501498222351074,0.14016848802566528,0.2552112340927124,246.48980712890625,246.9831085205078,246.7006072998047,61000,5.705312252044678,6.250260353088379,236.5537109375,236.0647430419922,10.188209533691406,9.982138633728027,2.037642002105713,1.9964276552200317,247.22329711914062,247.64321899414062,245.70664978027344,246.1528778076172,0.0,0.0,1515.0319,569.4,0.47173760251114255,23.61595129966736,6.4373016357421875e-06,23.615957736968994
61,2.894120693206787,-255.8270263671875,4.404409408569336,4.303816795349121,-0.14481385052204132,0.25468552112579346,256.7160949707031,256.3656005859375,255.80609130859375,62000,5.733705520629883,6.250918388366699,246.8503875732422,245.466064453125,9.223021507263184,9.262157440185547,1.844604253768921,1.8524315357208252,257.38214111328125,256.9883728027344,256.0209045410156,255.6129150390625,0.0,0.0,1515.0319,569.4,0.47173760251114255,19.48005485534668,5.7220458984375e-06,19.480060577392578
62,2.9949793815612793,-256.9096984863281,4.593855857849121,4.656739234924316,-0.006840251386165619,0.25604963302612305,257.2622375488281,257.769287109375,257.934814453125,63000,5.715764045715332,6.165159225463867,247.46829223632812,247.10728454589844,10.407590866088867,10.155115127563477,2.0815181732177734,2.0310230255126953,258.0642395019531,258.5055847167969,256.6398620605469,257.0264587402344,0.0,0.0,1515.0319,569.4,0.47173760251114255,19.421127319335938,1.1205673217773438e-05,19.421138525009155
63,2.8997156620025635,-250.719970703125,4.993293762207031,4.723162651062012,-0.13685762882232666,0.25545814633369446,251.32693481445312,251.36962890625,253.31231689453125,64000,5.5895209312438965,5.834264755249023,241.8124542236328,241.3699188232422,10.611795425415039,10.286736488342285,2.122359037399292,2.057347297668457,252.01866149902344,252.0652313232422,250.66929626464844,250.6378631591797,0.0,0.0,1515.0319,569.4,0.47173760251114255,20.220030307769775,5.7220458984375e-06,20.220036029815674
64,2.9242396354675293,-248.15704345703125,4.292812347412109,4.368452548980713,-0.1028720885515213,0.25721031427383423,249.0148468017578,248.77964782714844,247.96728515625,65000,5.696917533874512,5.894468307495117,239.14402770996094,238.5846710205078,9.742094039916992,10.247063636779785,1.9484187364578247,2.049412727355957,249.66921997070312,249.3970184326172,248.25454711914062,248.01060485839844,0.0,0.0,1515.0319,569.4,0.47173760251114255,19.80505108833313,5.9604644775390625e-06,19.805057048797607
65,2.9050495624542236,-258.6734619140625,6.430375576019287,5.921266078948975,-0.12998785078525543,0.25435930490493774,259.44219970703125,259.1061706542969,259.91839599609375,66000,5.513180732727051,5.794983863830566,250.0464324951172,249.13943481445312,10.486688613891602,10.414172172546387,2.0973377227783203,2.082834482192993,260.1989440917969,259.7430725097656,258.5691833496094,258.1923522949219,0.0,0.0,1515.0319,569.4,0.47173760251114255,21.2053701877594,9.5367431640625e-06,21.205379724502563
66,2.788848876953125,-254.3778839111328,4.491387367248535,3.852257251739502,-0.28748658299446106,0.25627100467681885,255.02130126953125,255.1566162109375,255.10055541992188,67000,5.736862659454346,6.062415599822998,244.941650390625,244.53897094726562,9.429732322692871,9.587382316589355,1.88594651222229,1.9174764156341553,255.6562042236328,255.7846221923828,254.2563934326172,254.3292694091797,0.0,0.0,1515.0319,569.4,0.47173760251114255,20.92109727859497,6.4373016357421875e-06,20.921103715896606
67,2.7762396335601807,-261.4422912597656,5.042501449584961,4.8195295333862305,-0.30249711871147156,0.2587534785270691,262.017822265625,262.253173828125,262.1646728515625,68000,5.670452117919922,5.95146369934082,252.19566345214844,251.9442901611328,9.792905807495117,9.933283805847168,1.9585810899734497,1.9866567850112915,262.620849609375,262.9245300292969,261.16168212890625,261.29150390625,0.0,0.0,1515.0319,569.4,0.47173760251114255,19.8527410030365,5.7220458984375e-06,19.852746725082397
68,2.8380305767059326,-255.816650390625,5.019272804260254,4.909085273742676,-0.2210768312215805,0.25539863109588623,256.23834228515625,256.82489013671875,255.915771484375,69000,5.5205979347229,6.081132888793945,246.70787048339844,246.2309112548828,10.171923637390137,9.879655838012695,2.0343847274780273,1.975931167602539,256.89013671875,257.41473388671875,255.4456329345703,255.873291015625,0.0,0.0,1515.0319,569.4,0.47173760251114255,22.085122108459473,5.9604644775390625e-06,22.08512806892395
69,3.1927762031555176,-247.46646118164062,4.510533332824707,4.64883279800415,0.26227855682373047,0.2565237283706665,248.3250274658203,247.98680114746094,248.36920166015625,70000,5.7926106452941895,6.210606575012207,238.11196899414062,237.0862274169922,8.80871868133545,9.063738822937012,1.7617437839508057,1.8127477169036865,249.037109375,248.6428680419922,247.35440063476562,247.0742645263672,0.0,0.0,1742.973,586.8,0.5417748406512423,19.78057289123535,3.833493232727051,23.614066123962402
70,3.1814889907836914,-255.9978790283203,5.155810356140137,5.023916244506836,0.24712800979614258,0.2562323212623596,256.7632141113281,256.5696105957031,257.1214599609375,71000,5.863348484039307,6.2125396728515625,246.62527465820312,245.6339874267578,9.586338996887207,9.216850280761719,1.9172677993774414,1.843369960784912,257.5532531738281,257.2190856933594,256.1813659667969,255.7565155029297,0.0,0.0,1742.973,586.8,0.5417748406512423,22.438983917236328,6.4373016357421875e-06,22.438990354537964
71,3.285686731338501,-253.7734375,4.367135524749756,4.949640274047852,0.38750770688056946,0.25758448243141174,254.48324584960938,254.5314178466797,255.4251251220703,72000,5.9504570960998535,6.425686359405518,243.9496612548828,243.15576171875,8.693329811096191,8.593720436096191,1.7386659383773804,1.7187440395355225,255.16368103027344,255.1725311279297,253.6433563232422,253.72496032714844,0.0,0.0,1742.973,586.8,0.5417748406512423,21.431641817092896,6.198883056640625e-06,21.431648015975952
72,2.8889241218566895,-254.52685546875,4.672119140625,3.6866543292999268,-0.15037229657173157,0.2582620680332184,255.2489013671875,255.2600860595703,256.57794189453125,73000,5.782575607299805,6.276432991027832,245.1593780517578,244.30772399902344,9.788899421691895,9.907672882080078,1.957779884338379,1.981534481048584,255.8450927734375,255.8816375732422,254.387451171875,254.3426513671875,0.0,0.0,1742.973,586.8,0.5417748406512423,22.65231156349182,5.9604644775390625e-06,22.6523175239563
73,2.9980101585388184,-250.3031768798828,5.756781578063965,6.22523307800293,-0.0027016252279281616,0.257254034280777,251.12391662597656,250.9709930419922,251.2610626220703,74000,5.505397796630859,6.036584377288818,241.4432373046875,240.35264587402344,9.076526641845703,8.955228805541992,1.8153053522109985,1.7910456657409668,251.7331085205078,251.5485382080078,250.12625122070312,249.99819946289062,0.0,0.0,1742.973,586.8,0.5417748406512423,19.17996835708618,5.9604644775390625e-06,19.17997431755066
74,2.980619192123413,-245.86053466796875,3.571829319000244,3.8259940147399902,-0.02610759437084198,0.25999563932418823,246.59774780273438,246.57855224609375,247.7720947265625,75000,5.767953872680664,5.969686508178711,236.3762664794922,235.9379425048828,8.986572265625,9.107428550720215,1.7973144054412842,1.8214857578277588,247.15513610839844,247.10142517089844,245.74363708496094,245.7101593017578,0.0,0.0,1742.973,586.8,0.5417748406512423,19.52407455444336,5.7220458984375e-06,19.524080276489258
75,2.978849411010742,-249.81153869628906,4.355785369873047,4.632935047149658,-0.02859988436102867,0.25867000222206116,250.99176025390625,250.4036102294922,254.57669067382812,76000,5.858724117279053,6.346245765686035,240.59495544433594,239.2133026123047,8.594572067260742,9.009196281433105,1.7189143896102905,1.8018392324447632,251.5330352783203,250.9498748779297,250.114501953125,249.52700805664062,0.0,0.0,1742.973,586.8,0.5417748406512423,20.618611335754395,6.198883056640625e-06,20.61861753463745
76,2.9390735626220703,-249.70700073242188,3.4040470123291016,3.16445255279541,-0.08249465376138687,0.25820401310920715,250.2296600341797,250.65020751953125,249.9469451904297,77000,5.588992118835449,5.994238376617432,240.3594207763672,239.9469451904297,9.440566062927246,9.051356315612793,1.888113260269165,1.8102712631225586,250.7643585205078,251.11279296875,249.35708618164062,249.704833984375,0.0,0.0,1742.973,586.8,0.5417748406512423,22.369887590408325,6.198883056640625e-06,22.369893789291382
77,3.0628714561462402,-246.21661376953125,4.084002494812012,3.9128665924072266,0.08490744233131409,0.25911325216293335,247.065185546875,246.76373291015625,248.28369140625,78000,5.778611183166504,6.111013412475586,236.9189910888672,236.00852966308594,8.963676452636719,9.13032341003418,1.79273521900177,1.8260645866394043,247.7261505126953,247.4030303955078,246.0928955078125,245.74583435058594,0.0,0.0,1742.973,586.8,0.5417748406512423,19.588773250579834,5.4836273193359375e-06,19.588778734207153
78,3.002143144607544,-241.14511108398438,5.9846954345703125,5.0975141525268555,0.0028960034251213074,0.258907675743103,242.18515014648438,241.63140869140625,242.13320922851562,79000,5.705031394958496,6.020334720611572,232.1706085205078,231.0961456298828,9.338526725769043,9.751792907714844,1.8677053451538086,1.9503586292266846,242.7605438232422,242.2454071044922,241.0633087158203,240.3510284423828,0.0,0.0,1742.973,586.8,0.5417748406512423,21.074763774871826,8.106231689453125e-06,21.074771881103516
79,2.976947784423828,-258.984619140625,4.4323015213012695,4.887526512145996,-0.03128635883331299,0.2573844790458679,259.7720642089844,259.72161865234375,258.9657287597656,80000,5.390267372131348,5.914624214172363,250.31211853027344,249.33596801757812,9.419244766235352,9.54712963104248,1.8838489055633545,1.909425973892212,260.34210205078125,260.3329162597656,258.8274841308594,258.6721496582031,0.0,0.0,1582.2034,519.0,0.4923767615594194,21.13570761680603,4.157147169113159,25.29285478591919
80,2.945253372192383,-241.69830322265625,4.132198333740234,4.663949012756348,-0.07392919063568115,0.2591385543346405,242.29351806640625,242.39718627929688,242.043701171875,81000,5.661699295043945,6.037693977355957,232.6410675048828,231.94761657714844,10.670851707458496,10.039277076721191,2.1341702938079834,2.0078554153442383,243.0154571533203,243.0673370361328,241.60205078125,241.63528442382812,0.0,0.0,1582.2034,519.0,0.4923767615594194,22.034752130508423,5.9604644775390625e-06,22.0347580909729
81,2.7928614616394043,-250.4814453125,3.4468748569488525,3.894106388092041,-0.28042155504226685,0.2582603096961975,251.1949462890625,251.0270538330078,252.919677734375,82000,5.412227630615234,5.755163669586182,241.94908142089844,241.0874481201172,9.885015487670898,9.766149520874023,1.9770030975341797,1.9532299041748047,251.8794403076172,251.63369750976562,250.61441040039062,250.2388153076172,0.0,0.0,1582.2034,519.0,0.4923767615594194,20.077922105789185,7.3909759521484375e-06,20.077929496765137
82,3.0582947731018066,-249.37197875976562,3.2795684337615967,3.4249277114868164,0.07883821427822113,0.25861620903015137,250.08619689941406,250.15789794921875,249.29039001464844,83000,5.5702948570251465,6.01611328125,240.2260284423828,239.58120727539062,8.765257835388184,9.033968925476074,1.753051519393921,1.8067938089370728,250.60037231445312,250.78515625,249.35928344726562,249.37353515625,0.0,0.0,1582.2034,519.0,0.4923767615594194,21.39416480064392,6.198883056640625e-06,21.394170999526978
83,3.0632381439208984,-248.29649353027344,2.9375011920928955,3.60565447807312,0.08488038182258606,0.2612607479095459,249.24493408203125,249.103759765625,249.45697021484375,84000,5.9381914138793945,6.490191459655762,238.62046813964844,237.4917449951172,8.558436393737793,8.5872220993042,1.7116873264312744,1.7174444198608398,249.7313232421875,249.5916290283203,248.2543487548828,248.0610809326172,0.0,0.0,1582.2034,519.0,0.4923767615594194,21.581103563308716,5.9604644775390625e-06,21.581109523773193
84,2.6789965629577637,-239.05862426757812,3.3950817584991455,4.117995262145996,-0.43015119433403015,0.26184046268463135,239.46926879882812,240.18331909179688,238.967041015625,85000,5.44831657409668,5.863508224487305,229.87173461914062,229.7491912841797,9.580972671508789,9.160634994506836,1.9161944389343262,1.8321269750595093,239.9866943359375,240.5828399658203,238.70068359375,239.22647094726562,0.0,0.0,1582.2034,519.0,0.4923767615594194,20.31768035888672,5.9604644775390625e-06,20.317686319351196
85,2.7665810585021973,-243.46165466308594,4.148717403411865,3.605210542678833,-0.313271164894104,0.26129695773124695,244.46803283691406,244.11622619628906,244.3195343017578,86000,5.421297073364258,5.788172721862793,234.99400329589844,233.90957641601562,10.009601593017578,9.855818748474121,2.001920223236084,1.9711637496948242,245.0212860107422,244.60305786132812,243.68191528320312,243.268310546875,0.0,0.0,1582.2034,519.0,0.4923767615594194,20.506827116012573,9.298324584960938e-06,20.506836414337158
86,3.197772979736328,-256.28387451171875,4.547758102416992,4.630838871002197,0.2661508619785309,0.2603467106819153,257.0203857421875,256.8159484863281,256.1083984375,87000,5.82928466796875,6.283841609954834,246.8803253173828,245.8402862548828,10.100175857543945,10.041936874389648,2.0200352668762207,2.008387327194214,257.73883056640625,257.5543518066406,256.2623596191406,256.1085510253906,0.0,0.0,1582.2034,519.0,0.4923767615594194,19.53316378593445,6.198883056640625e-06,19.533169984817505
87,2.9557621479034424,-253.74044799804688,4.24769401550293,3.777625560760498,-0.05903835594654083,0.26327192783355713,254.30654907226562,254.46302795410156,254.69894409179688,88000,5.73306941986084,6.223188877105713,244.407958984375,243.6500701904297,10.275686264038086,10.420226097106934,2.0551371574401855,2.084045171737671,255.04031372070312,255.15757751464844,253.71788024902344,253.8967742919922,0.0,0.0,1582.2034,519.0,0.4923767615594194,19.786150217056274,6.4373016357421875e-06,19.78615665435791
88,3.312333106994629,-255.57505798339844,5.837419509887695,5.00241756439209,0.4192497730255127,0.2612399458885193,256.2810363769531,256.3478088378906,256.637451171875,89000,5.74266242980957,6.125047206878662,246.16616821289062,245.4978790283203,8.091035842895508,8.163579940795898,1.6182070970535278,1.6327159404754639,256.9716491699219,257.0027770996094,255.325439453125,255.32568359375,0.0,0.0,1582.2034,519.0,0.4923767615594194,20.524839401245117,7.3909759521484375e-06,20.52484679222107
89,3.1779544353485107,-238.81021118164062,4.498636245727539,3.4912362098693848,0.23817065358161926,0.2622699737548828,239.55145263671875,239.47262573242188,240.1927490234375,90000,5.5146989822387695,5.888648986816406,229.91259765625,229.09959411621094,9.1409912109375,8.924890518188477,1.8281981945037842,1.7849781513214111,240.2012939453125,240.08494567871094,238.5783233642578,238.40811157226562,0.0,0.0,241.1127,90.4,0.08031316630941629,19.672428131103516,0.5996270179748535,20.27205514907837
90,3.0166707038879395,-260.7654724121094,4.247901916503906,4.09011173248291,0.02234642580151558,0.2617246210575104,261.5932312011719,261.23797607421875,260.7497863769531,91000,5.84383487701416,6.305938720703125,251.3486785888672,250.18228149414062,9.340590476989746,9.522236824035645,1.8681180477142334,1.904447317123413,262.2257385253906,261.874267578125,260.88580322265625,260.411376953125,0.0,0.0,241.1127,90.4,0.08031316630941629,22.51142454147339,6.198883056640625e-06,22.511430740356445
91,2.9427175521850586,-250.1499786376953,3.1891636848449707,3.259547472000122,-0.07660962641239166,0.2625257968902588,250.77871704101562,251.08221435546875,250.3426055908203,92000,5.767988681793213,6.2444868087768555,240.5858917236328,240.15513610839844,8.927486419677734,9.072406768798828,1.7854973077774048,1.814481258392334,251.33836364746094,251.65867614746094,249.9036102294922,250.27310180664062,0.0,0.0,241.1127,90.4,0.08031316630941629,19.568939685821533,5.7220458984375e-06,19.56894540786743
92,3.1767027378082275,-243.60044860839844,3.219240665435791,3.1795907020568848,0.23690199851989746,0.2616676688194275,244.60055541992188,244.37557983398438,244.57484436035156,93000,5.4575324058532715,5.8651814460754395,234.99563598632812,233.97203063964844,8.977304458618164,9.037269592285156,1.7954609394073486,1.8074538707733154,245.0990753173828,244.83511352539062,243.5969696044922,243.3152618408203,0.0,0.0,241.1127,90.4,0.08031316630941629,19.848958253860474,6.67572021484375e-06,19.84896492958069
93,3.136892795562744,-248.9913787841797,3.2584095001220703,3.6529839038848877,0.18367928266525269,0.26138192415237427,249.96136474609375,249.59805297851562,249.0202178955078,94000,5.889455318450928,6.110689163208008,239.57156372070312,238.75645446777344,8.86457633972168,8.635798454284668,1.7729153633117676,1.7271597385406494,250.6423797607422,250.22854614257812,249.2482147216797,248.73623657226562,0.0,0.0,241.1127,90.4,0.08031316630941629,20.611409425735474,5.9604644775390625e-06,20.61141538619995
94,2.904245376586914,-260.57904052734375,5.905534744262695,4.521389484405518,-0.12760335206985474,0.26378878951072693,261.39019775390625,261.25286865234375,260.188232421875,95000,5.7139787673950195,6.137557506561279,251.3298797607422,250.4019012451172,9.398275375366211,9.567024230957031,1.879655122756958,1.913404941558838,262.0405578613281,261.8448181152344,260.4308166503906,260.276611328125,0.0,0.0,241.1127,90.4,0.08031316630941629,21.63254404067993,6.198883056640625e-06,21.63255023956299
95,3.020015239715576,-248.49209594726562,3.3113160133361816,3.554819107055664,0.02669619396328926,0.2634754776954651,249.10028076171875,249.04269409179688,248.47950744628906,96000,5.8819146156311035,6.286038398742676,238.8936004638672,238.1169891357422,9.502029418945312,9.964591979980469,1.9004058837890625,1.9929184913635254,249.82470703125,249.7832794189453,248.37339782714844,248.2659912109375,0.0,0.0,241.1127,90.4,0.08031316630941629,20.01943278312683,6.198883056640625e-06,20.019438982009888
96,3.0498108863830566,-252.43191528320312,6.448232173919678,7.241940498352051,0.06665518879890442,0.26232752203941345,253.32949829101562,252.9550018310547,252.1981201171875,97000,5.694828033447266,6.157506942749023,243.3874053955078,242.0500030517578,8.94005298614502,8.662848472595215,1.788010597229004,1.732569694519043,254.0180206298828,253.543212890625,252.5044708251953,251.91348266601562,0.0,0.0,241.1127,90.4,0.08031316630941629,19.756181478500366,6.9141387939453125e-06,19.75618839263916
97,3.1992135047912598,-255.44247436523438,3.32255482673645,3.386122226715088,0.26698037981987,0.26180094480514526,256.30682373046875,256.01220703125,255.75636291503906,98000,5.838156223297119,6.2131266593933105,246.0548858642578,245.0292205810547,9.038471221923828,9.080423355102539,1.8076941967010498,1.816084623336792,257.0094909667969,256.6798400878906,255.4322967529297,255.08946228027344,0.0,0.0,241.1127,90.4,0.08031316630941629,22.94363570213318,6.198883056640625e-06,22.943641901016235
98,2.8901100158691406,-255.49185180664062,4.2072434425354,3.8950729370117188,-0.14721591770648956,0.2619333565235138,256.2392578125,256.0072021484375,254.98309326171875,99000,5.590872764587402,6.046102046966553,246.4794921875,245.38011169433594,10.456298828125,10.236907005310059,2.091259717941284,2.0473814010620117,256.9145202636719,256.6004333496094,255.6612091064453,255.322021484375,0.0,0.0,241.1127,90.4,0.08031316630941629,22.08441138267517,5.9604644775390625e-06,22.08441734313965
99,3.043119192123413,-242.44581604003906,3.4017605781555176,3.6140379905700684,0.05760349705815315,0.2629190683364868,243.35232543945312,242.88873291015625,243.2474365234375,100000,5.524887561798096,5.610834121704102,233.8062286376953,233.12356567382812,9.578125953674316,9.625744819641113,1.9156252145767212,1.9251489639282227,244.0220489501953,243.47802734375,242.7222900390625,242.200927734375,0.0,0.0,1142.5587,368.6,0.3572914925318428,19.633185625076294,2.431872844696045,22.06505846977234
100,2.905210018157959,-243.75254821777344,3.7635998725891113,3.849252223968506,-0.12626135349273682,0.26394492387771606,244.34149169921875,244.3070068359375,243.35659790039062,101000,5.481968879699707,5.882668495178223,234.79556274414062,234.0345916748047,9.627025604248047,9.44875431060791,1.9254051446914673,1.8897508382797241,245.0461883544922,244.99217224121094,243.66831970214844,243.552978515625,0.0,0.0,1142.5587,368.6,0.3572914925318428,21.169602632522583,6.4373016357421875e-06,21.16960906982422
101,3.27750825881958,-250.27337646484375,3.8037848472595215,3.327754497528076,0.3682009279727936,0.265322208404541,251.07083129882812,250.96682739257812,252.47952270507812,102000,5.760257244110107,6.251569747924805,240.9213104248047,239.82554626464844,9.350750923156738,8.829557418823242,1.8701502084732056,1.76591157913208,251.67686462402344,251.48989868164062,250.317138671875,249.96702575683594,0.0,0.0,1142.5587,368.6,0.3572914925318428,21.83291721343994,7.152557373046875e-06,21.832924365997314
102,3.0424141883850098,-242.94900512695312,3.806102752685547,4.371983528137207,0.056377530097961426,0.2646848261356354,244.00856018066406,243.63613891601562,243.66961669921875,103000,5.324982643127441,5.732851028442383,234.62913513183594,233.40798950195312,8.751011848449707,8.668795585632324,1.7502024173736572,1.7337591648101807,244.5315399169922,244.0596923828125,243.0720977783203,242.5895538330078,0.0,0.0,1142.5587,368.6,0.3572914925318428,19.431123733520508,5.9604644775390625e-06,19.431129693984985
103,3.003946304321289,-250.32907104492188,4.76508092880249,4.12872314453125,0.005221463739871979,0.26630347967147827,250.94674682617188,250.97760009765625,250.65472412109375,104000,5.619053840637207,5.907240390777588,241.1552734375,240.67173767089844,9.931131362915039,10.212349891662598,1.9862263202667236,2.0424699783325195,251.6947784423828,251.68675231933594,250.2286834716797,250.33535766601562,0.0,0.0,1142.5587,368.6,0.3572914925318428,19.619234800338745,6.198883056640625e-06,19.6192409992218
104,3.022047281265259,-247.3964080810547,4.8747992515563965,4.0102128982543945,0.029154352843761444,0.26650458574295044,247.92930603027344,248.42202758789062,249.62847900390625,105000,5.453070640563965,5.734126091003418,238.4284210205078,238.3271942138672,9.847593307495117,9.817046165466309,1.9695186614990234,1.9634093046188354,248.43565368652344,248.9049835205078,247.0008544921875,247.43638610839844,0.0,0.0,1142.5587,368.6,0.3572914925318428,20.98087215423584,6.198883056640625e-06,20.980878353118896
105,2.907637119293213,-240.40899658203125,4.83860969543457,4.422442436218262,-0.12271249294281006,0.2648507058620453,241.3124237060547,241.11129760742188,240.13418579101562,106000,5.582941055297852,5.898386001586914,231.4490509033203,230.62657165527344,9.559121131896973,9.545832633972168,1.9118242263793945,1.9091665744781494,241.899169921875,241.6205596923828,240.2463836669922,240.06204223632812,0.0,0.0,1142.5587,368.6,0.3572914925318428,19.586378812789917,6.198883056640625e-06,19.586385011672974
106,2.8020548820495605,-248.51315307617188,3.17378568649292,3.056572437286377,-0.2610650658607483,0.2674359083175659,248.96612548828125,249.44656372070312,248.66250610351562,107000,6.068212985992432,6.326528549194336,238.3957977294922,238.33938598632812,9.599063873291016,9.799629211425781,1.9198126792907715,1.959925889968872,249.6721649169922,250.1076202392578,248.0873565673828,248.5206298828125,0.0,0.0,1142.5587,368.6,0.3572914925318428,20.96894073486328,6.4373016357421875e-06,20.968947172164917
107,2.8015875816345215,-252.6566925048828,3.121532678604126,3.0358943939208984,-0.26164114475250244,0.26748961210250854,253.28404235839844,253.1713104248047,253.27374267578125,108000,5.4511919021606445,5.993668556213379,243.80381774902344,242.77029418945312,10.128746032714844,10.092954635620117,2.0257492065429688,2.0185909271240234,253.92764282226562,253.83740234375,252.6711883544922,252.50161743164062,0.0,0.0,1142.5587,368.6,0.3572914925318428,20.828160047531128,6.198883056640625e-06,20.828166246414185
108,2.9264392852783203,-255.17633056640625,3.4189629554748535,3.380614757537842,-0.09741669148206711,0.2659872770309448,256.25634765625,255.66712951660156,255.25929260253906,109000,5.862386703491211,6.247217655181885,245.9500274658203,244.62583923339844,8.934103012084961,8.596673011779785,1.786820650100708,1.719334602355957,256.92181396484375,256.2652587890625,255.285400390625,254.64048767089844,0.0,0.0,1142.5587,368.6,0.3572914925318428,20.978121519088745,6.198883056640625e-06,20.9781277179718
109,3.0507266521453857,-244.64862060546875,4.020977973937988,4.1895904541015625,0.06702040135860443,0.26681315898895264,245.444091796875,245.34291076660156,245.12539672851562,110000,5.78164005279541,5.955708026885986,235.4640655517578,234.8711395263672,9.824773788452148,9.382461547851562,1.9649547338485718,1.8764922618865967,246.16055297851562,245.90185546875,244.607666015625,244.3180694580078,0.0,0.0,1147.0477,366.4,0.35867080203223506,20.83993649482727,2.4073269367218018,23.247263431549072
110,2.856534481048584,-248.09193420410156,4.374281883239746,4.66530704498291,-0.18896320462226868,0.2679020166397095,248.86752319335938,248.6630859375,247.76882934570312,111000,5.657103061676025,6.002843856811523,238.9707794189453,238.2038116455078,9.855260848999023,10.16720962524414,1.9710521697998047,2.0334420204162598,249.4961395263672,249.3009033203125,248.0771942138672,247.75039672851562,0.0,0.0,1147.0477,366.4,0.35867080203223506,22.37856888771057,5.9604644775390625e-06,22.37857484817505
111,2.984689950942993,-251.21945190429688,3.985769271850586,3.9477243423461914,-0.020135648548603058,0.2684214115142822,252.359619140625,251.54832458496094,252.19415283203125,112000,5.799506187438965,6.257007122039795,242.145263671875,240.6205596923828,9.27696704864502,9.741744041442871,1.855393409729004,1.948348879814148,252.9380340576172,252.20205688476562,251.378173828125,250.6412353515625,0.0,0.0,1147.0477,366.4,0.35867080203223506,20.585976123809814,5.9604644775390625e-06,20.585982084274292
112,2.985572338104248,-251.61236572265625,3.359940767288208,3.2429585456848145,-0.01910451054573059,0.26602572202682495,252.36325073242188,252.16061401367188,252.01268005371094,113000,5.589797019958496,6.0553059577941895,242.6697235107422,241.6083526611328,9.207491874694824,9.469003677368164,1.8414983749389648,1.8938007354736328,253.1316375732422,252.8980255126953,251.81016540527344,251.5124053955078,0.0,0.0,1147.0477,366.4,0.35867080203223506,19.589494705200195,5.7220458984375e-06,19.589500427246094
113,3.1206984519958496,-248.7857666015625,3.439143657684326,2.978419780731201,0.15864989161491394,0.26862719655036926,249.60740661621094,249.56614685058594,248.66680908203125,114000,6.088881015777588,6.420620918273926,238.78945922851562,238.11839294433594,8.340011596679688,8.252498626708984,1.6680023670196533,1.6504998207092285,250.1126251220703,250.0360565185547,248.73843383789062,248.549560546875,0.0,0.0,1147.0477,366.4,0.35867080203223506,22.107001304626465,5.9604644775390625e-06,22.107007265090942
114,2.900317668914795,-245.8286895751953,4.736690521240234,4.3219709396362305,-0.13100942969322205,0.26867035031318665,246.7196807861328,246.38430786132812,246.98016357421875,115000,5.454172134399414,5.944094181060791,237.1996612548828,236.086669921875,9.263704299926758,9.52828311920166,1.85274076461792,1.9056565761566162,247.33091735839844,247.00552368164062,245.87828063964844,245.466064453125,0.0,0.0,1147.0477,366.4,0.35867080203223506,20.022326707839966,5.9604644775390625e-06,20.022332668304443
115,2.961303949356079,-242.23782348632812,3.384195327758789,3.996034622192383,-0.05078843608498573,0.26914694905281067,242.9753875732422,243.27468872070312,244.95291137695312,116000,5.978323459625244,6.15153694152832,232.37841796875,232.42466735839844,8.508493423461914,8.944916725158691,1.7016987800598145,1.7889833450317383,243.5472869873047,243.8329620361328,241.837890625,242.1853485107422,0.0,0.0,1147.0477,366.4,0.35867080203223506,19.477818965911865,5.7220458984375e-06,19.477824687957764
116,3.200070381164551,-234.39378356933594,3.6554582118988037,3.517625331878662,0.26115232706069946,0.27109068632125854,235.25738525390625,235.140380859375,237.50242614746094,117000,5.809667110443115,6.139519691467285,224.92710876464844,224.27891540527344,8.04935359954834,8.73918342590332,1.6098707914352417,1.7478365898132324,235.7841339111328,235.6981964111328,234.1262664794922,233.9871826171875,0.0,0.0,1147.0477,366.4,0.35867080203223506,19.863728284835815,8.344650268554688e-06,19.863736629486084
117,3.021515369415283,-242.0426788330078,3.6052961349487305,5.377582550048828,0.02794092893600464,0.27290016412734985,242.77822875976562,242.92025756835938,242.3531494140625,118000,5.92726993560791,6.124242305755615,232.3623046875,232.18907165527344,9.057183265686035,9.498899459838867,1.811436653137207,1.8997797966003418,243.3682403564453,243.52012634277344,241.93008422851562,242.04502868652344,0.0,0.0,1147.0477,366.4,0.35867080203223506,20.382261753082275,7.867813110351562e-06,20.382269620895386
118,2.9194343090057373,-247.68753051757812,2.995835304260254,2.8412017822265625,-0.1049928367137909,0.2716623842716217,248.31301879882812,248.6478729248047,247.83998107910156,119000,5.517443656921387,5.805119514465332,238.7009735107422,238.47032165527344,9.642354965209961,9.422432899475098,1.9284709692001343,1.8844865560531616,248.9208221435547,249.2293701171875,247.5399627685547,247.74658203125,0.0,0.0,1147.0477,366.4,0.35867080203223506,19.779853343963623,6.198883056640625e-06,19.77985954284668
119,3.0505998134613037,-250.56834411621094,3.8858370780944824,4.514232158660889,0.06603885442018509,0.2711409330368042,251.19398498535156,251.32327270507812,250.0854949951172,120000,5.769813537597656,6.171057224273682,241.05821228027344,240.3626251220703,9.786609649658203,9.302181243896484,1.9573218822479248,1.860436201095581,251.8436737060547,251.88267517089844,250.22825622558594,250.1739501953125,0.0,0.0,1126.6035,362.0,0.3523891196674842,19.186330556869507,2.3314216136932373,21.517752170562744
120,3.2739439010620117,-251.54942321777344,3.8091917037963867,4.120024681091309,0.3590022325515747,0.26968660950660706,252.4761962890625,252.07586669921875,254.15835571289062,121000,5.875872611999512,6.41359806060791,242.1401824951172,240.8257293701172,8.504258155822754,8.724627494812012,1.7008516788482666,1.7449254989624023,253.1138458251953,252.748291015625,251.25376892089844,250.8964385986328,0.0,0.0,1126.6035,362.0,0.3523891196674842,19.64469313621521,5.7220458984375e-06,19.64469885826111
121,2.8892722129821777,-242.12814331054688,3.976250410079956,3.6797924041748047,-0.14441031217575073,0.27139243483543396,242.62356567382812,242.5847930908203,241.8643798828125,122000,5.639922618865967,5.96951150894165,232.93321228027344,232.26089477539062,10.522232055664062,10.351524353027344,2.1044464111328125,2.0703048706054688,243.391845703125,243.3381805419922,242.0666046142578,241.84326171875,0.0,0.0,1126.6035,362.0,0.3523891196674842,22.69130539894104,5.9604644775390625e-06,22.691311359405518
122,3.2224764823913574,-247.0386962890625,3.798363208770752,4.050395965576172,0.2896449565887451,0.2720111310482025,247.60690307617188,248.06338500976562,246.88108825683594,123000,5.923996448516846,6.330052375793457,237.2030792236328,236.8796844482422,8.5482177734375,8.459206581115723,1.7096436023712158,1.6918413639068604,248.193359375,248.67271423339844,246.779541015625,247.15771484375,0.0,0.0,1126.6035,362.0,0.3523891196674842,19.90178155899048,8.821487426757812e-06,19.901790380477905
123,2.9540348052978516,-242.96302795410156,3.961660861968994,4.341586589813232,-0.06008362025022507,0.270589679479599,243.65518188476562,244.25515747070312,244.2725830078125,124000,5.769330978393555,6.026050090789795,233.3678741455078,233.58897399902344,8.580476760864258,9.318058013916016,1.7160953283309937,1.8636115789413452,244.10293579101562,244.8546142578125,242.66014099121094,243.38096618652344,0.0,0.0,1126.6035,362.0,0.3523891196674842,21.39177370071411,6.9141387939453125e-06,21.391780614852905
124,3.163999319076538,-245.99652099609375,3.725637435913086,3.635408401489258,0.2126932144165039,0.27337345480918884,246.82083129882812,246.9407958984375,248.065185546875,125000,5.805617809295654,6.128229141235352,236.5813446044922,235.989990234375,8.86359691619873,8.593124389648438,1.772719383239746,1.7186249494552612,247.38113403320312,247.40025329589844,245.9018096923828,245.8556671142578,0.0,0.0,1126.6035,362.0,0.3523891196674842,20.499326467514038,5.7220458984375e-06,20.499332189559937
125,3.110243082046509,-245.49905395507812,3.7365832328796387,2.7377853393554688,0.1430971920490265,0.273073673248291,246.10061645507812,246.32455444335938,247.8187255859375,126000,5.86555290222168,6.001611709594727,235.79429626464844,235.7380828857422,9.49075698852539,9.450674057006836,1.8981513977050781,1.8901348114013672,246.6910400390625,246.8743896484375,245.07958984375,245.35757446289062,0.0,0.0,1126.6035,362.0,0.3523891196674842,20.99467635154724,6.198883056640625e-06,20.994682550430298
126,2.9895710945129395,-239.08424377441406,5.177488327026367,4.571864604949951,-0.013565029948949814,0.272335022687912,239.95001220703125,239.83099365234375,241.7967071533203,127000,5.801669597625732,6.102444171905518,229.80557250976562,229.13243103027344,8.982858657836914,9.08358383178711,1.7965717315673828,1.8167166709899902,240.61241149902344,240.48936462402344,239.02110290527344,238.8762664794922,0.0,0.0,1126.6035,362.0,0.3523891196674842,20.197638273239136,5.9604644775390625e-06,20.197644233703613
127,2.5690865516662598,-254.00244140625,3.8912453651428223,4.132381439208984,-0.5578016042709351,0.27404487133026123,254.85382080078125,254.71946716308594,254.45123291015625,128000,5.597444534301758,5.786627769470215,245.1374053955078,244.61827087402344,9.824958801269531,10.0016450881958,1.964991807937622,2.00032901763916,255.41738891601562,255.27090454101562,253.81704711914062,253.69204711914062,0.0,0.0,1126.6035,362.0,0.3523891196674842,19.990201234817505,6.198883056640625e-06,19.99020743370056
128,2.9325919151306152,-243.9924774169922,4.039972305297852,4.418842315673828,-0.08761058002710342,0.2726123034954071,244.8912353515625,244.7873077392578,246.44876098632812,129000,6.006285667419434,6.313302993774414,234.2439422607422,233.5016632080078,8.255807876586914,8.042366027832031,1.6511616706848145,1.6084731817245483,245.47232055664062,245.3298797607422,243.8914794921875,243.72598266601562,0.0,0.0,1126.6035,362.0,0.3523891196674842,21.24445867538452,7.3909759521484375e-06,21.244466066360474
129,2.9456796646118164,-239.37818908691406,4.081212043762207,3.722975015640259,-0.07071021944284439,0.2720613479614258,240.20713806152344,239.78233337402344,239.54371643066406,130000,5.732983112335205,5.967034816741943,230.15542602539062,229.3998565673828,9.037273406982422,9.440361022949219,1.8074547052383423,1.8880722522735596,240.89773559570312,240.5732421875,239.42080688476562,239.02915954589844,0.0,0.0,1119.2174,359.4,0.35011964123885086,20.97977375984192,2.351559638977051,23.33133339881897
130,2.966632604598999,-250.42282104492188,2.7665843963623047,2.393096446990967,-0.043145522475242615,0.27443379163742065,251.40618896484375,251.14968872070312,251.26565551757812,131000,5.88893985748291,6.097765922546387,240.92288208007812,240.2493133544922,8.89065933227539,8.822518348693848,1.7781319618225098,1.7645037174224854,251.9302215576172,251.6349639892578,250.408203125,250.06558227539062,0.0,0.0,1119.2174,359.4,0.35011964123885086,23.044785737991333,6.9141387939453125e-06,23.044792652130127
131,3.2401628494262695,-247.9628448486328,4.6099534034729,4.086383819580078,0.3110915720462799,0.27380597591400146,248.79769897460938,248.81137084960938,248.43972778320312,132000,6.0680975914001465,6.366911888122559,237.95693969726562,237.37905883789062,7.524270057678223,7.769070148468018,1.5048539638519287,1.5538140535354614,249.40269470214844,249.3625946044922,247.8594207763672,247.7415008544922,0.0,0.0,1119.2174,359.4,0.35011964123885086,20.31796669960022,7.3909759521484375e-06,20.317974090576172
132,3.0163869857788086,-249.20840454101562,5.040951728820801,4.8082990646362305,0.02123653143644333,0.2736378014087677,250.02569580078125,249.85861206054688,249.15115356445312,133000,5.7876434326171875,5.888711929321289,239.9654541015625,239.50039672851562,9.698161125183105,9.599326133728027,1.9396321773529053,1.9198652505874634,250.6824493408203,250.4806671142578,249.15185546875,248.8369903564453,0.0,0.0,1119.2174,359.4,0.35011964123885086,23.91770100593567,6.198883056640625e-06,23.917707204818726
133,2.8332602977752686,-245.49131774902344,4.200538158416748,4.211520671844482,-0.21585816144943237,0.27401262521743774,246.1260986328125,246.0408477783203,246.78689575195312,134000,5.550462245941162,5.905368804931641,236.4188995361328,235.77359008789062,9.478227615356445,10.113771438598633,1.8956456184387207,2.022754192352295,246.7470703125,246.75186157226562,245.18106079101562,245.189453125,0.0,0.0,1119.2174,359.4,0.35011964123885086,22.246946811676025,5.9604644775390625e-06,22.246952772140503
134,3.1175918579101562,-249.17234802246094,2.8188936710357666,3.2259321212768555,0.15218721330165863,0.2741166353225708,249.80804443359375,249.96258544921875,250.26904296875,135000,5.731294631958008,5.981400489807129,239.83238220214844,239.4882354736328,9.23282527923584,9.407601356506348,1.8465650081634521,1.8815202713012695,250.4448699951172,250.5444793701172,248.802001953125,248.8629150390625,0.0,0.0,1119.2174,359.4,0.35011964123885086,20.350144386291504,6.9141387939453125e-06,20.350151300430298
135,3.296602249145508,-250.42010498046875,3.1580042839050293,3.879547119140625,0.38384801149368286,0.27413052320480347,251.5156707763672,250.94970703125,251.681640625,136000,6.333632469177246,6.666727066040039,240.2327423095703,239.0933074951172,8.287128448486328,8.697946548461914,1.6574257612228394,1.7395893335342407,252.11241149902344,251.5622100830078,250.54966735839844,249.93235778808594,0.0,0.0,1119.2174,359.4,0.35011964123885086,20.980416774749756,6.198883056640625e-06,20.980422973632812
136,3.0395255088806152,-245.92935180664062,3.4753353595733643,3.049318790435791,0.050947170704603195,0.2755545377731323,246.57394409179688,246.52093505859375,246.9201202392578,137000,5.552827835083008,5.823369026184082,236.9199676513672,236.3261260986328,9.285906791687012,9.36593246459961,1.8571813106536865,1.8731865882873535,247.31103515625,247.2470703125,245.661865234375,245.53135681152344,0.0,0.0,1119.2174,359.4,0.35011964123885086,20.460622549057007,5.9604644775390625e-06,20.460628509521484
137,3.181121826171875,-261.7474365234375,3.139275550842285,3.061001777648926,0.2339058220386505,0.27487829327583313,262.265380859375,263.01080322265625,263.08807373046875,138000,6.0722336769104,6.355451583862305,251.59194946289062,251.8710174560547,8.156173706054688,8.659468650817871,1.6312346458435059,1.7318936586380005,262.8186950683594,263.5959167480469,261.1103515625,261.7940979003906,0.0,0.0,1119.2174,359.4,0.35011964123885086,20.108232736587524,5.9604644775390625e-06,20.108238697052002
138,2.835684299468994,-230.472412109375,4.2075653076171875,4.3723368644714355,-0.2123238444328308,0.27467426657676697,231.01490783691406,231.13267517089844,230.70843505859375,139000,5.423216819763184,5.447858810424805,221.6882781982422,221.77622985839844,10.559595108032227,10.72933292388916,2.1119189262390137,2.145866632461548,231.68699645996094,231.84033203125,230.53575134277344,230.61196899414062,0.0,0.0,1119.2174,359.4,0.35011964123885086,19.7290461063385,6.4373016357421875e-06,19.729052543640137
139,2.9270997047424316,-248.755126953125,5.221556663513184,6.336873531341553,-0.09411001950502396,0.27501097321510315,249.79718017578125,249.12413024902344,251.63504028320312,140000,5.334685802459717,5.669067859649658,240.5945281982422,239.4176025390625,9.265241622924805,9.978489875793457,1.853048324584961,1.9956979751586914,250.45120239257812,249.9052276611328,248.90286254882812,248.26866149902344,0.0,0.0,2415.8872,758.0,0.748534419167233,20.465370416641235,4.879841089248657,25.345211505889893
140,2.730454444885254,-248.692138671875,3.702786684036255,3.452228307723999,-0.34764841198921204,0.275337815284729,249.4569091796875,249.48760986328125,249.3156280517578,141000,5.562747478485107,5.841132164001465,239.7458038330078,239.18789672851562,9.911745071411133,10.024503707885742,1.982348918914795,2.0049006938934326,249.9919891357422,249.9787139892578,248.65415954589844,248.6417694091797,0.0,0.0,2415.8872,758.0,0.748534419167233,19.578842401504517,5.9604644775390625e-06,19.578848361968994
141,2.992898941040039,-252.1878204345703,3.0135669708251953,3.3786680698394775,-0.009160228073596954,0.27526941895484924,253.11001586914062,252.7090606689453,252.85035705566406,142000,5.866619110107422,5.982213973999023,242.81900024414062,242.16543579101562,9.08375358581543,9.085380554199219,1.8167507648468018,1.8170762062072754,253.7340850830078,253.3156280517578,252.2489471435547,251.84617614746094,0.0,0.0,2415.8872,758.0,0.748534419167233,19.37965226173401,6.198883056640625e-06,19.379658460617065
142,3.2762837409973145,-250.46209716796875,3.0814340114593506,2.959653854370117,0.35699743032455444,0.27468228340148926,251.38320922851562,251.20742797851562,251.4981231689453,143000,5.8090009689331055,6.002115249633789,241.0419921875,240.5292205810547,7.99193000793457,8.094664573669434,1.5983860492706299,1.6189329624176025,251.9272003173828,251.7470245361328,250.10791015625,249.9023895263672,0.0,0.0,2415.8872,758.0,0.748534419167233,19.97594118118286,6.198883056640625e-06,19.975947380065918
143,2.8769936561584473,-241.137939453125,3.289214611053467,3.346698760986328,-0.1592426300048828,0.2740105986595154,241.75143432617188,241.8795166015625,241.5761260986328,144000,5.659375190734863,5.83587646484375,232.013671875,231.717041015625,10.081989288330078,10.245820045471191,2.0163979530334473,2.049164056777954,242.4121856689453,242.5179901123047,240.9330596923828,240.9170684814453,0.0,0.0,2415.8872,758.0,0.748534419167233,20.33869981765747,6.198883056640625e-06,20.338706016540527
144,3.134056568145752,-254.24502563476562,3.761169672012329,2.7554521560668945,0.1725640445947647,0.27602916955947876,254.98605346679688,255.0172576904297,254.46226501464844,145000,6.050947189331055,6.250666618347168,244.24107360839844,243.92442321777344,8.625287055969238,8.813310623168945,1.7250574827194214,1.7626621723175049,255.5215606689453,255.55101013183594,254.0438995361328,254.0660858154297,0.0,0.0,2415.8872,758.0,0.748534419167233,23.787357568740845,8.106231689453125e-06,23.787365674972534
145,3.061353921890259,-253.4675750732422,4.481693267822266,4.518150329589844,0.07864917814731598,0.2775106430053711,254.29312133789062,254.27560424804688,256.0685729980469,146000,5.872187614440918,6.228024005889893,243.9821014404297,243.18606567382812,8.750181198120117,8.600963592529297,1.7500362396240234,1.7201926708221436,254.9384307861328,254.8577423095703,253.1810760498047,252.93980407714844,0.0,0.0,2415.8872,758.0,0.748534419167233,22.557032346725464,5.7220458984375e-06,22.557038068771362
146,3.0451016426086426,-246.4822998046875,4.0639142990112305,3.4721100330352783,0.05806771293282509,0.2759617865085602,247.10968017578125,247.31436157226562,249.12875366210938,147000,6.107441425323486,6.369446277618408,236.29446411132812,236.0353546142578,8.008726119995117,8.511232376098633,1.6017451286315918,1.7022464275360107,247.6883087158203,247.91799926757812,246.37478637695312,246.5006561279297,0.0,0.0,2415.8872,758.0,0.748534419167233,19.481770992279053,5.9604644775390625e-06,19.48177695274353
147,2.99906325340271,-240.9896240234375,3.487922191619873,3.0182018280029297,-0.0012020319700241089,0.2771590054035187,241.78018188476562,241.96597290039062,242.99354553222656,148000,5.715271472930908,6.057485103607178,231.686279296875,231.2805633544922,8.716606140136719,8.838176727294922,1.743321180343628,1.7676353454589844,242.31211853027344,242.43838500976562,240.87954711914062,241.10496520996094,0.0,0.0,2415.8872,758.0,0.748534419167233,20.006764888763428,7.3909759521484375e-06,20.00677227973938
148,3.1202454566955566,-249.51644897460938,3.4573636054992676,4.586872100830078,0.15491832792758942,0.27572566270828247,250.18397521972656,250.52220153808594,250.57850646972656,149000,5.897597789764404,6.1222686767578125,239.84165954589844,239.62661743164062,8.838031768798828,8.641222953796387,1.767606258392334,1.728244662284851,250.72764587402344,251.0115203857422,249.2190399169922,249.4267120361328,0.0,0.0,2415.8872,758.0,0.748534419167233,22.121874809265137,6.67572021484375e-06,22.12188148498535
149,3.14925217628479,-253.27310180664062,3.441647529602051,4.353504657745361,0.19161099195480347,0.27698057889938354,254.35693359375,253.94827270507812,254.00088500976562,150000,6.034398078918457,6.53341817855835,243.611328125,242.1971893310547,7.732929229736328,7.773950576782227,1.5465857982635498,1.5547901391983032,254.9286651611328,254.4927215576172,253.5846710205078,253.029541015625,0.0,0.0,1353.5667,436.0,0.4221257978708703,20.36865258216858,2.8086135387420654,23.177266120910645
150,2.948920726776123,-255.82583618164062,3.261354684829712,3.3883934020996094,-0.06555794179439545,0.27707865834236145,256.3228759765625,256.8575439453125,256.94677734375,151000,6.0353779792785645,6.294886589050293,245.63955688476562,245.7548065185547,9.003418922424316,9.128769874572754,1.8006837368011475,1.825753927230835,256.906005859375,257.4912109375,255.400390625,256.0507507324219,0.0,0.0,1353.5667,436.0,0.4221257978708703,22.570857524871826,6.198883056640625e-06,22.570863723754883
151,3.065737724304199,-250.28797912597656,4.220346450805664,3.4366352558135986,0.08461366593837738,0.27605822682380676,251.5550994873047,250.7783203125,250.12307739257812,152000,5.859585762023926,6.019478797912598,241.1818389892578,240.1927032470703,8.395899772644043,8.703781127929688,1.6791799068450928,1.7407561540603638,252.1562957763672,251.37466430664062,250.57962036132812,249.8040008544922,0.0,0.0,1353.5667,436.0,0.4221257978708703,19.436381340026855,5.9604644775390625e-06,19.436387300491333
152,3.080240488052368,-251.6885223388672,3.7915050983428955,3.5392558574676514,0.10262040048837662,0.27834010124206543,252.31552124023438,252.61917114257812,252.73306274414062,153000,5.752833366394043,6.175462245941162,242.21861267089844,241.62930297851562,8.774212837219238,8.384098052978516,1.7548426389694214,1.6768195629119873,253.02578735351562,253.18809509277344,251.4028778076172,251.65025329589844,0.0,0.0,1353.5667,436.0,0.4221257978708703,19.126746654510498,5.9604644775390625e-06,19.126752614974976
153,2.994157314300537,-243.2861328125,3.8354759216308594,4.189866065979004,-0.007488280534744263,0.2775721549987793,244.31716918945312,244.00054931640625,245.90667724609375,154000,5.820706367492676,6.080347061157227,233.9783172607422,233.1590118408203,8.039461135864258,8.191001892089844,1.6078922748565674,1.6382004022598267,244.88768005371094,244.56382751464844,243.2052764892578,242.783935546875,0.0,0.0,1353.5667,436.0,0.4221257978708703,21.94133734703064,5.9604644775390625e-06,21.941343307495117
154,2.983696937561035,-251.6417236328125,3.975321054458618,4.386078357696533,-0.020800024271011353,0.27919384837150574,252.28469848632812,252.2625732421875,253.39712524414062,155000,5.7222747802734375,6.1195068359375,242.29833984375,241.61074829101562,9.316276550292969,9.690814018249512,1.8632553815841675,1.9381628036499023,252.95933532714844,252.98399353027344,251.3898468017578,251.38389587402344,0.0,0.0,1353.5667,436.0,0.4221257978708703,20.91263723373413,6.198883056640625e-06,20.912643432617188
155,3.1868343353271484,-241.11981201171875,3.3190982341766357,3.3038101196289062,0.2394862174987793,0.2775341868400574,241.8583526611328,241.93099975585938,241.23797607421875,156000,5.568520545959473,5.781710624694824,231.8861541748047,231.63330078125,8.089282989501953,8.73771858215332,1.617856502532959,1.7475436925888062,242.3634033203125,242.5315399169922,240.8228302001953,240.9805908203125,0.0,0.0,1353.5667,436.0,0.4221257978708703,21.227937698364258,5.9604644775390625e-06,21.227943658828735
156,2.8561720848083496,-249.45558166503906,5.04211950302124,4.976811408996582,-0.18354734778404236,0.2791067063808441,250.22152709960938,250.44134521484375,249.92225646972656,157000,5.527055740356445,5.632754325866699,240.5971221923828,240.58299255371094,9.581892967224121,9.598945617675781,1.9163786172866821,1.9197890758514404,250.8463134765625,251.03115844726562,249.2830047607422,249.3563995361328,0.0,0.0,1353.5667,436.0,0.4221257978708703,21.647688627243042,5.9604644775390625e-06,21.64769458770752
157,2.8654932975769043,-250.79901123046875,3.123960494995117,3.6028618812561035,-0.1716378629207611,0.2791367173194885,251.7972412109375,251.5425262451172,252.33639526367188,158000,5.570984840393066,5.844732284545898,241.97825622558594,241.26101684570312,8.987380027770996,9.043377876281738,1.7974759340286255,1.8086755275726318,252.35899353027344,252.093017578125,250.81504821777344,250.48472595214844,0.0,0.0,1353.5667,436.0,0.4221257978708703,19.890597581863403,6.67572021484375e-06,19.890604257583618
158,2.9382221698760986,-252.5548553466797,3.3047738075256348,2.8199572563171387,-0.078795425593853,0.27930015325546265,253.14923095703125,253.3482208251953,252.3697509765625,159000,5.845474720001221,6.078337669372559,242.80967712402344,242.5885467529297,8.529128074645996,8.448034286499023,1.7058255672454834,1.6896069049835205,253.7824249267578,253.9783172607422,252.24404907226562,252.40234375,0.0,0.0,1353.5667,436.0,0.4221257978708703,20.608691215515137,6.198883056640625e-06,20.608697414398193
159,2.97147536277771,-248.28421020507812,3.384911298751831,3.923995018005371,-0.03627932071685791,0.28031015396118164,249.31341552734375,248.74876403808594,248.34469604492188,160000,5.729436874389648,6.027249813079834,239.1598358154297,238.0277099609375,9.404183387756348,9.418100357055664,1.8808367252349854,1.883620023727417,249.95347595214844,249.37217712402344,248.5239715576172,247.86082458496094,0.0,0.0,2884.7622,899.6,0.8926009905326484,19.501729249954224,5.838382959365845,25.34011220932007
160,3.0903797149658203,-245.18905639648438,2.643580913543701,3.0706610679626465,0.11550081521272659,0.27860721945762634,246.20272827148438,245.82443237304688,245.47096252441406,161000,5.893616676330566,6.026723861694336,235.7567901611328,235.07969665527344,8.438285827636719,8.512410163879395,1.687657117843628,1.7024821043014526,246.8298797607422,246.44754028320312,245.445556640625,244.9787139892578,0.0,0.0,2884.7622,899.6,0.8926009905326484,21.623936891555786,7.152557373046875e-06,21.62394404411316
161,2.9900598526000977,-248.6704559326172,3.3518266677856445,2.4156572818756104,-0.012555643916130066,0.28276947140693665,249.40408325195312,249.3979034423828,251.41754150390625,162000,5.733685493469238,6.062289237976074,239.23672485351562,238.6731414794922,8.19571590423584,8.410502433776855,1.6391432285308838,1.682100534439087,249.9422149658203,249.92417907714844,248.3515167236328,248.36270141601562,0.0,0.0,2884.7622,899.6,0.8926009905326484,19.867706775665283,6.4373016357421875e-06,19.86771321296692
162,3.0536751747131348,-241.97518920898438,4.98451566696167,4.427525520324707,0.06828522682189941,0.28021711111068726,242.84786987304688,242.8582763671875,242.3137969970703,163000,5.572880744934082,5.756073951721191,232.9761199951172,232.71104431152344,8.97998046875,9.436843872070312,1.7959961891174316,1.8873686790466309,243.4398956298828,243.4442138671875,241.9164276123047,241.99685668945312,0.0,0.0,2884.7622,899.6,0.8926009905326484,20.387120723724365,6.67572021484375e-06,20.38712739944458
163,3.2577872276306152,-243.3778076171875,3.333073139190674,3.068417549133301,0.32843247056007385,0.27969810366630554,243.85113525390625,244.09571838378906,244.802490234375,164000,5.816405296325684,6.17049503326416,233.63951110839844,233.1850128173828,9.079419136047363,9.150026321411133,1.815883755683899,1.830005168914795,244.56871032714844,244.7297821044922,242.97500610351562,243.12075805664062,0.0,0.0,2884.7622,899.6,0.8926009905326484,19.975953102111816,8.106231689453125e-06,19.975961208343506
164,2.927717924118042,-246.79481506347656,3.4609875679016113,3.717238426208496,-0.09230680763721466,0.2788625955581665,247.70513916015625,247.40338134765625,247.49923706054688,165000,5.741672039031982,6.08742618560791,237.5270538330078,236.6308135986328,8.730487823486328,8.903663635253906,1.7460975646972656,1.7807326316833496,248.3363037109375,248.04356384277344,246.7809600830078,246.46926879882812,0.0,0.0,2884.7622,899.6,0.8926009905326484,20.27023458480835,5.9604644775390625e-06,20.270240545272827
165,2.945570468902588,-255.24227905273438,3.2607977390289307,3.3796334266662598,-0.06937141716480255,0.2795644700527191,256.04656982421875,255.9379119873047,256.41595458984375,166000,5.791875839233398,6.131155014038086,245.79345703125,245.0390625,8.70853042602539,8.744879722595215,1.741706132888794,1.7489759922027588,256.615966796875,256.5036926269531,254.90476989746094,254.67385864257812,0.0,0.0,2884.7622,899.6,0.8926009905326484,21.90204119682312,5.7220458984375e-06,21.90204691886902
166,3.0310683250427246,-249.4812774658203,4.269130706787109,3.1385154724121094,0.039731986820697784,0.2783566415309906,250.7025909423828,250.0908203125,249.22140502929688,167000,5.7481160163879395,6.065799713134766,240.5525665283203,239.21377563476562,9.150639533996582,8.473621368408203,1.8301279544830322,1.694724202156067,251.36741638183594,250.5673370361328,250.0970001220703,249.35679626464844,0.0,0.0,2884.7622,899.6,0.8926009905326484,20.48131227493286,7.867813110351562e-06,20.48132014274597
167,3.157895803451538,-250.48202514648438,4.669407844543457,4.261080741882324,0.20093581080436707,0.2801063656806946,251.37179565429688,251.09228515625,252.0528106689453,168000,5.897303104400635,6.093035697937012,241.0260772705078,240.3218231201172,9.057160377502441,9.093048095703125,1.811432123184204,1.8186097145080566,252.02651977539062,251.73831176757812,250.4066619873047,250.1031951904297,0.0,0.0,2884.7622,899.6,0.8926009905326484,21.31351113319397,6.4373016357421875e-06,21.313517570495605
168,3.00576114654541,-252.59799194335938,2.9928150177001953,2.3079018592834473,0.0073576271533966064,0.2788466215133667,253.53961181640625,253.31289672851562,252.55511474609375,169000,5.825958251953125,6.042950630187988,243.24539184570312,242.6144561767578,8.075738906860352,8.378074645996094,1.6151477098464966,1.675614833831787,254.078125,253.8585968017578,252.49961853027344,252.3769073486328,0.0,0.0,2884.7622,899.6,0.8926009905326484,21.689332008361816,8.344650268554688e-06,21.689340353012085
169,2.772672653198242,-255.01702880859375,4.75514030456543,3.922722101211548,-0.2909669876098633,0.2780520021915436,255.71170043945312,255.73941040039062,255.52520751953125,170000,5.629410743713379,5.820147514343262,245.83872985839844,245.53396606445312,9.326275825500488,9.334854125976562,1.8652552366256714,1.8669708967208862,256.34771728515625,256.322265625,254.59959411621094,254.58203125,0.0,0.0,2299.945,722.2,0.7129100786019984,21.863668203353882,4.699248552322388,26.56291675567627
170,3.0982961654663086,-249.97946166992188,3.5653414726257324,4.243441581726074,0.12500524520874023,0.28034913539886475,250.7541961669922,250.9304962158203,251.35711669921875,171000,5.952012062072754,6.253252029418945,240.28173828125,239.95188903808594,8.248027801513672,8.284470558166504,1.6496055126190186,1.6568940877914429,251.330078125,251.51646423339844,249.5060272216797,249.75634765625,0.0,0.0,2299.945,722.2,0.7129100786019984,20.052082777023315,6.67572021484375e-06,20.05208945274353
171,2.870128870010376,-244.91465759277344,3.0785651206970215,3.359569549560547,-0.1654086858034134,0.27981191873550415,245.97940063476562,245.48968505859375,245.14434814453125,172000,5.155500411987305,5.375655651092529,236.87661743164062,236.0087432861328,8.883702278137207,9.37972640991211,1.7767404317855835,1.8759453296661377,246.5099639892578,246.06700134277344,244.84512329101562,244.3699188232422,0.0,0.0,2299.945,722.2,0.7129100786019984,20.50956130027771,5.9604644775390625e-06,20.509567260742188
172,2.971611976623535,-251.80691528320312,3.688599109649658,4.204792022705078,-0.035842038691043854,0.28292417526245117,252.72607421875,252.1796875,253.02886962890625,173000,5.750946521759033,5.863755226135254,242.6417999267578,241.7844696044922,9.031927108764648,8.942471504211426,1.8063853979110718,1.788494348526001,253.46568298339844,252.8790740966797,251.889892578125,251.3032684326172,0.0,0.0,2299.945,722.2,0.7129100786019984,20.08126211166382,5.7220458984375e-06,20.081267833709717
173,2.914064884185791,-250.17202758789062,3.5259904861450195,3.065676689147949,-0.10901045799255371,0.28124693036079407,251.32675170898438,250.69493103027344,250.54849243164062,174000,5.411670207977295,5.812300682067871,241.90151977539062,240.57310485839844,9.406745910644531,9.300078392028809,1.8813492059707642,1.860015630722046,251.94091796875,251.26895141601562,250.4071502685547,249.64822387695312,0.0,0.0,2299.945,722.2,0.7129100786019984,22.3715181350708,9.298324584960938e-06,22.371527433395386
174,3.111250877380371,-247.7091064453125,3.5434486865997314,3.6691155433654785,0.1413349211215973,0.28071507811546326,248.33181762695312,248.38687133789062,248.94354248046875,175000,6.041172027587891,6.140223503112793,237.65489196777344,237.61160278320312,9.1283597946167,9.969462394714355,1.825671911239624,1.9938924312591553,249.00564575195312,249.13487243652344,247.272705078125,247.53369140625,0.0,0.0,2299.945,722.2,0.7129100786019984,22.652288675308228,5.7220458984375e-06,22.652294397354126
175,2.993489980697632,-247.59393310546875,4.214323997497559,4.295424938201904,-0.008282221853733063,0.28020596504211426,248.39556884765625,248.5576171875,248.34896850585938,176000,5.770493984222412,6.035187244415283,238.1001434326172,237.6738739013672,8.131439208984375,7.973355293273926,1.626287817955017,1.5946710109710693,248.92333984375,248.9401397705078,247.21275329589844,247.1904754638672,0.0,0.0,2299.945,722.2,0.7129100786019984,20.82662057876587,6.198883056640625e-06,20.826626777648926
176,3.219559669494629,-248.1986083984375,4.3973002433776855,4.923069953918457,0.2772568166255951,0.28286489844322205,249.27716064453125,248.79580688476562,249.9723663330078,177000,6.07449197769165,6.07404088973999,238.2700653076172,237.91177368164062,7.743764400482178,8.330974578857422,1.5487529039382935,1.6661949157714844,249.8696746826172,249.397705078125,248.0249481201172,247.63645935058594,0.0,0.0,2299.945,722.2,0.7129100786019984,19.768266201019287,6.4373016357421875e-06,19.768272638320923
177,2.762697696685791,-245.9771270751953,2.4681708812713623,2.591299533843994,-0.3005979657173157,0.2817515730857849,246.8774871826172,246.67965698242188,246.89712524414062,178000,5.751552581787109,5.959020614624023,236.7209014892578,236.16616821289062,8.634419441223145,8.98022747039795,1.726883888244629,1.7960455417633057,247.4262237548828,247.1945343017578,246.22080993652344,245.9862518310547,0.0,0.0,2299.945,722.2,0.7129100786019984,20.297118425369263,6.198883056640625e-06,20.29712462425232
178,2.920773983001709,-249.0426025390625,5.872859001159668,5.132125377655029,-0.10041257739067078,0.28155770897865295,249.8267822265625,249.65646362304688,249.55526733398438,179000,5.685428619384766,5.926540374755859,239.8190460205078,239.27517700195312,8.656622886657715,9.069984436035156,1.731324553489685,1.8139969110488892,250.4113311767578,250.294189453125,248.76220703125,248.68212890625,0.0,0.0,2299.945,722.2,0.7129100786019984,20.72155785560608,5.9604644775390625e-06,20.721563816070557
179,3.3570632934570312,-249.32635498046875,3.080622911453247,2.6351919174194336,0.45319461822509766,0.28104859590530396,250.07525634765625,250.27133178710938,249.64373779296875,180000,6.051235675811768,6.336055278778076,239.22488403320312,238.86863708496094,7.306999206542969,7.648734092712402,1.461399793624878,1.5297467708587646,250.6400909423828,250.81533813476562,249.24375915527344,249.3976287841797,0.0,0.0,2579.109,815.8,0.7986859931781611,23.336222410202026,5.368227481842041,28.704449892044067
180,3.0138864517211914,-246.40057373046875,5.2024993896484375,4.660794734954834,0.017552539706230164,0.28251785039901733,247.02752685546875,247.2054443359375,247.79132080078125,181000,5.920578956604004,5.935271263122559,236.5291290283203,236.6347198486328,8.376154899597168,8.605942726135254,1.6752309799194336,1.7211885452270508,247.72972106933594,247.83811950683594,246.2054443359375,246.29014587402344,0.0,0.0,2579.109,815.8,0.7986859931781611,22.969946146011353,6.4373016357421875e-06,22.96995258331299
181,3.03666353225708,-252.83131408691406,2.9287843704223633,3.5335745811462402,0.04655042290687561,0.2809270918369293,253.4390106201172,254.26800537109375,252.8129425048828,182000,6.064597129821777,6.240959644317627,242.5564422607422,243.0850067138672,7.58830451965332,8.23454761505127,1.5176608562469482,1.646909475326538,253.89013671875,254.7163543701172,252.41921997070312,253.23521423339844,0.0,0.0,2579.109,815.8,0.7986859931781611,20.261838912963867,6.9141387939453125e-06,20.26184582710266
182,3.314363956451416,-243.08746337890625,4.91596794128418,4.677850723266602,0.39974692463874817,0.28038108348846436,243.88424682617188,244.07794189453125,244.1951904296875,183000,5.572920799255371,5.855166435241699,233.89402770996094,233.5726318359375,8.372397422790527,8.415414810180664,1.6744794845581055,1.683082938194275,244.4418182373047,244.56631469726562,242.7955780029297,242.99034118652344,0.0,0.0,2579.109,815.8,0.7986859931781611,20.61819314956665,5.9604644775390625e-06,20.618199110031128
183,3.0647292137145996,-256.8390197753906,4.12010383605957,4.182199001312256,0.08173378556966782,0.2828883230686188,257.9340515136719,257.47137451171875,256.5848388671875,184000,6.137472152709961,6.091567516326904,246.91543579101562,246.4983673095703,7.2933197021484375,7.419905662536621,1.4586639404296875,1.4839811325073242,258.5415954589844,258.0003356933594,256.7631530761719,256.3291931152344,0.0,0.0,2579.109,815.8,0.7986859931781611,20.596598386764526,1.6927719116210938e-05,20.596615314483643
184,2.861788749694824,-251.67881774902344,3.8743228912353516,3.7336697578430176,-0.17482367157936096,0.2822669744491577,252.47830200195312,252.5185089111328,251.63174438476562,185000,5.870648384094238,6.273440361022949,241.86338806152344,241.21743774414062,8.01587963104248,8.459321975708008,1.6031758785247803,1.6918643712997437,252.9654541015625,253.0111083984375,251.4905242919922,251.58665466308594,0.0,0.0,2579.109,815.8,0.7986859931781611,23.949976444244385,6.9141387939453125e-06,23.94998335838318
185,3.2532498836517334,-254.6326904296875,2.998861312866211,3.0122108459472656,0.3192741870880127,0.28345316648483276,255.57748413085938,255.30877685546875,254.86895751953125,186000,6.400452613830566,6.5143842697143555,244.2642059326172,243.6795196533203,8.575897216796875,8.375528335571289,1.715179443359375,1.6751055717468262,256.3261413574219,255.95556640625,254.59446716308594,254.16836547851562,0.0,0.0,2579.109,815.8,0.7986859931781611,23.165894746780396,6.198883056640625e-06,23.165900945663452
186,3.075390577316284,-245.85980224609375,5.4278974533081055,5.48452615737915,0.09482777863740921,0.28427350521087646,246.2779083251953,246.43582153320312,248.00103759765625,187000,5.571795463562012,5.6580657958984375,236.7527618408203,236.7241668701172,9.872873306274414,10.275574684143066,1.9745745658874512,2.055114984512329,247.14097595214844,247.3020477294922,245.38662719726562,245.5733642578125,0.0,0.0,2579.109,815.8,0.7986859931781611,23.71201753616333,6.198883056640625e-06,23.712023735046387
187,3.3635716438293457,-236.47227478027344,4.09994649887085,3.236985683441162,0.45781511068344116,0.2838764786720276,237.21246337890625,237.52655029296875,238.774169921875,188000,5.9174041748046875,6.228455066680908,226.6300506591797,226.36192321777344,7.434895038604736,7.718914031982422,1.4869790077209473,1.5437828302383423,237.7668914794922,238.0404815673828,235.9827117919922,236.30532836914062,0.0,0.0,2579.109,815.8,0.7986859931781611,24.467622756958008,6.9141387939453125e-06,24.4676296710968
188,3.1010124683380127,-241.2449188232422,4.565540313720703,4.702627182006836,0.1272931694984436,0.2836049497127533,242.39109802246094,241.77581787109375,242.52308654785156,189000,5.66119909286499,5.905090808868408,232.39236450195312,231.3519287109375,8.51329517364502,9.026719093322754,1.702659010887146,1.8053438663482666,242.99954223632812,242.4477996826172,241.2965545654297,240.65452575683594,0.0,0.0,2579.109,815.8,0.7986859931781611,24.709362506866455,5.9604644775390625e-06,24.709368467330933
189,3.1219065189361572,-249.7712860107422,3.5443267822265625,2.9872002601623535,0.1539687216281891,0.2828029692173004,250.45608520507812,250.55740356445312,252.12550354003906,190000,5.785892486572266,6.018789768218994,240.35618591308594,239.98770141601562,9.288455963134766,9.146295547485352,1.8576912879943848,1.8292590379714966,251.15908813476562,251.1972198486328,249.44216918945312,249.5251007080078,0.0,0.0,1112.3835,361.4,0.3480198834715818,24.235453367233276,2.7215309143066406,26.956984281539917
190,2.9986157417297363,-248.58758544921875,3.274718761444092,2.71860933303833,-0.0017361491918563843,0.28524675965309143,249.39979553222656,249.31663513183594,249.74270629882812,191000,5.739438056945801,5.84394645690918,239.16552734375,238.9373321533203,7.386859893798828,7.7973222732543945,1.4773719310760498,1.559464454650879,249.94326782226562,249.86572265625,248.42459106445312,248.37474060058594,0.0,0.0,1112.3835,361.4,0.3480198834715818,23.636258363723755,5.9604644775390625e-06,23.636264324188232
191,3.008272647857666,-249.18434143066406,3.37894868850708,3.33522367477417,0.010398156940937042,0.2845284342765808,249.96531677246094,249.8983154296875,251.70445251464844,192000,5.998838901519775,6.2266926765441895,239.38035583496094,238.88829040527344,8.027748107910156,8.378706932067871,1.6055495738983154,1.6757413148880005,250.5507354736328,250.42752075195312,248.78079223632812,248.7828369140625,0.0,0.0,1112.3835,361.4,0.3480198834715818,22.40611696243286,6.4373016357421875e-06,22.406123399734497
192,3.00179386138916,-249.63018798828125,3.018148183822632,3.2466211318969727,0.002250850200653076,0.2851838171482086,250.22415161132812,250.6427001953125,251.56065368652344,193000,6.117062568664551,6.346536636352539,239.40830993652344,239.36534118652344,7.754001617431641,7.835811614990234,1.5508003234863281,1.567162275314331,250.84109497070312,251.21597290039062,249.2487030029297,249.6401824951172,0.0,0.0,1112.3835,361.4,0.3480198834715818,23.404967784881592,6.198883056640625e-06,23.40497398376465
193,3.0205514430999756,-252.1783905029297,5.300858974456787,5.285933017730713,0.02583567053079605,0.28447404503822327,253.08685302734375,252.84889221191406,253.36036682128906,194000,5.680251121520996,5.821684837341309,242.95274353027344,242.4799346923828,8.824357986450195,8.930521011352539,1.764871597290039,1.7861042022705078,253.6445770263672,253.42369079589844,252.23912048339844,251.9243621826172,0.0,0.0,1112.3835,361.4,0.3480198834715818,23.64343237876892,5.7220458984375e-06,23.64343810081482
194,3.146167755126953,-244.17608642578125,3.6533422470092773,2.881643772125244,0.1836191713809967,0.28472810983657837,245.20533752441406,245.0482177734375,245.29046630859375,195000,5.600523948669434,5.99092960357666,235.05935668945312,234.2532958984375,7.1947503089904785,7.851777076721191,1.4389500617980957,1.5703554153442383,245.6603240966797,245.5453643798828,244.0168914794922,243.9564208984375,0.0,0.0,1112.3835,361.4,0.3480198834715818,24.571111917495728,6.4373016357421875e-06,24.571118354797363
195,3.0064711570739746,-247.6583251953125,3.940764904022217,4.4108123779296875,0.008068367838859558,0.2874247133731842,248.5604705810547,248.4761505126953,249.14044189453125,196000,5.975691795349121,6.170016288757324,237.8957061767578,237.4518585205078,7.614789009094238,7.851617336273193,1.5229578018188477,1.5703234672546387,249.1167449951172,249.0088348388672,247.75804138183594,247.6238250732422,0.0,0.0,1112.3835,361.4,0.3480198834715818,22.983762741088867,6.198883056640625e-06,22.983768939971924
196,2.93505859375,-243.49478149414062,3.813180923461914,3.870492458343506,-0.08098157495260239,0.2873682677745819,244.07846069335938,244.1939239501953,244.50482177734375,197000,5.404010772705078,5.681276321411133,234.64146423339844,234.285400390625,9.72162914276123,9.872330665588379,1.9443258047103882,1.97446608543396,244.7197723388672,244.8010711669922,243.04795837402344,243.1043243408203,0.0,0.0,1112.3835,361.4,0.3480198834715818,23.60873031616211,6.198883056640625e-06,23.608736515045166
197,3.1268372535705566,-244.63668823242188,3.1161067485809326,3.602586507797241,0.15861745178699493,0.2863452434539795,245.75831604003906,245.13414001464844,245.02651977539062,198000,5.888788223266602,6.178566932678223,235.3463134765625,234.305419921875,8.743700981140137,9.319738388061523,1.7487401962280273,1.8639476299285889,246.41162109375,245.8131561279297,244.9693145751953,244.439697265625,0.0,0.0,1112.3835,361.4,0.3480198834715818,23.32301902770996,5.7220458984375e-06,23.32302474975586
